; generated by Slic3r 1.0.0 on 2014-05-06 at 23:39:58

; layer_height = 0.4
; perimeters = 3
; top_solid_layers = 3
; bottom_solid_layers = 3
; fill_density = 0.4
; perimeter_speed = 30
; infill_speed = 60
; travel_speed = 130
; nozzle_diameter = 0.5
; filament_diameter = 3
; extrusion_multiplier = 1
; perimeters extrusion width = 0.50mm
; infill extrusion width = 0.53mm
; solid infill extrusion width = 0.53mm
; top infill extrusion width = 0.53mm
; first layer extrusion width = 1.00mm

G21 ; set units to millimeters
M107
M190 S61 ; wait for bed temperature to be reached
M104 S190 ; set temperature
G28 ; home all axes
G1 Z5 F5000 ; lift nozzle
M109 S190 ; wait for temperature to be reached
G90 ; use absolute coordinates
G92 E0
M82 ; use absolute distances for extrusion
G1 F1800.000 E-1.00000
G92 E0
G1 Z0.500 F7800.000
G1 X79.328 Y79.206 F7800.000
G1 E1.00000 F1800.000
G1 X79.938 Y78.626 E1.05315 F540.000
G1 X80.628 Y78.136 E1.10659
G1 X82.558 Y76.906 E1.25111
G1 X83.098 Y76.596 E1.29042
G1 X83.668 Y76.326 E1.33025
G1 X85.638 Y75.526 E1.46451
G1 X86.228 Y75.316 E1.50406
G1 X86.838 Y75.166 E1.54373
G1 X91.588 Y74.186 E1.84998
G1 X107.028 Y71.556 E2.83899
G1 X108.188 Y71.456 E2.91251
G1 X109.558 Y71.456 E2.99902
G1 X110.468 Y71.516 E3.05661
G1 X111.358 Y71.696 E3.11395
G1 X113.618 Y72.306 E3.26176
G1 X114.388 Y72.556 E3.31289
G1 X115.118 Y72.906 E3.36401
G1 X117.188 Y74.036 E3.51293
G1 X117.688 Y74.336 E3.54975
G1 X119.898 Y75.796 E3.71700
G1 X120.698 Y76.416 E3.78091
G1 X121.398 Y77.136 E3.84432
G1 X123.468 Y79.626 E4.04879
G1 X124.058 Y80.466 E4.11361
G1 X125.628 Y83.066 E4.30540
G1 X126.798 Y85.276 E4.46330
G1 X127.158 Y86.086 E4.51927
G1 X128.058 Y88.486 E4.68113
G1 X128.288 Y89.206 E4.72885
G1 X128.978 Y91.916 E4.90544
G1 X129.588 Y94.506 E5.07346
G1 X129.728 Y95.286 E5.12350
G1 X129.768 Y96.086 E5.17408
G1 X129.768 Y108.756 E5.97413
G1 X129.708 Y109.666 E6.03172
G1 X129.338 Y112.426 E6.20756
G1 X128.908 Y114.726 E6.35531
G1 X128.668 Y115.646 E6.41535
G1 X127.818 Y118.186 E6.58448
G1 X127.368 Y119.226 E6.65604
G1 X126.488 Y120.886 E6.77468
G1 X125.638 Y122.396 E6.88410
G1 X125.398 Y122.786 E6.91301
G1 X124.508 Y124.146 E7.01565
G1 X123.458 Y125.636 E7.13075
G1 X122.608 Y126.626 E7.21314
G1 X121.568 Y127.436 E7.29638
G1 X120.408 Y128.046 E7.37914
G1 X119.148 Y128.416 E7.46206
G1 X117.838 Y128.536 E7.54513
G1 X116.378 Y128.536 E7.63732
G1 X115.488 Y128.476 E7.69365
G1 X79.548 Y123.786 E9.98234
G1 X78.098 Y123.436 E10.07653
G1 X76.758 Y122.786 E10.17058
G1 X75.588 Y121.856 E10.26496
G1 X74.648 Y120.696 E10.35923
G1 X73.318 Y118.636 E10.51407
G1 X72.958 Y118.006 E10.55989
G1 X72.668 Y117.346 E10.60541
G1 X71.888 Y115.296 E10.74391
G1 X71.638 Y114.486 E10.79744
G1 X70.428 Y109.546 E11.11860
G1 X70.278 Y108.736 E11.17062
G1 X70.228 Y107.906 E11.22312
G1 X70.228 Y102.676 E11.55338
G1 X70.488 Y96.666 E11.93324
G1 X70.778 Y93.926 E12.10722
G1 X70.868 Y93.306 E12.14678
G1 X71.448 Y90.436 E12.33167
G1 X71.618 Y89.796 E12.37349
G1 X71.838 Y89.176 E12.41503
G1 X72.868 Y86.686 E12.58518
G1 X73.458 Y85.566 E12.66512
G1 X74.238 Y84.576 E12.74470
G1 X79.236 Y79.303 E13.20346
G1 F1800.000 E12.20346
G92 E0
G1 X86.614 Y86.233 F7800.000
G1 E1.00000 F1800.000
G1 X88.544 Y86.233 E1.12187 F540.000
G1 X88.544 Y85.009 E1.19916
G1 X90.521 Y85.009 E1.32400
G1 X90.521 Y84.209 E1.37453
G1 X92.595 Y84.209 E1.50553
G1 X92.595 Y83.834 E1.52919
G1 X94.043 Y83.834 E1.62061
G1 X94.043 Y83.545 E1.63884
G1 X95.270 Y83.545 E1.71635
G1 X95.270 Y83.230 E1.73625
G1 X97.062 Y83.230 E1.84935
G1 X97.062 Y83.076 E1.85910
G1 X99.696 Y83.076 E2.02543
G1 X99.696 Y83.455 E2.04940
G1 X101.202 Y83.455 E2.14453
G1 X101.202 Y85.475 E2.27206
G1 X100.308 Y85.475 E2.32854
G1 X100.308 Y86.982 E2.42367
G1 X99.790 Y86.982 E2.45638
G1 X99.790 Y89.100 E2.59014
G1 X99.272 Y89.100 E2.62283
G1 X99.272 Y94.895 E2.98875
G1 X99.743 Y94.895 E3.01848
G1 X99.743 Y97.484 E3.18198
G1 X105.632 Y97.484 E3.55384
G1 X105.632 Y96.683 E3.60439
G1 X106.338 Y96.683 E3.64897
G1 X106.338 Y95.460 E3.72625
G1 X107.044 Y95.460 E3.77084
G1 X107.044 Y94.141 E3.85408
G1 X107.656 Y94.141 E3.89271
G1 X107.656 Y92.635 E3.98783
G1 X108.362 Y92.635 E4.03242
G1 X108.362 Y90.564 E4.16321
G1 X109.257 Y90.564 E4.21970
G1 X109.257 Y88.116 E4.37428
G1 X110.057 Y88.116 E4.42481
G1 X110.057 Y86.704 E4.51399
G1 X110.480 Y86.704 E4.54073
G1 X110.480 Y84.350 E4.68936
G1 X110.951 Y84.350 E4.71908
G1 X110.951 Y83.832 E4.75178
G1 X113.818 Y83.832 E4.93283
G1 X113.818 Y86.327 E5.09038
G1 X115.889 Y86.327 E5.22117
G1 X115.889 Y88.587 E5.36384
G1 X117.254 Y88.587 E5.45004
G1 X117.254 Y90.799 E5.58975
G1 X118.431 Y90.799 E5.66407
G1 X118.431 Y93.200 E5.81567
G1 X119.326 Y93.200 E5.87213
G1 X119.326 Y95.789 E6.03563
G1 X119.985 Y95.789 E6.07726
G1 X119.985 Y98.378 E6.24075
G1 X120.597 Y98.378 E6.27939
G1 X120.597 Y105.776 E6.74652
G1 X120.278 Y105.690 E6.76739
G1 X120.278 Y109.403 E7.00184
G1 X119.849 Y109.518 E7.02985
G1 X119.849 Y111.178 E7.13469
G1 X118.996 Y111.178 E7.18855
G1 X118.996 Y113.720 E7.34908
G1 X118.196 Y113.720 E7.39962
G1 X118.196 Y115.226 E7.49473
G1 X117.349 Y115.226 E7.54823
G1 X117.349 Y116.733 E7.64336
G1 X115.847 Y116.733 E7.73820
G1 X115.847 Y116.686 E7.74118
G1 X114.011 Y116.686 E7.85710
G1 X114.011 Y115.368 E7.94033
G1 X112.175 Y115.368 E8.05626
G1 X112.175 Y114.191 E8.13057
G1 X110.292 Y114.191 E8.24947
G1 X110.292 Y113.061 E8.32083
G1 X108.597 Y113.061 E8.42784
G1 X108.597 Y111.978 E8.49621
G1 X108.080 Y111.978 E8.52891
G1 X108.080 Y103.471 E9.06611
G1 X107.892 Y103.521 E9.07837
G1 X107.892 Y103.175 E9.10019
G1 X107.279 Y103.175 E9.13888
G1 X107.279 Y101.857 E9.22213
G1 X102.049 Y101.857 E9.55236
G1 X102.049 Y103.976 E9.68614
G1 X101.484 Y103.976 E9.72182
G1 X101.484 Y105.576 E9.82288
G1 X100.077 Y105.576 E9.91177
G1 X100.077 Y104.729 E9.96529
G1 X99.889 Y104.729 E9.97717
G1 X99.889 Y101.386 E10.18822
G1 X99.183 Y101.386 E10.23280
G1 X99.183 Y100.687 E10.27694
G1 X92.541 Y100.678 E10.69635
G1 X92.541 Y101.743 E10.76359
G1 X91.792 Y101.743 E10.81089
G1 X91.792 Y102.758 E10.87500
G1 X91.226 Y102.758 E10.91072
G1 X91.226 Y103.624 E10.96538
G1 X90.760 Y103.624 E10.99480
G1 X90.760 Y109.526 E11.36751
G1 X91.242 Y109.526 E11.39797
G1 X91.242 Y110.525 E11.46102
G1 X91.892 Y110.525 E11.50202
G1 X91.892 Y111.563 E11.56758
G1 X89.944 Y111.563 E11.69054
G1 X89.944 Y112.045 E11.72101
G1 X87.947 Y112.045 E11.84713
G1 X87.947 Y112.511 E11.87655
G1 X85.900 Y112.511 E12.00583
G1 X85.900 Y112.961 E12.03421
G1 X84.102 Y112.961 E12.14771
G1 X84.102 Y113.410 E12.17608
G1 X82.199 Y113.410 E12.29628
G1 X82.199 Y112.611 E12.34671
G1 X81.400 Y112.611 E12.39715
G1 X81.400 Y110.564 E12.52643
G1 X80.618 Y110.564 E12.57582
G1 X80.618 Y108.051 E12.73451
G1 X80.052 Y108.051 E12.77025
G1 X80.052 Y105.621 E12.92369
G1 X79.669 Y105.621 E12.94786
G1 X79.669 Y99.257 E13.34971
G1 X79.919 Y99.257 E13.36549
G1 X79.919 Y96.966 E13.51017
G1 X80.494 Y96.966 E13.54646
G1 X80.494 Y94.094 E13.72778
G1 X81.529 Y94.094 E13.79317
G1 X81.529 Y91.606 E13.95029
G1 X83.412 Y91.606 E14.06920
G1 X83.412 Y89.622 E14.19446
G1 X84.542 Y89.622 E14.26581
G1 X84.542 Y88.634 E14.32825
G1 X85.531 Y88.634 E14.39067
G1 X85.531 Y87.457 E14.46498
G1 X86.614 Y87.457 E14.53335
G1 X86.614 Y86.367 E14.60218
G1 X85.721 Y86.564 F7800.000
G1 X85.721 Y85.340 E14.67947 F540.000
G1 X87.651 Y85.340 E14.80134
G1 X87.651 Y84.116 E14.87863
G1 X89.628 Y84.116 E15.00347
G1 X89.628 Y83.316 E15.05400
G1 X91.702 Y83.316 E15.18500
G1 X91.702 Y82.941 E15.20866
G1 X93.150 Y82.941 E15.30008
G1 X93.150 Y82.652 E15.31832
G1 X94.378 Y82.652 E15.39583
G1 X94.378 Y82.337 E15.41572
G1 X96.169 Y82.337 E15.52883
G1 X96.169 Y82.183 E15.53857
G1 X100.588 Y82.183 E15.81764
G1 X100.588 Y82.563 E15.84161
G1 X102.660 Y82.563 E15.97240
G1 X102.660 Y82.892 E15.99322
G1 X103.036 Y82.892 E16.01700
G1 X103.036 Y84.862 E16.14134
G1 X102.095 Y84.862 E16.20077
G1 X102.095 Y86.368 E16.29588
G1 X101.200 Y86.368 E16.35237
G1 X101.200 Y87.874 E16.44750
G1 X100.682 Y87.874 E16.48021
G1 X100.682 Y89.993 E16.61396
G1 X100.165 Y89.993 E16.64666
G1 X100.165 Y94.002 E16.89983
G1 X100.635 Y94.002 E16.92956
G1 X100.635 Y96.591 E17.09306
G1 X104.739 Y96.591 E17.35219
G1 X104.739 Y95.791 E17.40273
G1 X105.445 Y95.791 E17.44731
G1 X105.445 Y94.567 E17.52459
G1 X106.151 Y94.567 E17.56918
G1 X106.151 Y93.249 E17.65243
G1 X106.763 Y93.249 E17.69106
G1 X106.763 Y91.742 E17.78617
G1 X107.469 Y91.742 E17.83077
G1 X107.469 Y89.671 E17.96156
G1 X108.364 Y89.671 E18.01804
G1 X108.364 Y87.223 E18.17262
G1 X109.164 Y87.223 E18.22315
G1 X109.164 Y85.811 E18.31233
G1 X109.588 Y85.811 E18.33907
G1 X109.588 Y83.457 E18.48770
G1 X110.058 Y83.457 E18.51743
G1 X110.058 Y81.480 E18.64226
G1 X112.498 Y81.480 E18.79633
G1 X112.498 Y82.939 E18.88848
G1 X114.711 Y82.939 E19.02820
G1 X114.711 Y85.434 E19.18575
G1 X116.782 Y85.434 E19.31654
G1 X116.782 Y87.694 E19.45922
G1 X118.147 Y87.694 E19.54541
G1 X118.147 Y89.906 E19.68512
G1 X119.324 Y89.906 E19.75944
G1 X119.324 Y92.307 E19.91104
G1 X120.218 Y92.307 E19.96751
G1 X120.218 Y94.896 E20.13101
G1 X120.878 Y94.896 E20.17263
G1 X120.878 Y97.485 E20.33612
G1 X121.490 Y97.485 E20.37476
G1 X121.490 Y106.940 E20.97177
G1 X121.170 Y106.854 E20.99264
G1 X121.170 Y110.088 E21.19684
G1 X120.742 Y110.203 E21.22485
G1 X120.742 Y112.071 E21.34280
G1 X119.889 Y112.071 E21.39666
G1 X119.889 Y114.613 E21.55720
G1 X119.089 Y114.613 E21.60773
G1 X119.089 Y116.119 E21.70284
G1 X118.241 Y116.119 E21.75634
G1 X118.241 Y117.626 E21.85147
G1 X117.347 Y117.626 E21.90795
G1 X117.347 Y118.567 E21.96741
G1 X114.954 Y118.567 E22.11850
G1 X114.954 Y117.578 E22.18094
G1 X113.118 Y117.578 E22.29686
G1 X113.118 Y116.260 E22.38008
G1 X111.282 Y116.260 E22.49602
G1 X111.282 Y115.084 E22.57033
G1 X109.399 Y115.084 E22.68923
G1 X109.399 Y113.954 E22.76058
G1 X107.705 Y113.954 E22.86760
G1 X107.705 Y112.871 E22.93597
G1 X106.104 Y112.871 E23.03703
G1 X106.104 Y111.890 E23.09894
G1 X106.481 Y111.890 E23.12273
G1 X106.481 Y110.431 E23.21489
G1 X107.187 Y110.431 E23.25947
G1 X107.187 Y104.634 E23.62551
G1 X106.999 Y104.684 E23.63777
G1 X106.999 Y104.068 E23.67669
G1 X106.387 Y104.068 E23.71538
G1 X106.387 Y102.750 E23.79862
G1 X102.942 Y102.750 E24.01612
G1 X102.942 Y104.868 E24.14990
G1 X102.377 Y104.868 E24.18557
G1 X102.377 Y106.657 E24.29853
G1 X100.596 Y106.657 E24.41098
G1 X100.596 Y106.469 E24.42287
G1 X99.184 Y106.469 E24.51204
G1 X99.184 Y105.621 E24.56556
G1 X98.996 Y105.621 E24.57745
G1 X98.996 Y102.279 E24.78849
G1 X98.290 Y102.279 E24.83307
G1 X98.290 Y101.577 E24.87739
G1 X93.433 Y101.571 E25.18405
G1 X93.433 Y102.636 E25.25130
G1 X92.684 Y102.636 E25.29860
G1 X92.684 Y103.651 E25.36270
G1 X92.119 Y103.651 E25.39843
G1 X92.119 Y104.517 E25.45308
G1 X91.653 Y104.517 E25.48251
G1 X91.653 Y108.633 E25.74247
G1 X92.135 Y108.633 E25.77294
G1 X92.135 Y109.632 E25.83599
G1 X92.784 Y109.632 E25.87699
G1 X92.784 Y112.456 E26.05528
G1 X90.837 Y112.456 E26.17824
G1 X90.837 Y112.938 E26.20871
G1 X88.840 Y112.938 E26.33483
G1 X88.840 Y113.404 E26.36426
G1 X86.793 Y113.404 E26.49353
G1 X86.793 Y113.854 E26.52191
G1 X84.995 Y113.854 E26.63542
G1 X84.995 Y114.303 E26.66379
G1 X83.164 Y114.303 E26.77939
G1 X83.164 Y114.702 E26.80462
G1 X81.306 Y114.702 E26.92195
G1 X81.306 Y113.504 E26.99761
G1 X80.508 Y113.504 E27.04805
G1 X80.508 Y111.457 E27.17732
G1 X79.725 Y111.457 E27.22672
G1 X79.725 Y108.944 E27.38540
G1 X79.159 Y108.944 E27.42114
G1 X79.159 Y106.514 E27.57459
G1 X78.510 Y106.514 E27.61557
G1 X78.510 Y104.373 E27.75077
G1 X78.777 Y104.373 E27.76758
G1 X78.777 Y98.364 E28.14698
G1 X79.026 Y98.364 E28.16275
G1 X79.026 Y96.073 E28.30743
G1 X79.601 Y96.073 E28.34372
G1 X79.601 Y93.202 E28.52505
G1 X80.637 Y93.202 E28.59043
G1 X80.637 Y90.713 E28.74755
G1 X82.520 Y90.713 E28.86646
G1 X82.520 Y88.730 E28.99172
G1 X83.650 Y88.730 E29.06308
G1 X83.650 Y87.741 E29.12551
G1 X84.638 Y87.741 E29.18793
G1 X84.638 Y86.564 E29.26224
G1 X85.587 Y86.564 E29.32215
G1 X84.828 Y85.671 F7800.000
G1 X84.828 Y84.447 E29.39944 F378.000
G1 X86.758 Y84.447 E29.52131
G1 X86.758 Y83.223 E29.59860
G1 X88.735 Y83.223 E29.72344
G1 X88.735 Y82.423 E29.77398
G1 X90.810 Y82.423 E29.90497
G1 X90.810 Y82.048 E29.92863
G1 X92.257 Y82.048 E30.02005
G1 X92.257 Y81.760 E30.03829
G1 X93.485 Y81.760 E30.11580
G1 X93.485 Y81.445 E30.13569
G1 X95.276 Y81.445 E30.24880
G1 X95.276 Y81.290 E30.25854
G1 X101.481 Y81.290 E30.65036
G1 X101.481 Y81.670 E30.67432
G1 X103.552 Y81.670 E30.80511
G1 X103.552 Y82.000 E30.82593
G1 X104.729 Y82.000 E30.90024
G1 X104.729 Y82.376 E30.92401
G1 X105.624 Y82.376 E30.98050
G1 X105.624 Y83.391 E31.04457
G1 X104.790 Y83.391 E31.09724
G1 X104.764 Y84.577 E31.17216
G1 X103.929 Y84.577 E31.22492
G1 X103.929 Y85.754 E31.29924
G1 X102.988 Y85.754 E31.35868
G1 X102.988 Y87.260 E31.45379
G1 X102.093 Y87.260 E31.51027
G1 X102.093 Y88.767 E31.60540
G1 X101.575 Y88.767 E31.63811
G1 X101.575 Y90.885 E31.77187
G1 X101.057 Y90.885 E31.80456
G1 X101.057 Y93.109 E31.94500
G1 X101.528 Y93.109 E31.97473
G1 X101.528 Y95.698 E32.13822
G1 X103.846 Y95.698 E32.28461
G1 X103.846 Y94.898 E32.33516
G1 X104.552 Y94.898 E32.37974
G1 X104.552 Y93.674 E32.45701
G1 X105.259 Y93.674 E32.50161
G1 X105.259 Y92.356 E32.58485
G1 X105.870 Y92.356 E32.62348
G1 X105.870 Y90.850 E32.71860
G1 X106.577 Y90.850 E32.76319
G1 X106.577 Y88.778 E32.89398
G1 X107.471 Y88.778 E32.95047
G1 X107.471 Y86.330 E33.10505
G1 X108.271 Y86.330 E33.15558
G1 X108.271 Y84.918 E33.24476
G1 X108.695 Y84.918 E33.27150
G1 X108.695 Y82.564 E33.42013
G1 X109.166 Y82.564 E33.44985
G1 X109.166 Y79.457 E33.64605
G1 X111.320 Y79.457 E33.78206
G1 X111.320 Y80.587 E33.85342
G1 X113.391 Y80.587 E33.98421
G1 X113.391 Y82.047 E34.07635
G1 X115.604 Y82.047 E34.21608
G1 X115.604 Y84.542 E34.37362
G1 X117.675 Y84.542 E34.50441
G1 X117.675 Y86.801 E34.64709
G1 X119.040 Y86.801 E34.73329
G1 X119.040 Y89.014 E34.87300
G1 X120.217 Y89.014 E34.94732
G1 X120.217 Y91.414 E35.09891
G1 X121.111 Y91.414 E35.15538
G1 X121.111 Y94.004 E35.31888
G1 X121.770 Y94.004 E35.36051
G1 X121.770 Y96.593 E35.52399
G1 X122.382 Y96.593 E35.56264
G1 X122.382 Y108.104 E36.28952
G1 X122.063 Y108.018 E36.31040
G1 X122.063 Y110.773 E36.48435
G1 X121.635 Y110.888 E36.51236
G1 X121.635 Y112.963 E36.64342
G1 X120.782 Y112.963 E36.69728
G1 X120.782 Y115.505 E36.85781
G1 X119.981 Y115.505 E36.90834
G1 X119.981 Y117.012 E37.00346
G1 X119.134 Y117.012 E37.05696
G1 X119.134 Y118.518 E37.15209
G1 X118.240 Y118.518 E37.20857
G1 X118.240 Y119.883 E37.29476
G1 X117.345 Y119.883 E37.35125
G1 X117.345 Y120.260 E37.37504
G1 X115.662 Y120.260 E37.48131
G1 X115.662 Y119.460 E37.53184
G1 X114.061 Y119.460 E37.63292
G1 X114.061 Y118.471 E37.69536
G1 X112.226 Y118.471 E37.81128
G1 X112.226 Y117.153 E37.89450
G1 X110.390 Y117.153 E38.01044
G1 X110.390 Y115.976 E38.08475
G1 X108.507 Y115.976 E38.20365
G1 X108.507 Y114.846 E38.27500
G1 X106.812 Y114.846 E38.38202
G1 X106.812 Y113.763 E38.45039
G1 X105.211 Y113.763 E38.55145
G1 X105.211 Y112.728 E38.61684
G1 X104.505 Y112.728 E38.66142
G1 X104.505 Y110.998 E38.77068
G1 X105.588 Y110.998 E38.83905
G1 X105.588 Y109.538 E38.93121
G1 X106.294 Y109.538 E38.97579
G1 X106.294 Y105.798 E39.21200
G1 X106.107 Y105.848 E39.22426
G1 X106.107 Y104.961 E39.28027
G1 X105.494 Y104.961 E39.31896
G1 X105.494 Y103.642 E39.40221
G1 X103.835 Y103.642 E39.50697
G1 X103.835 Y105.761 E39.64074
G1 X103.270 Y105.761 E39.67642
G1 X103.270 Y107.550 E39.78937
G1 X102.234 Y107.550 E39.85475
G1 X102.234 Y108.727 E39.92908
G1 X100.985 Y108.727 E40.00796
G1 X101.133 Y108.176 E40.04396
G1 X99.704 Y108.176 E40.13422
G1 X99.704 Y107.361 E40.18565
G1 X98.291 Y107.361 E40.27483
G1 X98.291 Y106.514 E40.32834
G1 X97.491 Y106.514 E40.37888
G1 X97.491 Y105.207 E40.46141
G1 X98.103 Y105.207 E40.50005
G1 X98.103 Y103.172 E40.62857
G1 X97.397 Y103.172 E40.67315
G1 X97.397 Y102.467 E40.71764
G1 X94.326 Y102.463 E40.91156
G1 X94.326 Y103.528 E40.97881
G1 X93.577 Y103.528 E41.02610
G1 X93.577 Y104.544 E41.09021
G1 X93.011 Y104.544 E41.12593
G1 X93.011 Y105.409 E41.18059
G1 X92.545 Y105.409 E41.21001
G1 X92.545 Y107.741 E41.35724
