; generated by Slic3r 1.0.0 on 2014-05-06 at 23:29:13

; layer_height = 0.4
; perimeters = 3
; top_solid_layers = 3
; bottom_solid_layers = 3
; fill_density = 0.4
; perimeter_speed = 30
; infill_speed = 60
; travel_speed = 130
; nozzle_diameter = 0.5
; filament_diameter = 3
; extrusion_multiplier = 1
; perimeters extrusion width = 0.50mm
; infill extrusion width = 0.53mm
; solid infill extrusion width = 0.53mm
; top infill extrusion width = 0.53mm
; first layer extrusion width = 1.00mm

G21 ; set units to millimeters
M107
M190 S61 ; wait for bed temperature to be reached
M104 S190 ; set temperature
G28 ; home all axes
G1 Z5 F5000 ; lift nozzle
M109 S190 ; wait for temperature to be reached
G90 ; use absolute coordinates
G92 E0
M82 ; use absolute distances for extrusion
G1 F1800.000 E-1.00000
G92 E0
G1 Z0.500 F7800.000
G1 X32.300 Y31.043 F7800.000
G1 E1.00000 F1800.000
G1 X32.930 Y30.463 E1.05407 F540.000
G1 X33.620 Y29.963 E1.10788
G1 X41.340 Y25.073 E1.68493
G1 X41.880 Y24.763 E1.72425
G1 X42.440 Y24.503 E1.76324
G1 X50.350 Y21.293 E2.30228
G1 X50.940 Y21.083 E2.34182
G1 X51.550 Y20.933 E2.38149
G1 X70.540 Y17.023 E3.60578
G1 X131.610 Y6.593 E7.51791
G1 X132.770 Y6.493 E7.59143
G1 X138.240 Y6.493 E7.93684
G1 X139.150 Y6.553 E7.99443
G1 X140.040 Y6.733 E8.05176
G1 X149.070 Y9.173 E8.64242
G1 X149.840 Y9.423 E8.69354
G1 X150.570 Y9.773 E8.74466
G1 X158.860 Y14.293 E9.34089
G1 X159.360 Y14.593 E9.37771
G1 X168.210 Y20.433 E10.04726
G1 X169.010 Y21.053 E10.11117
G1 X169.710 Y21.783 E10.17503
G1 X177.990 Y31.763 E10.99388
G1 X178.590 Y32.603 E11.05906
G1 X184.050 Y41.643 E11.72594
G1 X188.940 Y50.813 E12.38217
G1 X189.320 Y51.643 E12.43981
G1 X192.900 Y61.243 E13.08679
G1 X193.120 Y61.953 E13.13372
G1 X195.790 Y72.433 E13.81663
G1 X198.230 Y82.783 E14.48810
G1 X198.370 Y83.563 E14.53814
G1 X198.410 Y84.363 E14.58872
G1 X198.410 Y135.023 E17.78767
G1 X198.350 Y135.923 E17.84463
G1 X197.030 Y145.883 E18.47906
G1 X195.310 Y155.113 E19.07193
G1 X195.060 Y156.043 E19.13274
G1 X191.650 Y166.203 E19.80947
G1 X191.210 Y167.243 E19.88077
G1 X187.930 Y173.423 E20.32257
G1 X184.540 Y179.453 E20.75939
G1 X180.590 Y185.493 E21.21510
G1 X177.020 Y190.573 E21.60717
G1 X176.160 Y191.573 E21.69046
G1 X175.130 Y192.393 E21.77359
G1 X173.960 Y193.003 E21.85691
G1 X172.690 Y193.383 E21.94062
G1 X171.380 Y193.503 E22.02368
G1 X165.540 Y193.503 E22.39245
G1 X164.650 Y193.443 E22.44878
G1 X20.890 Y174.663 E31.60371
G1 X19.450 Y174.323 E31.69714
G1 X18.110 Y173.673 E31.79119
G1 X16.950 Y172.753 E31.88468
G1 X16.010 Y171.603 E31.97847
G1 X13.880 Y168.343 E32.22437
G1 X10.650 Y163.303 E32.60237
G1 X10.300 Y162.683 E32.64733
G1 X10.010 Y162.033 E32.69227
G1 X6.890 Y153.843 E33.24569
G1 X6.640 Y153.043 E33.29861
G1 X1.780 Y133.273 E34.58417
G1 X1.630 Y132.453 E34.63681
G1 X1.580 Y131.623 E34.68931
G1 X1.580 Y111.613 E35.95285
G1 X2.640 Y87.583 E37.47172
G1 X2.680 Y87.133 E37.50025
G1 X3.680 Y77.963 E38.08272
G1 X3.770 Y77.363 E38.12103
G1 X6.070 Y65.883 E38.86035
G1 X6.240 Y65.223 E38.90339
G1 X6.470 Y64.583 E38.94633
G1 X10.610 Y54.633 E39.62685
G1 X11.190 Y53.533 E39.70537
G1 X11.960 Y52.543 E39.78457
G1 X32.208 Y31.140 E41.64501
G1 F1800.000 E40.64501
G92 E0
G1 X39.598 Y38.075 F7800.000
G1 E1.00000 F1800.000
G1 X47.318 Y38.075 E1.48748 F540.000
G1 X47.318 Y33.179 E1.79664
G1 X55.226 Y33.179 E2.29600
G1 X55.226 Y29.978 E2.49813
G1 X63.524 Y29.978 E3.02211
G1 X63.524 Y28.479 E3.11676
G1 X69.315 Y28.479 E3.48244
G1 X69.315 Y27.324 E3.55537
G1 X74.225 Y27.324 E3.86542
G1 X74.225 Y26.064 E3.94498
G1 X81.390 Y26.064 E4.39742
G1 X81.390 Y25.447 E4.43638
G1 X105.639 Y25.447 E5.96761
G1 X105.639 Y26.965 E6.06346
G1 X113.924 Y26.965 E6.58662
G1 X113.924 Y28.284 E6.66991
G1 X118.631 Y28.284 E6.96714
G1 X118.631 Y29.790 E7.06224
G1 X122.209 Y29.790 E7.28817
G1 X122.209 Y33.279 E7.50844
G1 X118.879 Y33.279 E7.71870
G1 X118.778 Y38.024 E8.01840
G1 X115.430 Y38.024 E8.22982
G1 X115.430 Y42.732 E8.52711
G1 X111.665 Y42.732 E8.76485
G1 X111.665 Y48.757 E9.14530
G1 X108.087 Y48.757 E9.37123
G1 X108.087 Y54.783 E9.75175
G1 X106.015 Y54.783 E9.88259
G1 X106.015 Y63.256 E10.41762
G1 X103.944 Y63.256 E10.54839
G1 X103.944 Y72.722 E11.14618
G1 X105.827 Y72.722 E11.26508
G1 X105.827 Y83.079 E11.91908
G1 X115.671 Y83.079 E12.54067
G1 X115.671 Y79.877 E12.74286
G1 X118.495 Y79.877 E12.92119
G1 X118.495 Y74.982 E13.23029
G1 X121.320 Y74.982 E13.40867
G1 X121.320 Y69.709 E13.74164
G1 X123.767 Y69.709 E13.89615
G1 X123.767 Y63.684 E14.27661
G1 X126.592 Y63.684 E14.45499
G1 X126.592 Y55.399 E14.97815
G1 X130.170 Y55.399 E15.20409
G1 X130.170 Y45.607 E15.82241
G1 X133.371 Y45.607 E16.02454
G1 X133.371 Y39.958 E16.38125
G1 X135.065 Y39.958 E16.48822
G1 X135.065 Y30.543 E17.08273
G1 X136.948 Y30.543 E17.20163
G1 X136.948 Y18.115 E17.98641
G1 X144.993 Y18.115 E18.49443
G1 X144.993 Y22.635 E18.77984
G1 X153.278 Y22.635 E19.30301
G1 X153.278 Y28.472 E19.67159
G1 X162.129 Y28.472 E20.23049
G1 X162.129 Y38.452 E20.86068
G1 X170.414 Y38.452 E21.38384
G1 X170.414 Y47.490 E21.95455
G1 X175.874 Y47.490 E22.29932
G1 X175.874 Y56.340 E22.85816
G1 X180.582 Y56.340 E23.15545
G1 X180.582 Y65.943 E23.76184
G1 X184.159 Y65.943 E23.98771
G1 X184.159 Y76.300 E24.64171
G1 X186.796 Y76.300 E24.80822
G1 X186.796 Y86.656 E25.46216
G1 X189.244 Y86.656 E25.61674
G1 X189.244 Y132.044 E28.48275
G1 X187.967 Y131.701 E28.56624
G1 X187.967 Y142.873 E29.27173
G1 X186.253 Y143.332 E29.38377
G1 X186.253 Y151.568 E29.90381
G1 X182.841 Y151.568 E30.11926
G1 X182.841 Y161.737 E30.76139
G1 X179.640 Y161.737 E30.96352
G1 X179.640 Y167.762 E31.34397
G1 X176.251 Y167.762 E31.55797
G1 X176.251 Y173.788 E31.93848
G1 X172.673 Y173.788 E32.16442
G1 X172.673 Y179.248 E32.50919
G1 X169.095 Y179.248 E32.73513
G1 X169.095 Y184.332 E33.05616
G1 X167.829 Y184.332 E33.13612
G1 X167.829 Y180.755 E33.36199
G1 X162.934 Y180.755 E33.67108
G1 X162.934 Y177.554 E33.87321
G1 X156.531 Y177.554 E34.27753
G1 X156.531 Y173.599 E34.52727
G1 X149.188 Y173.599 E34.99095
G1 X149.188 Y168.327 E35.32386
G1 X141.844 Y168.327 E35.78760
G1 X141.844 Y163.620 E36.08482
G1 X134.312 Y163.620 E36.56044
G1 X134.312 Y159.100 E36.84585
G1 X127.533 Y159.100 E37.27392
G1 X127.533 Y154.769 E37.54740
G1 X121.131 Y154.769 E37.95166
G1 X121.131 Y150.627 E38.21321
G1 X115.482 Y150.627 E38.56992
G1 X115.482 Y148.606 E38.69748
G1 X118.307 Y148.606 E38.87587
G1 X118.307 Y144.276 E39.14929
G1 X122.638 Y144.276 E39.42277
G1 X122.638 Y138.438 E39.79142
G1 X125.462 Y138.438 E39.96974
G1 X125.462 Y122.818 E40.95607
G1 X124.712 Y123.019 E41.00510
G1 X124.712 Y119.558 E41.22370
G1 X122.261 Y119.558 E41.37847
G1 X122.261 Y114.285 E41.71144
G1 X115.054 Y114.285 E42.16651
G1 X115.054 Y122.759 E42.70161
G1 X112.794 Y122.759 E42.84432
G1 X112.794 Y129.914 E43.29612
G1 X108.652 Y129.914 E43.55767
G1 X108.652 Y134.622 E43.85496
G1 X104.313 Y134.622 E44.12897
G1 X104.904 Y132.419 E44.27300
G1 X99.100 Y132.419 E44.63949
G1 X99.100 Y129.161 E44.84522
G1 X93.451 Y129.161 E45.20192
G1 X93.451 Y125.771 E45.41599
G1 X88.932 Y125.771 E45.70134
G1 X88.932 Y123.561 E45.84084
G1 X90.250 Y123.561 E45.92407
G1 X90.250 Y121.113 E46.07865
G1 X92.698 Y121.113 E46.23323
G1 X92.698 Y112.402 E46.78334
G1 X89.874 Y112.402 E46.96167
G1 X89.874 Y109.585 E47.13955
G1 X77.019 Y109.569 E47.95127
G1 X77.019 Y113.829 E48.22027
G1 X74.023 Y113.829 E48.40946
G1 X74.023 Y117.890 E48.66589
G1 X71.760 Y117.890 E48.80879
G1 X71.760 Y121.352 E49.02740
G1 X69.896 Y121.352 E49.14510
G1 X69.896 Y131.248 E49.77004
G1 X71.826 Y131.248 E49.89191
G1 X71.826 Y135.242 E50.14412
G1 X74.423 Y135.242 E50.30811
G1 X74.423 Y143.631 E50.83783
G1 X76.154 Y143.631 E50.94714
G1 X76.154 Y148.890 E51.27922
G1 X78.484 Y148.890 E51.42635
G1 X78.484 Y151.177 E51.57071
G1 X74.689 Y151.177 E51.81035
G1 X74.689 Y153.108 E51.93229
G1 X66.634 Y153.108 E52.44092
G1 X66.634 Y155.038 E52.56279
G1 X58.645 Y155.038 E53.06726
G1 X58.645 Y156.902 E53.18497
G1 X50.456 Y156.902 E53.70206
G1 X50.456 Y158.700 E53.81560
G1 X43.266 Y158.700 E54.26962
G1 X43.266 Y160.497 E54.38309
G1 X35.943 Y160.497 E54.84550
G1 X35.943 Y162.095 E54.94641
G1 X28.753 Y162.095 E55.40043
G1 X28.753 Y163.826 E55.50973
G1 X24.070 Y163.826 E55.80546
G1 X24.070 Y162.295 E55.90213
G1 X21.940 Y162.295 E56.03663
G1 X21.940 Y157.302 E56.35192
G1 X18.745 Y157.302 E56.55367
G1 X18.745 Y149.113 E57.07077
G1 X15.616 Y149.113 E57.26835
G1 X15.616 Y139.061 E57.90309
G1 X13.352 Y139.061 E58.04605
G1 X13.352 Y129.341 E58.65982
G1 X10.756 Y129.341 E58.82375
G1 X10.756 Y114.205 E59.77947
G1 X11.821 Y114.205 E59.84672
G1 X11.821 Y90.172 E61.36430
G1 X12.820 Y90.172 E61.42738
G1 X12.820 Y81.007 E62.00611
G1 X15.119 Y81.007 E62.15128
G1 X15.119 Y69.521 E62.87657
G1 X19.261 Y69.521 E63.13812
G1 X19.261 Y59.568 E63.76661
G1 X26.793 Y59.568 E64.24222
G1 X26.793 Y51.633 E64.74328
G1 X31.313 Y51.633 E65.02870
G1 X31.313 Y47.678 E65.27844
G1 X35.267 Y47.678 E65.52812
G1 X35.267 Y42.971 E65.82534
G1 X39.598 Y42.971 E66.09882
G1 X39.598 Y38.209 E66.39953
G1 X38.705 Y37.183 F7800.000
G1 X46.425 Y37.183 E66.88701 F540.000
G1 X46.425 Y32.287 E67.19617
G1 X54.333 Y32.287 E67.69553
G1 X54.333 Y29.086 E67.89766
G1 X62.631 Y29.086 E68.42164
G1 X62.631 Y27.587 E68.51629
G1 X68.422 Y27.587 E68.88197
G1 X68.422 Y26.432 E68.95490
G1 X73.332 Y26.432 E69.26495
G1 X73.332 Y25.172 E69.34451
G1 X80.497 Y25.172 E69.79695
G1 X80.497 Y24.555 E69.83591
G1 X106.532 Y24.555 E71.47988
G1 X106.532 Y26.073 E71.57573
G1 X114.817 Y26.073 E72.09889
G1 X114.817 Y27.392 E72.18218
G1 X119.524 Y27.392 E72.47941
G1 X119.524 Y28.898 E72.57451
G1 X124.035 Y28.898 E72.85936
G1 X124.035 Y30.443 E72.95695
G1 X123.102 Y30.443 E73.01587
G1 X123.102 Y34.171 E73.25128
G1 X119.753 Y34.171 E73.46273
G1 X119.652 Y38.916 E73.76242
G1 X116.323 Y38.916 E73.97266
G1 X116.323 Y43.624 E74.26995
G1 X112.558 Y43.624 E74.50769
G1 X112.558 Y49.649 E74.88814
G1 X108.980 Y49.649 E75.11407
G1 X108.980 Y55.675 E75.49459
G1 X106.908 Y55.675 E75.62543
G1 X106.908 Y64.148 E76.16046
G1 X104.837 Y64.148 E76.29123
G1 X104.837 Y71.830 E76.77628
G1 X106.720 Y71.830 E76.89518
G1 X106.720 Y82.187 E77.54918
G1 X114.778 Y82.187 E78.05803
G1 X114.778 Y78.985 E78.26022
G1 X117.602 Y78.985 E78.43855
G1 X117.602 Y74.090 E78.74764
G1 X120.427 Y74.090 E78.92603
G1 X120.427 Y68.817 E79.25900
G1 X122.874 Y68.817 E79.41351
G1 X122.874 Y62.792 E79.79397
G1 X125.699 Y62.792 E79.97235
G1 X125.699 Y54.507 E80.49551
G1 X129.277 Y54.507 E80.72145
G1 X129.277 Y44.715 E81.33977
G1 X132.478 Y44.715 E81.54190
G1 X132.478 Y39.066 E81.89861
G1 X134.172 Y39.066 E82.00558
G1 X134.172 Y29.651 E82.60009
G1 X136.055 Y29.651 E82.71899
G1 X136.055 Y19.333 E83.37049
G1 X134.172 Y19.333 E83.48939
G1 X134.172 Y14.776 E83.77719
G1 X136.848 Y14.776 E83.94614
G1 X136.848 Y17.223 E84.10066
G1 X145.886 Y17.223 E84.67136
G1 X145.886 Y21.743 E84.95678
G1 X154.171 Y21.743 E85.47994
G1 X154.171 Y27.580 E85.84852
G1 X163.022 Y27.580 E86.40743
G1 X163.022 Y37.560 E87.03762
G1 X171.307 Y37.560 E87.56078
G1 X171.307 Y46.598 E88.13149
G1 X176.767 Y46.598 E88.47626
G1 X176.767 Y55.448 E89.03510
G1 X181.475 Y55.448 E89.33239
G1 X181.475 Y65.051 E89.93878
G1 X185.052 Y65.051 E90.16465
G1 X185.052 Y75.408 E90.81865
G1 X187.689 Y75.408 E90.98516
G1 X187.689 Y85.764 E91.63910
G1 X190.137 Y85.764 E91.79368
G1 X190.137 Y133.208 E94.78957
G1 X188.860 Y132.865 E94.87306
G1 X188.860 Y143.558 E95.54829
G1 X187.146 Y144.017 E95.66034
G1 X187.146 Y152.460 E96.19348
G1 X183.734 Y152.460 E96.40894
G1 X183.734 Y162.629 E97.05107
G1 X180.533 Y162.629 E97.25319
G1 X180.533 Y168.654 E97.63365
G1 X177.144 Y168.654 E97.84764
G1 X177.144 Y174.680 E98.22816
G1 X173.566 Y174.680 E98.45410
G1 X173.566 Y180.140 E98.79887
G1 X169.988 Y180.140 E99.02481
G1 X169.988 Y185.224 E99.34584
G1 X166.936 Y185.224 E99.53853
G1 X166.936 Y181.647 E99.76441
G1 X162.041 Y181.647 E100.07350
G1 X162.041 Y178.446 E100.27563
G1 X155.638 Y178.446 E100.67995
G1 X155.638 Y174.491 E100.92969
G1 X148.295 Y174.491 E101.39337
G1 X148.295 Y169.219 E101.72627
G1 X140.951 Y169.219 E102.19001
G1 X140.951 Y164.512 E102.48724
G1 X133.419 Y164.512 E102.96285
G1 X133.419 Y159.992 E103.24827
G1 X126.640 Y159.992 E103.67633
G1 X126.640 Y155.661 E103.94982
G1 X120.238 Y155.661 E104.35408
G1 X120.238 Y151.519 E104.61562
G1 X114.589 Y151.519 E104.97233
G1 X114.589 Y147.714 E105.21264
G1 X117.414 Y147.714 E105.39103
G1 X117.414 Y143.384 E105.66445
G1 X121.745 Y143.384 E105.93793
G1 X121.745 Y137.546 E106.30657
G1 X124.569 Y137.546 E106.48490
G1 X124.569 Y123.982 E107.34139
G1 X123.819 Y124.183 E107.39042
G1 X123.819 Y120.450 E107.62612
G1 X121.368 Y120.450 E107.78089
G1 X121.368 Y115.177 E108.11385
G1 X115.947 Y115.177 E108.45619
G1 X115.947 Y123.651 E108.99129
G1 X113.687 Y123.651 E109.13400
G1 X113.687 Y130.806 E109.58580
G1 X109.545 Y130.806 E109.84735
G1 X109.545 Y135.514 E110.14464
G1 X103.149 Y135.514 E110.54850
G1 X103.740 Y133.311 E110.69253
G1 X98.207 Y133.311 E111.04191
G1 X98.207 Y130.053 E111.24763
G1 X92.558 Y130.053 E111.60434
G1 X92.558 Y126.663 E111.81841
G1 X88.039 Y126.663 E112.10376
G1 X88.039 Y122.669 E112.35600
G1 X89.357 Y122.669 E112.43923
G1 X89.357 Y120.221 E112.59381
G1 X91.805 Y120.221 E112.74839
G1 X91.805 Y113.294 E113.18576
G1 X88.981 Y113.294 E113.36408
G1 X88.981 Y110.475 E113.54214
G1 X77.912 Y110.461 E114.24112
G1 X77.912 Y114.721 E114.51012
G1 X74.916 Y114.721 E114.69931
G1 X74.916 Y118.782 E114.95574
G1 X72.653 Y118.782 E115.09864
G1 X72.653 Y122.244 E115.31725
G1 X70.789 Y122.244 E115.43495
G1 X70.789 Y130.356 E115.94715
G1 X72.719 Y130.356 E116.06902
G1 X72.719 Y134.350 E116.32123
G1 X75.316 Y134.350 E116.48522
G1 X75.316 Y142.739 E117.01494
G1 X77.047 Y142.739 E117.12425
G1 X77.047 Y147.998 E117.45633
G1 X79.377 Y147.998 E117.60346
G1 X79.377 Y152.069 E117.86056
G1 X75.582 Y152.069 E118.10020
G1 X75.582 Y154.000 E118.22213
G1 X67.527 Y154.000 E118.73077
G1 X67.527 Y155.930 E118.85264
G1 X59.538 Y155.930 E119.35711
G1 X59.538 Y157.794 E119.47481
G1 X51.349 Y157.794 E119.99191
G1 X51.349 Y159.592 E120.10545
G1 X44.159 Y159.592 E120.55947
G1 X44.159 Y161.389 E120.67294
G1 X36.836 Y161.389 E121.13535
G1 X36.836 Y162.987 E121.23626
G1 X29.646 Y162.987 E121.69028
G1 X29.646 Y164.718 E121.79958
G1 X24.919 Y164.718 E122.09807
G1 X24.919 Y166.449 E122.20737
G1 X23.177 Y166.449 E122.31735
G1 X23.177 Y163.187 E122.52333
G1 X21.047 Y163.187 E122.65783
G1 X21.047 Y158.194 E122.97311
G1 X17.852 Y158.194 E123.17486
G1 X17.852 Y150.005 E123.69196
G1 X14.723 Y150.005 E123.88955
G1 X14.723 Y139.953 E124.52428
G1 X12.459 Y139.953 E124.66725
G1 X12.459 Y130.233 E125.28102
G1 X9.863 Y130.233 E125.44495
G1 X9.863 Y113.313 E126.51341
G1 X10.928 Y113.313 E126.58066
G1 X10.928 Y89.280 E128.09823
G1 X11.927 Y89.280 E128.16132
G1 X11.927 Y80.115 E128.74005
G1 X14.226 Y80.115 E128.88522
G1 X14.226 Y68.629 E129.61051
G1 X18.368 Y68.629 E129.87206
G1 X18.368 Y58.676 E130.50054
G1 X25.900 Y58.676 E130.97616
G1 X25.900 Y50.741 E131.47722
G1 X30.420 Y50.741 E131.76263
G1 X30.420 Y46.786 E132.01237
G1 X34.374 Y46.786 E132.26205
G1 X34.374 Y42.079 E132.55928
G1 X38.705 Y42.079 E132.83276
G1 X38.705 Y37.317 E133.13347
G1 X37.812 Y36.290 F7800.000
G1 X45.532 Y36.290 E133.62095 F378.000
G1 X45.532 Y31.394 E133.93011
G1 X53.440 Y31.394 E134.42946
G1 X53.440 Y28.193 E134.63159
G1 X61.738 Y28.193 E135.15558
G1 X61.738 Y26.694 E135.25023
G1 X67.529 Y26.694 E135.61591
G1 X67.529 Y25.539 E135.68884
G1 X72.439 Y25.539 E135.99888
G1 X72.439 Y24.279 E136.07845
G1 X79.604 Y24.279 E136.53089
G1 X79.604 Y23.662 E136.56985
G1 X107.424 Y23.662 E138.32655
G1 X107.424 Y25.180 E138.42241
G1 X115.709 Y25.180 E138.94557
G1 X115.709 Y26.499 E139.02886
G1 X120.416 Y26.499 E139.32609
G1 X120.416 Y28.005 E139.42118
G1 X124.927 Y28.005 E139.70603
G1 X124.927 Y29.106 E139.77556
G1 X127.761 Y29.106 E139.95445
G1 X127.761 Y31.336 E140.09526
G1 X123.994 Y31.336 E140.33307
G1 X123.994 Y35.064 E140.56848
G1 X120.627 Y35.064 E140.78112
G1 X120.526 Y39.809 E141.08081
G1 X117.215 Y39.809 E141.28986
G1 X117.215 Y44.517 E141.58714
G1 X113.450 Y44.517 E141.82489
