; generated by Slic3r 1.0.0 on 2014-05-06 at 23:41:27

; layer_height = 0.4
; perimeters = 3
; top_solid_layers = 3
; bottom_solid_layers = 3
; fill_density = 0.4
; perimeter_speed = 30
; infill_speed = 60
; travel_speed = 130
; nozzle_diameter = 0.5
; filament_diameter = 3
; extrusion_multiplier = 1
; perimeters extrusion width = 0.50mm
; infill extrusion width = 0.53mm
; solid infill extrusion width = 0.53mm
; top infill extrusion width = 0.53mm
; first layer extrusion width = 1.00mm

G21 ; set units to millimeters
M107
M190 S61 ; wait for bed temperature to be reached
M104 S190 ; set temperature
G28 ; home all axes
G1 Z5 F5000 ; lift nozzle
M109 S190 ; wait for temperature to be reached
G90 ; use absolute coordinates
G92 E0
M82 ; use absolute distances for extrusion
G1 F1800.000 E-1.00000
G92 E0
G1 Z0.500 F7800.000
G1 X52.717 Y54.348 F7800.000
G1 E1.00000 F1800.000
G1 X53.337 Y53.768 E1.05361 F540.000
G1 X54.027 Y53.258 E1.10779
G1 X54.797 Y52.768 E1.16542
G1 X55.337 Y52.458 E1.20474
G1 X55.907 Y52.198 E1.24430
G1 X56.697 Y51.878 E1.29812
G1 X57.277 Y51.678 E1.33686
G1 X57.867 Y51.528 E1.37531
G1 X60.037 Y51.068 E1.51538
G1 X66.127 Y50.038 E1.90539
G1 X67.277 Y49.948 E1.97823
G1 X139.817 Y49.948 E6.55881
G1 X140.707 Y49.998 E6.61510
G1 X141.577 Y50.178 E6.67120
G1 X142.487 Y50.418 E6.73063
G1 X143.287 Y50.678 E6.78374
G1 X144.047 Y51.038 E6.83685
G1 X144.867 Y51.488 E6.89591
G1 X145.357 Y51.788 E6.93219
G1 X146.247 Y52.378 E6.99962
G1 X147.027 Y52.978 E7.06176
G1 X147.717 Y53.688 E7.12427
G1 X148.547 Y54.678 E7.20585
G1 X149.197 Y55.588 E7.27647
G1 X149.737 Y56.498 E7.34329
G1 X150.357 Y57.648 E7.42578
G1 X150.727 Y58.478 E7.48317
G1 X151.087 Y59.438 E7.54791
G1 X151.307 Y60.128 E7.59364
G1 X151.577 Y61.168 E7.66149
G1 X151.857 Y62.368 E7.73930
G1 X151.997 Y63.138 E7.78872
G1 X152.037 Y63.928 E7.83867
G1 X152.037 Y137.998 E12.51586
G1 X151.977 Y138.918 E12.57407
G1 X151.797 Y140.208 E12.65632
G1 X151.627 Y141.128 E12.71540
G1 X151.387 Y142.058 E12.77605
G1 X151.047 Y143.078 E12.84394
G1 X150.587 Y144.138 E12.91691
G1 X149.847 Y145.498 E13.01467
G1 X149.257 Y146.418 E13.08369
G1 X148.817 Y147.058 E13.13273
G1 X147.967 Y148.078 E13.21657
G1 X146.927 Y148.918 E13.30099
G1 X145.747 Y149.538 E13.38516
G1 X144.467 Y149.918 E13.46947
G1 X143.137 Y150.048 E13.55385
G1 X70.547 Y150.048 E18.13759
G1 X69.657 Y149.988 E18.19392
G1 X55.287 Y148.108 E19.10905
G1 X53.857 Y147.768 E19.20187
G1 X52.537 Y147.128 E19.29450
G1 X51.377 Y146.228 E19.38721
G1 X50.437 Y145.098 E19.48002
G1 X50.217 Y144.768 E19.50507
G1 X49.867 Y144.228 E19.54570
G1 X49.487 Y143.578 E19.59325
G1 X49.187 Y142.898 E19.64018
G1 X48.877 Y142.078 E19.69554
G1 X48.627 Y141.258 E19.74967
G1 X48.147 Y139.278 E19.87832
G1 X48.007 Y138.478 E19.92960
G1 X47.957 Y137.658 E19.98148
G1 X47.957 Y66.398 E24.48123
G1 X48.057 Y63.998 E24.63291
G1 X48.197 Y62.628 E24.71987
G1 X48.287 Y62.018 E24.75880
G1 X48.517 Y60.868 E24.83286
G1 X48.687 Y60.188 E24.87712
G1 X48.927 Y59.528 E24.92147
G1 X49.347 Y58.538 E24.98937
G1 X49.927 Y57.458 E25.06678
G1 X50.687 Y56.498 E25.14410
G1 X52.625 Y54.446 E25.32236
G1 F1800.000 E24.32236
G92 E0
G1 X92.716 Y109.191 F7800.000
G1 E1.00000 F1800.000
G1 X94.001 Y109.191 E1.08116 F540.000
G1 X94.001 Y110.151 E1.14180
G1 X94.359 Y110.151 E1.16439
G1 X94.359 Y111.187 E1.22979
G1 X94.623 Y111.187 E1.24644
G1 X94.623 Y112.222 E1.31183
G1 X94.740 Y112.222 E1.31923
G1 X94.740 Y114.209 E1.44465
G1 X94.568 Y114.255 E1.45586
G1 X94.568 Y114.600 E1.47765
G1 X94.227 Y114.600 E1.49920
G1 X94.227 Y115.353 E1.54676
G1 X92.810 Y115.353 E1.63624
G1 X92.810 Y114.920 E1.66359
G1 X92.603 Y114.920 E1.67667
G1 X92.603 Y111.101 E1.91781
G1 X92.434 Y111.147 E1.92889
G1 X92.434 Y109.925 E2.00601
G1 X92.716 Y109.925 E2.02385
G1 X92.716 Y109.325 E2.06177
G1 X91.823 Y109.033 F7800.000
G1 X91.823 Y108.204 E2.11409 F540.000
G1 X92.181 Y108.204 E2.13668
G1 X92.181 Y107.225 E2.19851
G1 X92.501 Y107.225 E2.21872
G1 X92.501 Y106.660 E2.25440
G1 X92.671 Y106.660 E2.26509
G1 X92.671 Y106.509 E2.27460
G1 X93.877 Y106.509 E2.35079
G1 X93.877 Y107.413 E2.40786
G1 X94.423 Y107.413 E2.44234
G1 X94.423 Y108.298 E2.49823
G1 X94.894 Y108.298 E2.52795
G1 X94.894 Y109.258 E2.58859
G1 X95.252 Y109.258 E2.61118
G1 X95.252 Y110.294 E2.67658
G1 X95.515 Y110.294 E2.69323
G1 X95.515 Y111.330 E2.75863
G1 X95.760 Y111.330 E2.77408
G1 X95.760 Y113.186 E2.89131
G1 X95.633 Y113.152 E2.89966
G1 X95.633 Y114.894 E3.00966
G1 X95.461 Y114.940 E3.02086
G1 X95.461 Y115.493 E3.05577
G1 X95.120 Y115.493 E3.07731
G1 X95.120 Y116.510 E3.14152
G1 X94.800 Y116.510 E3.16174
G1 X94.800 Y117.112 E3.19978
G1 X94.461 Y117.112 E3.22118
G1 X94.461 Y117.168 E3.22475
G1 X93.349 Y117.168 E3.29499
G1 X93.349 Y116.698 E3.32472
G1 X92.595 Y116.698 E3.37228
G1 X92.595 Y116.246 E3.40082
G1 X91.917 Y116.246 E3.44363
G1 X91.917 Y115.813 E3.47097
G1 X91.710 Y115.813 E3.48405
G1 X91.710 Y112.265 E3.70810
G1 X91.390 Y112.350 E3.72902
G1 X91.390 Y111.764 E3.76603
G1 X90.731 Y111.764 E3.80765
G1 X90.731 Y110.652 E3.87789
G1 X91.014 Y110.652 E3.89572
G1 X91.014 Y110.162 E3.92663
G1 X91.296 Y110.162 E3.94447
G1 X91.296 Y109.635 E3.97777
G1 X91.541 Y109.635 E3.99322
G1 X91.541 Y109.033 E4.03126
G1 X91.689 Y109.033 E4.04065
G1 F1800.000 E3.04065
G92 E0
G1 X86.338 Y110.400 F7800.000
G1 E1.00000 F1800.000
G1 X83.645 Y110.400 E1.17002 F540.000
G1 X83.645 Y110.826 E1.19692
G1 X83.345 Y110.826 E1.21584
G1 X83.345 Y111.232 E1.24148
G1 X83.119 Y111.232 E1.25577
G1 X83.119 Y111.578 E1.27763
G1 X82.933 Y111.578 E1.28940
G1 X82.933 Y114.754 E1.48993
G1 X81.931 Y114.754 E1.55316
G1 X81.931 Y114.354 E1.57839
G1 X81.618 Y114.354 E1.59815
G1 X81.618 Y113.349 E1.66162
G1 X81.392 Y113.349 E1.67592
G1 X81.392 Y111.658 E1.78273
G1 X81.569 Y111.658 E1.79389
G1 X81.569 Y110.509 E1.86642
G1 X81.983 Y110.509 E1.89258
G1 X81.983 Y109.514 E1.95542
G1 X82.736 Y109.514 E2.00299
G1 X82.736 Y108.720 E2.05309
G1 X83.188 Y108.720 E2.08163
G1 X83.188 Y108.325 E2.10661
G1 X83.584 Y108.325 E2.13157
G1 X83.584 Y107.854 E2.16130
G1 X84.017 Y107.854 E2.18865
G1 X84.017 Y107.364 E2.21956
G1 X84.789 Y107.364 E2.26831
G1 X84.789 Y106.875 E2.29923
G1 X86.338 Y106.875 E2.39703
G1 X86.338 Y110.266 E2.61118
G1 X87.230 Y109.936 F7800.000
G1 X87.419 Y109.936 E2.62307 F540.000
G1 X87.419 Y111.296 E2.70890
G1 X84.538 Y111.293 E2.89081
G1 X84.538 Y111.719 E2.91771
G1 X84.238 Y111.719 E2.93662
G1 X84.238 Y112.125 E2.96227
G1 X84.012 Y112.125 E2.97656
G1 X84.012 Y112.471 E2.99842
G1 X83.825 Y112.471 E3.01019
G1 X83.825 Y115.647 E3.21071
G1 X83.499 Y115.647 E3.23131
G1 X83.499 Y115.840 E3.24350
G1 X82.700 Y115.840 E3.29395
G1 X82.700 Y116.026 E3.30572
G1 X81.039 Y116.026 E3.41064
G1 X81.039 Y115.247 E3.45983
G1 X80.726 Y115.247 E3.47959
G1 X80.726 Y114.242 E3.54306
G1 X80.499 Y114.242 E3.55736
G1 X80.499 Y113.270 E3.61873
G1 X80.346 Y113.270 E3.62840
G1 X80.346 Y111.681 E3.72871
G1 X80.446 Y111.681 E3.73502
G1 X80.446 Y110.765 E3.79289
G1 X80.676 Y110.765 E3.80741
G1 X80.676 Y109.616 E3.87994
G1 X81.090 Y109.616 E3.90609
G1 X81.090 Y108.621 E3.96894
G1 X81.843 Y108.621 E4.01650
G1 X81.843 Y107.827 E4.06661
G1 X82.295 Y107.827 E4.09515
G1 X82.295 Y107.432 E4.12012
G1 X82.691 Y107.432 E4.14509
G1 X82.691 Y106.961 E4.17481
G1 X83.124 Y106.961 E4.20216
G1 X83.124 Y106.472 E4.23308
G1 X83.896 Y106.472 E4.28183
G1 X83.896 Y105.982 E4.31274
G1 X84.687 Y105.982 E4.36268
G1 X84.687 Y105.662 E4.38289
G1 X85.517 Y105.662 E4.43529
G1 X85.517 Y105.512 E4.44475
G1 X86.096 Y105.512 E4.48132
G1 X86.096 Y105.397 E4.48862
G1 X87.437 Y105.397 E4.57334
G1 X87.437 Y106.661 E4.65320
G1 X87.230 Y106.661 E4.66628
G1 X87.230 Y109.802 E4.86463
G1 X88.311 Y110.079 F7800.000
G1 X89.839 Y110.079 E4.96107 F378.000
G1 X89.839 Y109.759 E4.98129
G1 X90.121 Y109.759 E4.99912
G1 X90.121 Y109.270 E5.03003
G1 X90.403 Y109.270 E5.04787
G1 X90.403 Y108.742 E5.08117
G1 X90.648 Y108.742 E5.09662
G1 X90.648 Y108.140 E5.13466
G1 X90.931 Y108.140 E5.15250
G1 X90.931 Y107.311 E5.20482
G1 X91.288 Y107.311 E5.22741
G1 X91.288 Y106.332 E5.28924
G1 X91.609 Y106.332 E5.30946
G1 X91.609 Y105.767 E5.34513
G1 X91.778 Y105.767 E5.35582
G1 X91.778 Y104.826 E5.41528
G1 X91.966 Y104.826 E5.42717
G1 X91.966 Y104.035 E5.47710
G1 X93.056 Y104.035 E5.54594
G1 X93.056 Y104.619 E5.58279
G1 X93.941 Y104.619 E5.63868
G1 X93.941 Y105.617 E5.70170
G1 X94.770 Y105.617 E5.75402
G1 X94.770 Y106.520 E5.81109
G1 X95.316 Y106.520 E5.84557
G1 X95.316 Y107.405 E5.90145
G1 X95.787 Y107.405 E5.93118
G1 X95.787 Y108.366 E5.99182
G1 X96.144 Y108.366 E6.01441
G1 X96.144 Y109.401 E6.07981
G1 X96.408 Y109.401 E6.09646
G1 X96.408 Y110.437 E6.16185
G1 X96.653 Y110.437 E6.17731
G1 X96.653 Y114.350 E6.42442
G1 X96.525 Y114.316 E6.43277
G1 X96.525 Y115.579 E6.51251
G1 X96.354 Y115.625 E6.52372
G1 X96.354 Y116.385 E6.57173
G1 X96.013 Y116.385 E6.59328
G1 X96.013 Y117.402 E6.65749
G1 X95.693 Y117.402 E6.67770
G1 X95.693 Y118.005 E6.71575
G1 X95.354 Y118.005 E6.73715
G1 X95.354 Y118.607 E6.77520
G1 X94.996 Y118.607 E6.79779
G1 X94.996 Y118.984 E6.82157
G1 X93.925 Y118.984 E6.88922
G1 X93.925 Y118.588 E6.91420
G1 X93.190 Y118.588 E6.96056
G1 X93.190 Y118.061 E6.99385
G1 X92.456 Y118.061 E7.04023
G1 X92.456 Y117.590 E7.06995
G1 X91.703 Y117.590 E7.11751
G1 X91.703 Y117.138 E7.14605
G1 X91.025 Y117.138 E7.18886
G1 X91.025 Y116.705 E7.21621
G1 X90.535 Y116.705 E7.24712
G1 X90.535 Y115.615 E7.31595
G1 X90.818 Y115.615 E7.33379
G1 X90.818 Y113.428 E7.47190
G1 X90.743 Y113.448 E7.47680
G1 X90.743 Y113.184 E7.49347
G1 X90.498 Y113.184 E7.50894
G1 X90.498 Y112.657 E7.54224
G1 X89.234 Y112.657 E7.62203
G1 X89.234 Y113.504 E7.67554
G1 X89.008 Y113.504 E7.68981
G1 X89.008 Y114.145 E7.73024
G1 X87.617 Y114.145 E7.81810
G1 X87.617 Y113.806 E7.83950
G1 X87.541 Y113.806 E7.84426
G1 X87.541 Y112.469 E7.92868
G1 X87.259 Y112.469 E7.94651
G1 X87.259 Y112.188 E7.96425
G1 X85.430 Y112.185 E8.07970
G1 X85.430 Y112.611 E8.10660
G1 X85.131 Y112.611 E8.12552
G1 X85.131 Y113.017 E8.15116
G1 X84.905 Y113.017 E8.16545
G1 X84.905 Y113.364 E8.18731
G1 X84.718 Y113.364 E8.19908
G1 X84.718 Y114.896 E8.29586
G1 X84.911 Y114.896 E8.30805
G1 X84.911 Y115.296 E8.33327
G1 X85.171 Y115.296 E8.34967
G1 X85.171 Y116.539 E8.42820
G1 X84.392 Y116.539 E8.47738
G1 X84.392 Y116.732 E8.48957
G1 X83.593 Y116.732 E8.54001
G1 X83.593 Y116.919 E8.55178
G1 X82.774 Y116.919 E8.60349
G1 X82.774 Y117.099 E8.61485
G1 X82.055 Y117.099 E8.66025
G1 X82.055 Y117.278 E8.67160
G1 X80.465 Y117.278 E8.77198
G1 X80.465 Y116.959 E8.79215
G1 X80.146 Y116.959 E8.81233
G1 X80.146 Y116.140 E8.86404
G1 X79.833 Y116.140 E8.88380
G1 X79.833 Y115.135 E8.94727
G1 X79.607 Y115.135 E8.96157
G1 X79.607 Y114.163 E9.02294
G1 X79.347 Y114.163 E9.03934
G1 X79.347 Y113.192 E9.10063
G1 X79.454 Y113.192 E9.10735
G1 X79.454 Y110.789 E9.25911
G1 X79.553 Y110.789 E9.26542
G1 X79.553 Y109.872 E9.32329
G1 X79.783 Y109.872 E9.33781
G1 X79.783 Y108.724 E9.41034
G1 X80.198 Y108.724 E9.43649
G1 X80.198 Y107.728 E9.49934
G1 X80.951 Y107.728 E9.54690
G1 X80.951 Y106.935 E9.59701
G1 X81.403 Y106.935 E9.62555
G1 X81.403 Y106.539 E9.65052
G1 X81.798 Y106.539 E9.67549
G1 X81.798 Y106.069 E9.70521
G1 X82.231 Y106.069 E9.73256
G1 X82.231 Y105.579 E9.76348
G1 X83.003 Y105.579 E9.81223
G1 X83.003 Y105.089 E9.84314
G1 X83.794 Y105.089 E9.89308
G1 X83.794 Y104.769 E9.91329
G1 X84.624 Y104.769 E9.96569
G1 X84.624 Y104.619 E9.97515
G1 X85.203 Y104.619 E10.01172
G1 X85.203 Y104.504 E10.01901
G1 X85.694 Y104.504 E10.05002
G1 X85.694 Y104.378 E10.05798
G1 X86.410 Y104.378 E10.10322
G1 X86.410 Y104.316 E10.10712
G1 X88.292 Y104.316 E10.22595
G1 X88.292 Y104.468 E10.23554
G1 X89.121 Y104.468 E10.28786
G1 X89.121 Y104.600 E10.29619
G1 X89.272 Y104.600 E10.30570
G1 X89.272 Y105.502 E10.36264
G1 X88.895 Y105.502 E10.38641
G1 X88.895 Y106.104 E10.42446
G1 X88.537 Y106.104 E10.44705
G1 X88.537 Y106.707 E10.48510
G1 X88.330 Y106.707 E10.49819
G1 X88.330 Y107.554 E10.55169
G1 X88.123 Y107.554 E10.56477
G1 X88.123 Y109.044 E10.65883
G1 X88.311 Y109.044 E10.67072
G1 X88.311 Y109.945 E10.72766
G1 X88.311 Y110.972 F7800.000
G1 X88.478 Y111.701 F7800.000
G1 X89.775 Y111.016 E10.87311 F360.000
G1 X89.795 Y111.036 E10.87591 F360.000
G1 X88.498 Y111.721 F7800.000
G1 X88.478 Y111.701 E10.87872 F360.000
G1 X88.578 Y112.401 F7800.000
G1 X88.598 Y112.421 E10.88005 F360.000
G1 X88.252 Y113.015 E10.91234 F360.000
G1 X88.276 Y113.039 E10.91396 F360.000
G1 X88.322 Y113.443 F7800.000
G1 X88.331 Y113.452 E10.91434 F360.000
G1 F1800.000 E9.91434
G92 E0
G1 X91.650 Y111.108 F7800.000
G1 E1.00000 F1800.000
G1 X91.670 Y111.128 E1.00084 F360.000
G1 X93.239 Y111.423 F7800.000
G1 X93.723 Y110.808 E1.04387 F360.000
G1 X93.703 Y110.788 E1.04542 F360.000
G1 X93.239 Y111.423 F7800.000
G1 X93.259 Y111.443 E1.04698 F360.000
G1 X93.666 Y112.123 F7800.000
G1 X93.686 Y112.143 E1.04931 F360.000
G1 X93.539 Y113.644 E1.17352 F360.000
G1 X93.559 Y113.664 E1.17585 F360.000
G1 X93.446 Y114.697 F7800.000
G1 X93.466 Y114.717 E1.17669 F360.000
G1 X93.232 Y116.041 F7800.000
G1 X94.143 Y115.989 E1.22072 F360.000
G1 X94.163 Y116.009 E1.22208 F360.000
G1 X93.252 Y116.061 F7800.000
G1 X93.232 Y116.041 E1.22345 F360.000
G1 F1800.000 E0.22345
G92 E0
G1 X92.837 Y108.555 F7800.000
G1 E1.00000 F1800.000
G1 X92.817 Y108.535 E1.00116 F360.000
G1 X92.965 Y107.861 E1.02946 F360.000
G1 X93.658 Y108.555 E1.06971 F360.000
G1 X93.241 Y107.316 F7800.000
G1 X93.221 Y107.296 E1.07087 F360.000
G1 X93.169 Y105.873 F7800.000
G1 X93.305 Y105.275 E1.09340 F360.000
G1 X93.285 Y105.255 E1.09444 F360.000
G1 X93.169 Y105.873 F7800.000
G1 X92.603 Y105.307 E1.12385 F360.000
G1 X92.414 Y105.853 E1.14507 F360.000
G1 X92.434 Y105.873 E1.14611 F360.000
G1 F1800.000 E0.14611
G92 E0
G1 X90.612 Y112.157 F7800.000
G1 X81.301 Y108.228 F7800.000
G1 X80.646 Y116.188 F7800.000
G1 X86.173 Y106.238 F7800.000
G1 E1.00000 F1800.000
G1 X86.153 Y106.218 E1.00084 F360.000
G1 X85.425 Y107.601 F7800.000
G1 X85.445 Y107.621 E1.00169 F360.000
G1 X85.381 Y108.301 F7800.000
G1 X85.401 Y108.321 E1.00508 F360.000
G1 X85.381 Y108.301 F7800.000
G1 X84.124 Y109.444 E1.20896 F360.000
G1 X84.144 Y109.464 E1.21236 F360.000
G1 X83.392 Y109.764 F7800.000
G1 X83.372 Y109.744 E1.21320 F360.000
G1 X82.989 Y110.150 F7800.000
G1 X83.009 Y110.170 E1.21433 F360.000
G1 X82.619 Y110.576 E1.23669 F360.000
G1 X82.639 Y110.596 E1.23781 F360.000
G1 X82.276 Y111.145 F7800.000
G1 X82.296 Y111.165 E1.23872 F360.000
G1 X82.205 Y111.718 E1.25674 F360.000
G1 X82.296 Y111.809 E1.26090 F360.000
G1 X82.138 Y112.294 E1.27733 F360.000
G1 X82.296 Y112.452 E1.28454 F360.000
G1 X82.255 Y113.054 E1.30397 F360.000
G1 X82.296 Y113.096 E1.30586 F360.000
G1 X82.255 Y113.698 E1.32529 F360.000
G1 X82.275 Y113.718 E1.32620 F360.000
G1 F1800.000 E0.32620
G92 E0
G1 X92.716 Y132.191 F7800.000
G1 E1.00000 F1800.000
G1 X94.001 Y132.191 E1.08116 F540.000
G1 X94.001 Y133.151 E1.14180
G1 X94.359 Y133.151 E1.16439
G1 X94.359 Y134.187 E1.22979
G1 X94.623 Y134.187 E1.24644
G1 X94.623 Y135.222 E1.31183
G1 X94.740 Y135.222 E1.31923
G1 X94.740 Y137.209 E1.44465
G1 X94.568 Y137.255 E1.45586
G1 X94.568 Y137.600 E1.47765
G1 X94.227 Y137.600 E1.49920
G1 X94.227 Y138.353 E1.54676
G1 X92.810 Y138.353 E1.63624
G1 X92.810 Y137.920 E1.66359
G1 X92.603 Y137.920 E1.67667
G1 X92.603 Y134.101 E1.91781
G1 X92.434 Y134.147 E1.92889
G1 X92.434 Y132.925 E2.00601
G1 X92.716 Y132.925 E2.02385
G1 X92.716 Y132.325 E2.06177
G1 X91.823 Y132.033 F7800.000
G1 X91.823 Y131.204 E2.11409 F540.000
G1 X92.181 Y131.204 E2.13668
G1 X92.181 Y130.225 E2.19851
G1 X92.501 Y130.225 E2.21872
G1 X92.501 Y129.660 E2.25440
G1 X92.671 Y129.660 E2.26509
G1 X92.671 Y129.509 E2.27460
G1 X93.877 Y129.509 E2.35079
G1 X93.877 Y130.413 E2.40786
G1 X94.423 Y130.413 E2.44234
G1 X94.423 Y131.298 E2.49823
G1 X94.894 Y131.298 E2.52795
G1 X94.894 Y132.258 E2.58859
G1 X95.252 Y132.258 E2.61118
G1 X95.252 Y133.294 E2.67658
G1 X95.515 Y133.294 E2.69323
G1 X95.515 Y134.330 E2.75863
G1 X95.760 Y134.330 E2.77408
G1 X95.760 Y136.186 E2.89131
G1 X95.633 Y136.152 E2.89966
G1 X95.633 Y137.894 E3.00966
G1 X95.461 Y137.940 E3.02086
G1 X95.461 Y138.493 E3.05577
