; generated by Slic3r 1.0.0 on 2014-05-06 at 23:45:29
; layer_height = 0.4
; perimeters = 3
; top_solid_layers = 0
; bottom_solid_layers = 3
; fill_density = 0.4
; perimeter_speed = 30
; infill_speed = 60
; travel_speed = 90
; nozzle_diameter = 0.5
; filament_diameter = 3
; extrusion_multiplier = 1
; perimeters extrusion width = 0.50mm
; infill extrusion width = 0.53mm
; solid infill extrusion width = 0.53mm
; top infill extrusion width = 0.53mm
; first layer extrusion width = 1.00mm
G21 ; set units to millimeters
M107
M190 S61 ; wait for bed temperature to be reached
M104 S190 ; set temperature
G28 ; home all axes
G1 Z5 F5000 ; lift nozzle
M109 S190 ; wait for temperature to be reached
G90 ; use absolute coordinates
G92 E0
M82 ; use absolute distances for extrusion
G1 F1800.000 E-1.00000
G92 E0
G1 Z0.500 F7800.000
G1 X82.678 Y82.653 F7800.000
G1 E1.00000 F1800.000
G1 X83.297 Y82.073 E1.05361 F540.000
G1 X83.987 Y81.562 E1.10779
G1 X85.498 Y80.603 E1.22078
G1 X86.047 Y80.293 E1.26065
G1 X86.618 Y80.033 E1.30021
G1 X88.178 Y79.403 E1.40644
G1 X88.767 Y79.193 E1.44599
G1 X89.377 Y79.043 E1.48565
G1 X93.328 Y78.243 E1.74014
G1 X105.267 Y76.203 E2.50503
G1 X106.428 Y76.103 E2.57855
G1 X107.508 Y76.103 E2.64674
G1 X108.398 Y76.163 E2.70307
G1 X109.278 Y76.333 E2.75967
G1 X111.047 Y76.803 E2.87531
G1 X111.828 Y77.062 E2.92723
G1 X112.578 Y77.413 E2.97949
G1 X114.208 Y78.303 E3.09676
G1 X114.708 Y78.603 E3.13358
G1 X116.448 Y79.753 E3.26528
G1 X117.257 Y80.373 E3.32969
G1 X117.958 Y81.113 E3.39401
G1 X119.578 Y83.073 E3.55458
G1 X120.148 Y83.873 E3.61661
G1 X121.438 Y86.013 E3.77439
G1 X122.358 Y87.753 E3.89868
G1 X122.727 Y88.583 E3.95606
G1 X123.428 Y90.473 E4.08333
G1 X123.648 Y91.153 E4.12846
G1 X124.168 Y93.183 E4.26078
G1 X124.678 Y95.333 E4.40031
G1 X124.817 Y96.123 E4.45098
G1 X124.858 Y96.923 E4.50156
G1 X124.858 Y106.873 E5.12985
G1 X124.797 Y107.773 E5.18681
G1 X124.547 Y109.663 E5.30720
G1 X124.148 Y111.843 E5.44715
G1 X123.907 Y112.773 E5.50780
G1 X123.238 Y114.763 E5.64039
G1 X122.797 Y115.793 E5.71112
G1 X122.168 Y116.983 E5.79614
G1 X121.438 Y118.293 E5.89084
G1 X120.488 Y119.773 E6.00189
G1 X119.627 Y120.993 E6.09614
G1 X118.767 Y121.983 E6.17895
G1 X117.738 Y122.803 E6.26209
G1 X116.578 Y123.403 E6.34455
G1 X115.317 Y123.773 E6.42748
G1 X114.007 Y123.893 E6.51054
G1 X112.868 Y123.893 E6.58253
G1 X111.978 Y123.833 E6.63886
G1 X83.748 Y120.143 E8.43662
G1 X82.308 Y119.803 E8.53005
G1 X80.978 Y119.153 E8.62353
G1 X79.818 Y118.233 E8.71702
G1 X78.877 Y117.093 E8.81032
G1 X78.418 Y116.403 E8.86268
G1 X77.788 Y115.423 E8.93625
G1 X77.428 Y114.793 E8.98207
G1 X77.138 Y114.133 E9.02759
G1 X76.528 Y112.523 E9.13631
G1 X76.288 Y111.723 E9.18905
G1 X75.338 Y107.843 E9.44129
G1 X75.188 Y107.032 E9.49331
G1 X75.138 Y106.203 E9.54581
G1 X75.138 Y102.043 E9.80850
G1 X75.338 Y97.323 E10.10681
G1 X75.578 Y95.053 E10.25095
G1 X75.668 Y94.473 E10.28801
G1 X76.118 Y92.213 E10.43352
G1 X76.288 Y91.543 E10.47717
G1 X76.528 Y90.893 E10.52093
G1 X77.347 Y88.943 E10.65450
G1 X77.918 Y87.853 E10.73217
G1 X78.688 Y86.883 E10.81038
G1 X82.586 Y82.750 E11.16911
G1 F1800.000 E10.16911
G92 E0
G1 X89.976 Y89.678 F7800.000
G1 E1.00000 F1800.000
G1 X91.492 Y89.678 E1.09573 F540.000
G1 X91.492 Y88.716 E1.15647
G1 X93.045 Y88.716 E1.25454
G1 X93.045 Y88.088 E1.29420
G1 X94.675 Y88.088 E1.39712
G1 X94.675 Y87.793 E1.41575
G1 X95.812 Y87.793 E1.48755
G1 X95.812 Y87.567 E1.50182
G1 X96.776 Y87.567 E1.56269
G1 X96.776 Y87.319 E1.57835
G1 X98.183 Y87.319 E1.66720
G1 X98.183 Y87.198 E1.67484
G1 X99.270 Y87.198 E1.74349
G1 X99.270 Y87.496 E1.76231
G1 X99.751 Y87.496 E1.79268
G1 X99.751 Y89.285 E1.90566
G1 X99.344 Y89.285 E1.93136
G1 X99.344 Y90.948 E2.03637
G1 X98.938 Y90.948 E2.06201
G1 X98.938 Y96.481 E2.41138
G1 X99.307 Y96.481 E2.43468
G1 X99.307 Y98.514 E2.56305
G1 X104.914 Y98.514 E2.91710
G1 X104.914 Y97.886 E2.95675
G1 X105.468 Y97.886 E2.99174
G1 X105.468 Y96.924 E3.05248
G1 X106.023 Y96.924 E3.08753
G1 X106.023 Y95.889 E3.15288
G1 X106.504 Y95.889 E3.18326
G1 X106.504 Y94.706 E3.25796
G1 X107.058 Y94.706 E3.29294
G1 X107.058 Y93.079 E3.39568
G1 X107.761 Y93.079 E3.44007
G1 X107.761 Y91.156 E3.56150
G1 X108.389 Y91.156 E3.60115
G1 X108.389 Y90.047 E3.67118
G1 X108.722 Y90.047 E3.69221
G1 X108.722 Y88.199 E3.80890
G1 X109.092 Y88.199 E3.83227
G1 X109.092 Y87.792 E3.85797
G1 X110.363 Y87.792 E3.93824
G1 X110.363 Y89.751 E4.06194
G1 X111.989 Y89.751 E4.16461
G1 X111.989 Y91.526 E4.27670
G1 X113.062 Y91.526 E4.34445
G1 X113.062 Y93.264 E4.45420
G1 X113.986 Y93.264 E4.51255
G1 X113.986 Y95.150 E4.63164
G1 X114.688 Y95.150 E4.67597
G1 X114.688 Y97.183 E4.80434
G1 X115.206 Y97.183 E4.83705
G1 X115.206 Y99.217 E4.96549
G1 X115.687 Y99.217 E4.99586
G1 X115.687 Y103.891 E5.29099
G1 X115.436 Y103.823 E5.30741
G1 X115.436 Y107.007 E5.50851
G1 X115.099 Y107.097 E5.53053
G1 X115.099 Y108.289 E5.60579
G1 X114.430 Y108.289 E5.64803
G1 X114.430 Y110.285 E5.77407
G1 X113.801 Y110.285 E5.81379
G1 X113.801 Y111.469 E5.88855
G1 X113.136 Y111.469 E5.93055
G1 X113.136 Y112.615 E6.00291
G1 X111.495 Y112.615 E6.10655
G1 X111.495 Y111.580 E6.17190
G1 X110.053 Y111.580 E6.26296
G1 X110.053 Y110.655 E6.32137
G1 X108.574 Y110.655 E6.41476
G1 X108.574 Y109.768 E6.47077
G1 X107.243 Y109.768 E6.55482
G1 X107.243 Y108.917 E6.60855
G1 X106.836 Y108.917 E6.63425
G1 X106.836 Y102.003 E7.07084
G1 X106.208 Y102.003 E7.11050
G1 X106.208 Y100.968 E7.17585
G1 X100.403 Y100.968 E7.54241
G1 X100.403 Y100.598 E7.56578
G1 X99.848 Y100.598 E7.60082
G1 X99.848 Y100.052 E7.63531
G1 X93.651 Y100.042 E8.02661
G1 X93.651 Y100.879 E8.07946
G1 X93.063 Y100.879 E8.11659
G1 X93.063 Y101.676 E8.16692
G1 X92.618 Y101.676 E8.19502
G1 X92.618 Y102.356 E8.23796
G1 X92.252 Y102.356 E8.26107
G1 X92.252 Y108.591 E8.65478
G1 X91.612 Y108.591 E8.69519
G1 X91.612 Y108.970 E8.71912
G1 X90.043 Y108.970 E8.81820
G1 X90.043 Y109.336 E8.84131
G1 X88.435 Y109.336 E8.94285
G1 X88.435 Y109.689 E8.96514
G1 X86.509 Y109.689 E9.08677
G1 X86.509 Y109.415 E9.10407
G1 X85.882 Y109.415 E9.14366
G1 X85.882 Y107.807 E9.24520
G1 X85.267 Y107.807 E9.28404
G1 X85.267 Y105.833 E9.40869
G1 X84.823 Y105.833 E9.43672
G1 X84.823 Y103.924 E9.55727
G1 X84.522 Y103.924 E9.57627
G1 X84.522 Y99.907 E9.82994
G1 X84.718 Y99.907 E9.84232
G1 X84.718 Y98.108 E9.95592
G1 X85.170 Y98.108 E9.98446
G1 X85.170 Y95.852 E10.12692
G1 X85.983 Y95.852 E10.17825
G1 X85.983 Y93.898 E10.30164
G1 X87.462 Y93.898 E10.39503
G1 X87.462 Y92.340 E10.49341
G1 X88.350 Y92.340 E10.54949
G1 X88.350 Y91.563 E10.59855
G1 X89.126 Y91.563 E10.64755
G1 X89.126 Y90.639 E10.70590
G1 X89.976 Y90.639 E10.75957
G1 X89.976 Y89.812 E10.81180
G1 X89.083 Y89.746 F7800.000
G1 X89.083 Y88.785 E10.87248 F540.000
G1 X90.599 Y88.785 E10.96821
G1 X90.599 Y87.823 E11.02896
G1 X92.152 Y87.823 E11.12702
G1 X92.152 Y87.195 E11.16668
G1 X93.782 Y87.195 E11.26960
G1 X93.782 Y86.900 E11.28823
G1 X94.919 Y86.900 E11.36003
G1 X94.919 Y86.674 E11.37430
G1 X95.883 Y86.674 E11.43517
G1 X95.883 Y86.426 E11.45083
G1 X97.290 Y86.426 E11.53968
G1 X97.290 Y86.305 E11.54732
G1 X100.163 Y86.305 E11.72871
G1 X100.163 Y86.603 E11.74753
G1 X101.790 Y86.603 E11.85027
G1 X101.790 Y86.862 E11.86662
G1 X102.086 Y86.862 E11.88531
G1 X102.086 Y87.811 E11.94521
G1 X101.347 Y87.811 E11.99188
G1 X101.347 Y88.994 E12.06658
G1 X100.644 Y88.994 E12.11097
G1 X100.644 Y90.178 E12.18573
G1 X100.237 Y90.178 E12.21143
G1 X100.237 Y91.841 E12.31644
G1 X99.831 Y91.841 E12.34208
G1 X99.831 Y95.588 E12.57871
G1 X100.200 Y95.588 E12.60201
G1 X100.200 Y97.621 E12.73039
G1 X104.021 Y97.621 E12.97169
G1 X104.021 Y96.993 E13.01135
G1 X104.575 Y96.993 E13.04633
G1 X104.575 Y96.031 E13.10708
G1 X105.130 Y96.031 E13.14212
G1 X105.130 Y94.996 E13.20748
G1 X105.611 Y94.996 E13.23785
G1 X105.611 Y93.813 E13.31255
G1 X106.165 Y93.813 E13.34753
G1 X106.165 Y92.186 E13.45027
G1 X106.868 Y92.186 E13.49466
G1 X106.868 Y90.263 E13.61609
G1 X107.496 Y90.263 E13.65575
G1 X107.496 Y89.154 E13.72578
G1 X107.829 Y89.154 E13.74680
G1 X107.829 Y87.306 E13.86350
G1 X108.199 Y87.306 E13.88686
G1 X108.199 Y85.753 E13.98493
G1 X109.518 Y85.753 E14.06819
G1 X109.518 Y86.899 E14.14055
G1 X111.256 Y86.899 E14.25030
G1 X111.256 Y88.858 E14.37400
G1 X112.882 Y88.858 E14.47668
G1 X112.882 Y90.633 E14.58876
G1 X113.955 Y90.633 E14.65652
G1 X113.955 Y92.371 E14.76626
G1 X114.879 Y92.371 E14.82461
G1 X114.879 Y94.257 E14.94370
G1 X115.581 Y94.257 E14.98803
G1 X115.581 Y96.290 E15.11641
G1 X116.099 Y96.290 E15.14911
G1 X116.099 Y98.324 E15.27755
G1 X116.580 Y98.324 E15.30793
G1 X116.580 Y105.057 E15.73309
G1 X116.329 Y104.989 E15.74951
G1 X116.329 Y107.693 E15.92023
G1 X115.992 Y107.783 E15.94226
G1 X115.992 Y109.182 E16.03059
G1 X115.323 Y109.182 E16.07284
G1 X115.323 Y111.178 E16.19888
G1 X114.694 Y111.178 E16.23859
G1 X114.694 Y112.362 E16.31336
G1 X114.029 Y112.362 E16.35535
G1 X114.029 Y113.545 E16.43005
G1 X113.326 Y113.545 E16.47444
G1 X113.326 Y114.284 E16.52111
G1 X112.044 Y114.284 E16.60203
G1 X112.044 Y113.508 E16.65103
G1 X110.602 Y113.508 E16.74209
G1 X110.602 Y112.473 E16.80745
G1 X109.160 Y112.473 E16.89850
G1 X109.160 Y111.548 E16.95691
G1 X107.681 Y111.548 E17.05030
G1 X107.681 Y110.661 E17.10631
G1 X106.350 Y110.661 E17.19036
G1 X106.350 Y109.810 E17.24410
G1 X105.389 Y109.810 E17.30478
G1 X105.389 Y108.491 E17.38804
G1 X105.943 Y108.491 E17.42303
G1 X105.943 Y103.255 E17.75366
G1 X105.796 Y103.294 E17.76326
G1 X105.796 Y102.896 E17.78842
G1 X105.315 Y102.896 E17.81879
G1 X105.315 Y101.861 E17.88415
G1 X102.012 Y101.861 E18.09274
G1 X102.012 Y103.525 E18.19781
G1 X101.568 Y103.525 E18.22585
G1 X101.568 Y104.782 E18.30523
G1 X99.658 Y104.782 E18.42581
G1 X99.658 Y104.117 E18.46780
G1 X99.510 Y104.117 E18.47715
G1 X99.510 Y101.491 E18.64297
G1 X98.955 Y101.491 E18.67801
G1 X98.955 Y100.942 E18.71269
G1 X94.544 Y100.935 E18.99125
G1 X94.544 Y101.772 E19.04410
G1 X93.956 Y101.772 E19.08123
G1 X93.956 Y102.569 E19.13156
G1 X93.511 Y102.569 E19.15966
G1 X93.511 Y103.249 E19.20260
G1 X93.145 Y103.249 E19.22571
G1 X93.145 Y107.080 E19.46765
G1 X93.524 Y107.080 E19.49158
G1 X93.524 Y107.864 E19.54108
G1 X94.034 Y107.864 E19.57329
G1 X94.034 Y109.484 E19.67556
G1 X92.505 Y109.484 E19.77211
G1 X92.505 Y109.863 E19.79604
G1 X90.936 Y109.863 E19.89512
G1 X90.936 Y110.229 E19.91823
G1 X89.328 Y110.229 E20.01977
G1 X89.328 Y110.582 E20.04206
G1 X87.916 Y110.582 E20.13122
G1 X87.916 Y110.935 E20.15351
G1 X85.616 Y110.935 E20.29872
G1 X85.616 Y110.308 E20.33831
G1 X84.989 Y110.308 E20.37790
G1 X84.989 Y108.700 E20.47944
G1 X84.374 Y108.700 E20.51827
G1 X84.374 Y106.726 E20.64292
G1 X83.930 Y106.726 E20.67096
G1 X83.930 Y104.817 E20.79151
G1 X83.420 Y104.817 E20.82371
G1 X83.420 Y103.733 E20.89213
G1 X83.629 Y103.733 E20.90533
G1 X83.629 Y99.014 E21.20332
G1 X83.825 Y99.014 E21.21569
G1 X83.825 Y97.215 E21.32929
G1 X84.277 Y97.215 E21.35783
G1 X84.277 Y94.959 E21.50029
G1 X85.090 Y94.959 E21.55163
G1 X85.090 Y93.005 E21.67501
G1 X86.569 Y93.005 E21.76840
G1 X86.569 Y91.447 E21.86679
G1 X87.457 Y91.447 E21.92286
G1 X87.457 Y90.670 E21.97192
G1 X88.233 Y90.670 E22.02092
G1 X88.233 Y89.746 E22.07927
G1 X88.949 Y89.746 E22.12449
G1 X88.191 Y88.854 F7800.000
G1 X88.191 Y87.892 E22.18517 F378.000
G1 X89.707 Y87.892 E22.28090
G1 X89.707 Y86.930 E22.34165
G1 X91.260 Y86.930 E22.43971
G1 X91.260 Y86.302 E22.47937
G1 X92.889 Y86.302 E22.58229
G1 X92.889 Y86.008 E22.60092
G1 X94.026 Y86.008 E22.67272
G1 X94.026 Y85.781 E22.68699
G1 X94.990 Y85.781 E22.74786
G1 X94.990 Y85.534 E22.76352
G1 X96.398 Y85.534 E22.85237
G1 X96.398 Y85.413 E22.86001
G1 X101.056 Y85.413 E23.15414
G1 X101.056 Y85.711 E23.17296
G1 X102.682 Y85.711 E23.27569
G1 X102.682 Y85.970 E23.29205
G1 X103.608 Y85.970 E23.35046
G1 X103.608 Y86.265 E23.36915
G1 X103.670 Y86.265 E23.37307
G1 X103.637 Y87.779 E23.46870
G1 X102.978 Y87.779 E23.51029
G1 X102.978 Y88.703 E23.56863
G1 X102.240 Y88.703 E23.61530
G1 X102.240 Y89.886 E23.69000
G1 X101.536 Y89.886 E23.73439
G1 X101.536 Y91.070 E23.80915
G1 X101.130 Y91.070 E23.83485
G1 X101.130 Y92.733 E23.93986
G1 X100.724 Y92.733 E23.96550
G1 X100.724 Y94.696 E24.08939
G1 X101.092 Y94.696 E24.11269
G1 X101.092 Y96.729 E24.24107
G1 X103.129 Y96.729 E24.36963
G1 X103.129 Y96.101 E24.40929
G1 X103.683 Y96.101 E24.44427
G1 X103.683 Y95.139 E24.50502
G1 X104.237 Y95.139 E24.54006
G1 X104.237 Y94.104 E24.60542
G1 X104.719 Y94.104 E24.63579
G1 X104.719 Y92.921 E24.71049
G1 X105.273 Y92.921 E24.74548
G1 X105.273 Y91.293 E24.84821
G1 X105.976 Y91.293 E24.89260
G1 X105.976 Y89.371 E25.01403
G1 X106.603 Y89.371 E25.05369
G1 X106.603 Y88.262 E25.12372
G1 X106.936 Y88.262 E25.14474
G1 X106.936 Y86.413 E25.26144
G1 X107.307 Y86.413 E25.28480
G1 X107.307 Y83.972 E25.43894
G1 X108.783 Y83.972 E25.53221
G1 X108.783 Y84.861 E25.58828
G1 X110.411 Y84.861 E25.69102
G1 X110.411 Y86.007 E25.76338
G1 X112.148 Y86.007 E25.87313
G1 X112.148 Y87.965 E25.99683
G1 X113.775 Y87.965 E26.09951
G1 X113.775 Y89.741 E26.21159
G1 X114.847 Y89.741 E26.27934
G1 X114.847 Y91.479 E26.38909
G1 X115.771 Y91.479 E26.44744
G1 X115.771 Y93.365 E26.56653
G1 X116.473 Y93.365 E26.61086
G1 X116.473 Y95.398 E26.73923
G1 X116.991 Y95.398 E26.77194
G1 X116.991 Y97.431 E26.90038
G1 X117.472 Y97.431 E26.93075
G1 X117.472 Y106.224 E27.48596
G1 X117.221 Y106.156 E27.50238
G1 X117.221 Y108.379 E27.64272
G1 X116.885 Y108.469 E27.66475
G1 X116.885 Y110.074 E27.76616
G1 X116.215 Y110.074 E27.80840
G1 X116.215 Y112.070 E27.93444
G1 X115.586 Y112.070 E27.97416
G1 X115.586 Y113.255 E28.04893
G1 X114.922 Y113.255 E28.09092
G1 X114.922 Y114.437 E28.16562
G1 X114.219 Y114.437 E28.21001
G1 X114.219 Y115.509 E28.27770
G1 X113.517 Y115.509 E28.32203
G1 X113.517 Y115.805 E28.34072
G1 X112.409 Y115.805 E28.41069
G1 X112.409 Y115.176 E28.45040
G1 X111.151 Y115.176 E28.52978
G1 X111.151 Y114.400 E28.57878
G1 X109.710 Y114.400 E28.66983
G1 X109.710 Y113.366 E28.73519
G1 X108.268 Y113.366 E28.82625
G1 X108.268 Y112.441 E28.88466
G1 X106.789 Y112.441 E28.97805
G1 X106.789 Y111.553 E29.03406
G1 X105.458 Y111.553 E29.11811
G1 X105.458 Y110.702 E29.17184
G1 X104.201 Y110.702 E29.25122
G1 X104.201 Y109.889 E29.30255
G1 X103.645 Y109.889 E29.33760
G1 X103.645 Y108.745 E29.40984
G1 X104.497 Y108.745 E29.46357
G1 X104.497 Y107.598 E29.53600
G1 X105.050 Y107.598 E29.57099
G1 X105.050 Y104.416 E29.77197
G1 X104.904 Y104.455 E29.78158
G1 X104.904 Y103.789 E29.82364
G1 X104.422 Y103.789 E29.85401
G1 X104.422 Y102.754 E29.91936
G1 X102.904 Y102.754 E30.01522
G1 X102.904 Y104.417 E30.12029
G1 X102.460 Y104.417 E30.14833
G1 X102.460 Y105.823 E30.23705
G1 X101.647 Y105.823 E30.28839
G1 X101.647 Y106.314 E30.31945
G1 X99.874 Y106.314 E30.43141
G1 X99.874 Y105.674 E30.47182
G1 X98.766 Y105.674 E30.54185
G1 X98.766 Y105.009 E30.58384
G1 X98.618 Y105.009 E30.59319
G1 X98.618 Y102.383 E30.75901
G1 X98.062 Y102.383 E30.79406
G1 X98.062 Y101.831 E30.82893
G1 X95.436 Y101.827 E30.99475
G1 X95.436 Y102.664 E31.04760
G1 X94.848 Y102.664 E31.08473
G1 X94.848 Y103.462 E31.13506
G1 X94.403 Y103.462 E31.16316
G1 X94.403 Y104.141 E31.20610
G1 X94.037 Y104.141 E31.22921
G1 X94.037 Y106.188 E31.35841
G1 X94.416 Y106.188 E31.38234
G1 X94.416 Y106.972 E31.43184
G1 X94.926 Y106.972 E31.46405
G1 X94.926 Y108.619 E31.56805
G1 X95.266 Y108.619 E31.58952
G1 X95.266 Y109.998 E31.67660
G1 X94.978 Y109.998 E31.69478
G1 X94.978 Y110.376 E31.71871
G1 X93.397 Y110.376 E31.81855
G1 X93.397 Y110.755 E31.84248
G1 X91.828 Y110.755 E31.94155
G1 X91.828 Y111.122 E31.96467
G1 X90.220 Y111.122 E32.06620
G1 X90.220 Y111.474 E32.08849
G1 X88.808 Y111.474 E32.17766
G1 X88.808 Y111.827 E32.19995
G1 X87.370 Y111.827 E32.29075
G1 X87.370 Y112.141 E32.31058
G1 X85.959 Y112.141 E32.39967
G1 X85.959 Y112.180 E32.40214
G1 X84.724 Y112.180 E32.48019
G1 X84.724 Y111.200 E32.54207
G1 X84.097 Y111.200 E32.58166
G1 X84.097 Y109.592 E32.68320
G1 X83.481 Y109.592 E32.72203
G1 X83.481 Y107.618 E32.84668
G1 X83.038 Y107.618 E32.87472
G1 X83.038 Y105.709 E32.99526
G1 X82.528 Y105.709 E33.02747
G1 X82.528 Y102.841 E33.20863
G1 X82.736 Y102.841 E33.22183
G1 X82.736 Y98.122 E33.51981
