; generated by Slic3r 1.0.0 on 2014-05-02 at 02:41:39

; layer_height = 0.4
; perimeters = 3
; top_solid_layers = 3
; bottom_solid_layers = 3
; fill_density = 0.4
; perimeter_speed = 30
; infill_speed = 60
; travel_speed = 130
; nozzle_diameter = 0.5
; filament_diameter = 3
; extrusion_multiplier = 1
; perimeters extrusion width = 0.50mm
; infill extrusion width = 0.53mm
; solid infill extrusion width = 0.53mm
; top infill extrusion width = 0.53mm
; first layer extrusion width = 1.00mm

G21 ; set units to millimeters
M107
M104 S205 ; set temperature
G28 ; home all axes
G1 Z5 F5000 ; lift nozzle
M109 S205 ; wait for temperature to be reached
G90 ; use absolute coordinates
G92 E0
M82 ; use absolute distances for extrusion
G1 F1800.000 E-1.00000
G92 E0
G1 Z0.500 F7800.000
G1 X66.758 Y69.722 F7800.000
G1 E1.00000 F1800.000
G1 X67.798 Y68.862 E1.08522 F540.000
G1 X68.988 Y68.222 E1.17054
G1 X70.288 Y67.832 E1.25624
G1 X71.628 Y67.702 E1.34125
G1 X128.368 Y67.702 E4.92413
G1 X129.708 Y67.832 E5.00914
G1 X131.008 Y68.222 E5.09485
G1 X132.198 Y68.862 E5.18017
G1 X133.238 Y69.722 E5.26538
G1 X134.098 Y70.762 E5.35060
G1 X134.738 Y71.952 E5.43592
G1 X135.128 Y73.252 E5.52163
G1 X135.258 Y74.592 E5.60664
G1 X135.258 Y125.402 E8.81506
G1 X135.128 Y126.742 E8.90008
G1 X134.738 Y128.042 E8.98578
G1 X134.098 Y129.232 E9.07110
G1 X133.238 Y130.272 E9.15632
G1 X132.198 Y131.132 E9.24153
G1 X131.008 Y131.772 E9.32685
G1 X129.708 Y132.162 E9.41256
G1 X128.368 Y132.292 E9.49757
G1 X71.628 Y132.292 E13.08045
G1 X70.288 Y132.162 E13.16546
G1 X68.988 Y131.772 E13.25116
G1 X67.798 Y131.132 E13.33648
G1 X66.758 Y130.272 E13.42170
G1 X65.898 Y129.232 E13.50692
G1 X65.258 Y128.042 E13.59224
G1 X64.868 Y126.742 E13.67794
G1 X64.738 Y125.402 E13.76295
G1 X64.738 Y74.592 E16.97138
G1 X64.868 Y73.252 E17.05639
G1 X65.258 Y71.952 E17.14210
G1 X65.898 Y70.762 E17.22742
G1 X66.673 Y69.825 E17.30418
G1 F1800.000 E16.30418
G92 E0
G1 X75.699 Y78.662 F7800.000
G1 E1.00000 F1800.000
G1 X124.301 Y78.662 E4.06902 F540.000
G1 X124.301 Y121.338 E6.76379
G1 X75.699 Y121.338 E9.83281
G1 X75.699 Y78.796 E12.51912
G1 X74.806 Y77.770 F7800.000
G1 X125.194 Y77.770 E15.70088 F540.000
G1 X125.194 Y122.230 E18.50838
G1 X74.806 Y122.230 E21.69015
G1 X74.806 Y77.904 E24.48919
G1 X73.913 Y76.877 F7800.000
G1 X126.087 Y76.877 E27.78370 F540.000
G1 X126.087 Y123.123 E30.70394
G1 X73.913 Y123.123 E33.99844
G1 X73.913 Y77.011 E36.91023
G1 X73.021 Y75.984 F7800.000
G1 X126.979 Y75.984 E40.31748 F540.000
G1 X126.979 Y124.016 E43.35046
G1 X73.021 Y124.016 E46.75770
G1 X73.021 Y76.118 E49.78223
G1 X72.128 Y75.092 F7800.000
G1 X127.872 Y75.092 E53.30221 F378.000
G1 X127.872 Y124.908 E56.44793
G1 X72.128 Y124.908 E59.96792
G1 X72.128 Y75.225 E63.10518
G1 X72.901 Y75.538 F7800.000
G1 F1800.000 E62.10518
G92 E0
G1 X76.356 Y120.701 F7800.000
G1 E1.00000 F1800.000
G1 X76.336 Y120.681 E1.00179 F1080.000
G1 X76.336 Y119.414 E1.08208
G1 X77.623 Y120.701 E1.19742
G1 X78.890 Y120.701 E1.27772
G1 X76.336 Y118.147 E1.50661
G1 X76.336 Y116.880 E1.58690
G1 X80.157 Y120.701 E1.92933
G1 X81.424 Y120.701 E2.00963
G1 X76.336 Y115.613 E2.46561
G1 X76.336 Y114.346 E2.54590
G1 X82.691 Y120.701 E3.11544
G1 X83.958 Y120.701 E3.19573
G1 X76.336 Y113.079 E3.87881
G1 X76.336 Y111.812 E3.95910
G1 X85.225 Y120.701 E4.75574
G1 X86.492 Y120.701 E4.83603
G1 X76.336 Y110.545 E5.74621
G1 X76.336 Y109.278 E5.82650
G1 X87.759 Y120.701 E6.85023
G1 X89.026 Y120.701 E6.93052
G1 X76.336 Y108.011 E8.06780
G1 X76.336 Y106.744 E8.14809
G1 X90.293 Y120.701 E9.39891
G1 X91.560 Y120.701 E9.47921
G1 X76.336 Y105.477 E10.84358
G1 X76.336 Y104.210 E10.92387
G1 X92.827 Y120.701 E12.40180
G1 X94.094 Y120.701 E12.48209
G1 X76.336 Y102.943 E14.07356
G1 X76.336 Y101.676 E14.15385
G1 X95.361 Y120.701 E15.85887
G1 X96.628 Y120.701 E15.93916
G1 X76.336 Y100.409 E17.75773
G1 X76.336 Y99.142 E17.83802
G1 X97.895 Y120.701 E19.77014
G1 X99.162 Y120.701 E19.85043
G1 X76.336 Y97.875 E21.89610
G1 X76.336 Y96.608 E21.97639
G1 X100.429 Y120.701 E24.13560
G1 X101.696 Y120.701 E24.21589
G1 X76.336 Y95.341 E26.48866
G1 X76.336 Y94.074 E26.56895
G1 X102.963 Y120.701 E28.95526
G1 X104.230 Y120.701 E29.03555
G1 X76.336 Y92.807 E31.53541
G1 X76.336 Y91.540 E31.61570
G1 X105.497 Y120.701 E34.22911
G1 X106.764 Y120.701 E34.30940
G1 X76.336 Y90.273 E37.03636
G1 X76.336 Y89.006 E37.11665
G1 X108.031 Y120.701 E39.95716
G1 X109.298 Y120.701 E40.03745
G1 X76.336 Y87.739 E42.99150
G1 X76.336 Y86.472 E43.07180
G1 X110.565 Y120.701 E46.13940
G1 X111.832 Y120.701 E46.21969
G1 X76.336 Y85.205 E49.40084
G1 X76.336 Y83.938 E49.48113
G1 X113.099 Y120.701 E52.77583
G1 X114.366 Y120.701 E52.85612
G1 X76.336 Y82.671 E56.26437
G1 X76.336 Y81.404 E56.34466
G1 X115.633 Y120.701 E59.86646
G1 X116.900 Y120.701 E59.94675
G1 X76.336 Y80.137 E63.58210
G1 X76.766 Y79.299 E63.64174
G1 X118.167 Y120.701 E67.35214
G1 X119.434 Y120.701 E67.43243
G1 X78.033 Y79.299 E71.14283
G1 X79.299 Y79.299 E71.22313
G1 X120.701 Y120.701 E74.93353
G1 X121.968 Y120.701 E75.01382
G1 X80.566 Y79.299 E78.72422
G1 X81.833 Y79.299 E78.80451
G1 X123.234 Y120.701 E82.51491
G1 X123.664 Y119.863 E82.57455
G1 X83.100 Y79.299 E86.20990
G1 X84.367 Y79.299 E86.29019
G1 X123.664 Y118.596 E89.81198
G1 X123.664 Y117.329 E89.89228
G1 X85.634 Y79.299 E93.30052
G1 X86.901 Y79.299 E93.38081
G1 X123.664 Y116.062 E96.67551
G1 X123.664 Y114.795 E96.75581
G1 X88.168 Y79.299 E99.93696
G1 X89.435 Y79.299 E100.01725
G1 X123.664 Y113.528 E103.08485
G1 X123.664 Y112.261 E103.16514
G1 X90.702 Y79.299 E106.11920
G1 X91.969 Y79.299 E106.19949
G1 X123.664 Y110.994 E109.03999
G1 X123.664 Y109.727 E109.12028
G1 X93.236 Y79.299 E111.84724
G1 X94.503 Y79.299 E111.92753
G1 X123.664 Y108.460 E114.54094
G1 X123.664 Y107.193 E114.62123
G1 X95.770 Y79.299 E117.12109
G1 X97.037 Y79.299 E117.20138
G1 X123.664 Y105.926 E119.58769
G1 X123.664 Y104.659 E119.66798
G1 X98.304 Y79.299 E121.94075
G1 X99.571 Y79.299 E122.02104
G1 X123.664 Y103.392 E124.18025
G1 X123.664 Y102.125 E124.26054
G1 X100.838 Y79.299 E126.30621
G1 X102.105 Y79.299 E126.38650
G1 X123.664 Y100.858 E128.31862
G1 X123.664 Y99.591 E128.39891
G1 X103.372 Y79.299 E130.21748
G1 X104.639 Y79.299 E130.29777
G1 X123.664 Y98.324 E132.00279
G1 X123.664 Y97.057 E132.08308
G1 X105.906 Y79.299 E133.67455
G1 X107.173 Y79.299 E133.75484
G1 X123.664 Y95.790 E135.23276
G1 X123.664 Y94.523 E135.31305
G1 X108.440 Y79.299 E136.67743
G1 X109.707 Y79.299 E136.75772
G1 X123.664 Y93.256 E138.00855
G1 X123.664 Y91.989 E138.08884
G1 X110.974 Y79.299 E139.22611
G1 X112.241 Y79.299 E139.30640
G1 X123.664 Y90.722 E140.33013
G1 X123.664 Y89.455 E140.41042
G1 X113.508 Y79.299 E141.32060
G1 X114.775 Y79.299 E141.40089
G1 X123.664 Y88.188 E142.19753
G1 X123.664 Y86.921 E142.27782
G1 X116.042 Y79.299 E142.96090
G1 X117.309 Y79.299 E143.04119
G1 X123.664 Y85.654 E143.61073
G1 X123.664 Y84.387 E143.69102
G1 X118.576 Y79.299 E144.14700
G1 X119.843 Y79.299 E144.22729
G1 X123.664 Y83.120 E144.56973
G1 X123.664 Y81.853 E144.65002
G1 X121.110 Y79.299 E144.87891
G1 X122.377 Y79.299 E144.95920
G1 X123.664 Y80.586 E145.07454
G1 X123.664 Y79.319 E145.15483
G1 X123.644 Y79.299 E145.15662
M104 S200 ; set temperature
G1 F1800.000 E144.15662
G92 E0
G1 Z0.900 F7800.000
G1 X107.269 Y74.287 F7800.000
G1 X105.309 Y77.287 F7800.000
G1 X104.086 Y89.023 F7800.000
G1 E1.00000 F1800.000
G1 X104.086 Y92.899 E1.10967 F1800
G1 X95.004 Y92.899 E1.36664
G1 X95.004 Y89.023 E1.47630
G1 X104.011 Y89.023 E1.73115
G1 X103.586 Y89.523 F7800.000
G1 X103.586 Y92.399 E1.81252 F1800
G1 X95.504 Y92.399 E2.04120
G1 X95.504 Y89.523 E2.12257
G1 X103.511 Y89.523 E2.34912
G1 X104.086 Y89.523 F7800.000
G1 X103.604 Y93.997 F7800.000
G1 X105.559 Y94.000 E2.40443 F1800
G1 X105.559 Y81.302 E2.76371
G1 X115.176 Y81.302 E3.03582
G1 X115.176 Y85.497 E3.15451
G1 X112.470 Y85.497 E3.23108
G1 X112.470 Y89.795 E3.35269
G1 X109.765 Y89.795 E3.42922
G1 X109.765 Y93.206 E3.52573
G1 X117.882 Y93.206 E3.75540
G1 X117.882 Y105.858 E4.11338
G1 X112.470 Y105.858 E4.26651
G1 X112.470 Y111.622 E4.42959
G1 X86.619 Y111.622 E5.16103
G1 X86.619 Y105.858 E5.32411
G1 X81.208 Y105.858 E5.47721
G1 X81.208 Y93.206 E5.83519
G1 X89.325 Y93.206 E6.06486
G1 X89.325 Y89.824 E6.16055
G1 X86.619 Y89.824 E6.23711
G1 X86.619 Y85.553 E6.35793
G1 X83.913 Y85.553 E6.43449
G1 X83.913 Y81.302 E6.55480
G1 X93.530 Y81.302 E6.82690
G1 X93.530 Y93.983 E7.18573
G1 X103.529 Y93.997 E7.46865
G1 X103.604 Y94.497 F7800.000
G1 X106.059 Y94.500 E7.53813 F1260
G1 X106.059 Y81.802 E7.89743
G1 X114.676 Y81.802 E8.14124
G1 X114.676 Y84.997 E8.23164
G1 X111.970 Y84.997 E8.30820
G1 X111.970 Y89.295 E8.42981
G1 X109.265 Y89.295 E8.50635
G1 X109.265 Y93.706 E8.63115
G1 X117.382 Y93.706 E8.86082
G1 X117.382 Y105.358 E9.19050
G1 X111.970 Y105.358 E9.34363
G1 X111.970 Y111.122 E9.50672
G1 X87.119 Y111.122 E10.20986
G1 X87.119 Y105.358 E10.37294
G1 X81.708 Y105.358 E10.52604
G1 X81.708 Y93.706 E10.85573
G1 X89.825 Y93.706 E11.08539
G1 X89.825 Y89.324 E11.20938
G1 X87.119 Y89.324 E11.28594
G1 X87.119 Y85.053 E11.40676
G1 X84.413 Y85.053 E11.48332
G1 X84.413 Y81.802 E11.57533
G1 X93.030 Y81.802 E11.81915
G1 X93.030 Y94.483 E12.17795
G1 X103.529 Y94.497 E12.47500
G1 X103.854 Y94.064 F7800.000
G1 F1800.000 E11.47500
G92 E0
G1 X103.995 Y93.747 F7800.000
G1 X105.930 Y96.750 F7800.000
G1 X115.132 Y95.956 F7800.000
G1 X118.132 Y93.394 F7800.000
G1 X121.543 Y91.053 F7800.000
G1 X110.265 Y92.706 F7800.000
G1 E1.00000 F1800.000
G1 X110.265 Y90.295 E1.06822 F1800
G1 X112.970 Y90.295 E1.14475
G1 X112.970 Y85.997 E1.26636
G1 X115.676 Y85.997 E1.34293
G1 X115.676 Y82.926 E1.42982
G1 X118.587 Y82.926 E1.51218
G1 X118.587 Y85.997 E1.59907
G1 X121.293 Y85.997 E1.67564
G1 X121.293 Y94.829 E1.92556
G1 X123.999 Y94.829 E2.00212
G1 X123.999 Y106.740 E2.33911
G1 X121.293 Y106.740 E2.41567
G1 X121.293 Y112.504 E2.57876
G1 X115.882 Y112.504 E2.73186
G1 X115.882 Y118.268 E2.89495
G1 X110.470 Y118.268 E3.04808
G1 X110.470 Y121.149 E3.12962
G1 X88.619 Y121.149 E3.74788
G1 X88.619 Y118.268 E3.82942
G1 X83.208 Y118.268 E3.98252
G1 X83.208 Y112.504 E4.14561
G1 X77.796 Y112.504 E4.29874
G1 X77.796 Y106.740 E4.46183
G1 X75.091 Y106.740 E4.53836
G1 X75.091 Y94.829 E4.87534
G1 X77.796 Y94.829 E4.95188
G1 X77.796 Y86.053 E5.20022
G1 X80.502 Y86.053 E5.27678
G1 X80.502 Y83.002 E5.36311
G1 X83.413 Y83.002 E5.44547
G1 X83.413 Y86.053 E5.53183
G1 X86.119 Y86.053 E5.60839
G1 X86.119 Y90.324 E5.72921
G1 X88.825 Y90.324 E5.80577
G1 X88.825 Y92.706 E5.87317
G1 X80.708 Y92.706 E6.10283
G1 X80.708 Y106.358 E6.48910
G1 X86.119 Y106.358 E6.64220
G1 X86.119 Y112.122 E6.80529
G1 X112.970 Y112.122 E7.56502
G1 X112.970 Y106.358 E7.72811
G1 X118.382 Y106.358 E7.88124
G1 X118.382 Y92.706 E8.26751
G1 X110.340 Y92.706 E8.49505
G1 F1800.000 E7.49505
G92 E0
G1 X118.837 Y83.759 F7800.000
G1 X121.837 Y80.759 F7800.000
G1 X107.269 Y74.287 F7800.000
G1 X105.309 Y77.287 F7800.000
G1 X105.059 Y88.523 F7800.000
G1 E1.00000 F1800.000
G1 X94.030 Y88.523 E1.31206 F1800
G1 X94.030 Y77.538 E1.62287
G1 X105.059 Y77.538 E1.93493
G1 X105.059 Y88.448 E2.24362
G1 F1800.000 E1.24362
G92 E0
G1 X104.853 Y100.594 F7800.000
G1 E1.00000 F1800.000
G1 X107.765 Y100.594 E1.08239 F1800
G1 X107.765 Y103.858 E1.17475
G1 X104.853 Y103.858 E1.25714
G1 X104.853 Y100.669 E1.34737
G1 X104.353 Y100.094 F7800.000
G1 X108.265 Y100.094 E1.45806 F1800
G1 X108.265 Y104.358 E1.57870
G1 X104.353 Y104.358 E1.68939
G1 X104.353 Y100.169 E1.80791
G1 X103.853 Y99.594 F7800.000
G1 X108.765 Y99.594 E1.94689 F1800
G1 X108.765 Y104.858 E2.09584
G1 X103.853 Y104.858 E2.23482
G1 X103.853 Y99.669 E2.38164
G1 F1800.000 E1.38164
G92 E0
G1 X94.236 Y100.594 F7800.000
G1 E1.00000 F1800.000
G1 X94.236 Y103.858 E1.09235 F1800
G1 X91.314 Y103.858 E1.17504
G1 X91.284 Y100.594 E1.26740
G1 X94.161 Y100.594 E1.34881
G1 X94.736 Y100.094 F7800.000
G1 X94.736 Y104.358 E1.46946 F1800
G1 X90.818 Y104.358 E1.58031
G1 X90.779 Y100.094 E1.70096
G1 X94.661 Y100.094 E1.81080
G1 X95.236 Y99.594 F7800.000
G1 X95.236 Y104.858 E1.95974 F1800
G1 X90.323 Y104.858 E2.09876
G1 X90.274 Y99.594 E2.24771
G1 X95.161 Y99.594 E2.38597
G1 F1800.000 E1.38597
G92 E0
G1 X82.708 Y113.004 F7800.000
G1 E1.00000 F1800.000
G1 X77.296 Y113.004 E1.15313 F1800
G1 X77.296 Y107.240 E1.31622
G1 X74.591 Y107.240 E1.39275
G1 X74.591 Y94.329 E1.75803
G1 X77.296 Y94.329 E1.83457
G1 X77.296 Y85.553 E2.08290
G1 X80.002 Y85.553 E2.15947
G1 X80.002 Y82.502 E2.24579
G1 X82.708 Y82.502 E2.32236
G1 X82.708 Y79.920 E2.39541
G1 X93.530 Y79.920 E2.70161
G1 X93.530 Y77.038 E2.78316
G1 X105.559 Y77.038 E3.12351
G1 X105.559 Y79.920 E3.20505
G1 X116.382 Y79.920 E3.51128
G1 X116.382 Y82.426 E3.58219
G1 X119.087 Y82.426 E3.65872
G1 X119.087 Y85.497 E3.74561
G1 X121.793 Y85.497 E3.82218
G1 X121.793 Y94.329 E4.07210
G1 X124.499 Y94.329 E4.14866
G1 X124.499 Y107.240 E4.51394
G1 X121.793 Y107.240 E4.59051
G1 X121.793 Y113.004 E4.75360
G1 X116.382 Y113.004 E4.90670
G1 X116.382 Y118.768 E5.06978
G1 X110.970 Y118.768 E5.22291
G1 X110.970 Y121.649 E5.30446
G1 X88.119 Y121.649 E5.95101
G1 X88.119 Y118.768 E6.03255
G1 X82.708 Y118.768 E6.18565
G1 X82.708 Y113.079 E6.34662
G1 X82.208 Y113.504 F7800.000
G1 X76.796 Y113.504 E6.49974 F1260
G1 X76.796 Y107.740 E6.66283
G1 X74.091 Y107.740 E6.73937
G1 X74.091 Y93.829 E7.13294
G1 X76.796 Y93.829 E7.20948
G1 X76.796 Y85.053 E7.45781
G1 X79.502 Y85.053 E7.53438
G1 X79.502 Y82.002 E7.62070
G1 X82.208 Y82.002 E7.69727
G1 X82.208 Y79.420 E7.77032
G1 X93.030 Y79.420 E8.07652
G1 X93.030 Y76.538 E8.15807
G1 X106.059 Y76.538 E8.52671
G1 X106.059 Y79.420 E8.60826
G1 X116.882 Y79.420 E8.91449
G1 X116.882 Y81.926 E8.98539
G1 X119.587 Y81.926 E9.06193
G1 X119.587 Y84.997 E9.14882
G1 X122.293 Y84.997 E9.22538
G1 X122.293 Y93.829 E9.47530
G1 X124.999 Y93.829 E9.55187
G1 X124.999 Y107.740 E9.94544
G1 X122.293 Y107.740 E10.02201
G1 X122.293 Y113.504 E10.18509
G1 X116.882 Y113.504 E10.33819
G1 X116.882 Y119.268 E10.50128
G1 X111.470 Y119.268 E10.65441
G1 X111.470 Y122.149 E10.73595
G1 X87.619 Y122.149 E11.41080
G1 X87.619 Y119.268 E11.49234
G1 X82.208 Y119.268 E11.64544
G1 X82.208 Y113.579 E11.80641
G1 X82.208 Y113.004 F7800.000
G1 X75.674 Y95.186 F7800.000
G1 X75.448 Y95.413 E11.81583 F3600
G1 X75.448 Y96.149 E11.83751
G1 X76.410 Y95.186 E11.87758
G1 X77.146 Y95.186 E11.89925
G1 X75.448 Y96.885 E11.96998
G1 X75.448 Y97.621 E11.99165
G1 X80.351 Y92.717 E12.19585
G1 X80.351 Y93.453 E12.21752
G1 X75.448 Y98.357 E12.42172
G1 X75.448 Y99.092 E12.44339
G1 X80.351 Y94.189 E12.64759
G1 X80.351 Y94.925 E12.66926
G1 X75.448 Y99.828 E12.87346
G1 X75.448 Y100.564 E12.89513
G1 X80.351 Y95.661 E13.09933
G1 X80.351 Y96.397 E13.12101
G1 X75.448 Y101.300 E13.32520
G1 X75.448 Y102.036 E13.34688
G1 X80.351 Y97.133 E13.55107
G1 X80.351 Y97.869 E13.57275
G1 X75.448 Y102.772 E13.77695
G1 X75.448 Y103.508 E13.79862
G1 X80.351 Y98.605 E14.00282
G1 X80.351 Y99.341 E14.02449
G1 X75.448 Y104.244 E14.22869
G1 X75.448 Y104.980 E14.25036
G1 X80.351 Y100.077 E14.45456
G1 X80.351 Y100.813 E14.47623
G1 X75.448 Y105.716 E14.68043
G1 X75.517 Y106.383 E14.70017
G1 X80.351 Y101.549 E14.90148
G1 X80.351 Y102.285 E14.92315
G1 X76.253 Y106.383 E15.09382
G1 X76.989 Y106.383 E15.11549
G1 X80.351 Y103.021 E15.25551
G1 X80.351 Y103.756 E15.27718
G1 X77.725 Y106.383 E15.38655
G1 X78.153 Y106.691 E15.40207
G1 X80.351 Y104.492 E15.49362
G1 X80.351 Y105.228 E15.51529
G1 X78.153 Y107.427 E15.60684
G1 X78.153 Y108.163 E15.62851
G1 X80.351 Y105.964 E15.72006
G1 X80.351 Y106.700 E15.74173
G1 X78.153 Y108.898 E15.83328
G1 X78.153 Y109.634 E15.85495
G1 X81.073 Y106.714 E15.97656
G1 X81.809 Y106.714 E15.99823
G1 X78.153 Y110.370 E16.15049
G1 X78.153 Y111.106 E16.17216
G1 X82.545 Y106.714 E16.35506
G1 X83.281 Y106.714 E16.37673
G1 X78.153 Y111.842 E16.59029
G1 X78.584 Y112.147 E16.60584
G1 X84.017 Y106.714 E16.83207
G1 X84.753 Y106.714 E16.85374
G1 X79.320 Y112.147 E17.07997
G1 X80.056 Y112.147 E17.10164
G1 X85.489 Y106.714 E17.32787
G1 X85.762 Y107.177 E17.34370
G1 X80.792 Y112.147 E17.55067
G1 X81.528 Y112.147 E17.57234
G1 X85.762 Y107.913 E17.74866
G1 X85.762 Y108.649 E17.77034
