; generated by Slic3r 1.0.0 on 2014-05-04 at 12:49:33

; layer_height = 0.4
; perimeters = 3
; top_solid_layers = 3
; bottom_solid_layers = 3
; fill_density = 0.4
; perimeter_speed = 30
; infill_speed = 60
; travel_speed = 130
; nozzle_diameter = 0.5
; filament_diameter = 3
; extrusion_multiplier = 1
; perimeters extrusion width = 0.50mm
; infill extrusion width = 0.53mm
; solid infill extrusion width = 0.53mm
; top infill extrusion width = 0.53mm
; first layer extrusion width = 1.00mm

G21 ; set units to millimeters
M107
M104 S205 ; set temperature
G28 ; home all axes
G1 Z5 F5000 ; lift nozzle
M109 S205 ; wait for temperature to be reached
G90 ; use absolute coordinates
G92 E0
M82 ; use absolute distances for extrusion
G1 F1800.000 E-1.00000
G92 E0
G1 Z0.500 F7800.000
G1 X66.758 Y69.721 F7800.000
G1 E1.00000 F1800.000
G1 X67.798 Y68.861 E1.08522 F540.000
G1 X68.988 Y68.221 E1.17054
G1 X70.288 Y67.831 E1.25624
G1 X71.628 Y67.701 E1.34125
G1 X128.368 Y67.701 E4.92413
G1 X129.708 Y67.831 E5.00914
G1 X131.008 Y68.221 E5.09485
G1 X132.198 Y68.861 E5.18017
G1 X133.238 Y69.721 E5.26538
G1 X134.098 Y70.761 E5.35060
G1 X134.738 Y71.951 E5.43592
G1 X135.128 Y73.251 E5.52163
G1 X135.258 Y74.591 E5.60664
G1 X135.258 Y125.401 E8.81506
G1 X135.128 Y126.742 E8.90008
G1 X134.738 Y128.041 E8.98578
G1 X134.098 Y129.231 E9.07110
G1 X133.238 Y130.272 E9.15632
G1 X132.198 Y131.131 E9.24153
G1 X131.008 Y131.772 E9.32685
G1 X129.708 Y132.161 E9.41256
G1 X128.368 Y132.291 E9.49757
G1 X71.628 Y132.291 E13.08045
G1 X70.288 Y132.161 E13.16546
G1 X68.988 Y131.772 E13.25116
G1 X67.798 Y131.131 E13.33648
G1 X66.758 Y130.272 E13.42170
G1 X65.898 Y129.231 E13.50692
G1 X65.258 Y128.041 E13.59224
G1 X64.868 Y126.742 E13.67794
G1 X64.738 Y125.401 E13.76295
G1 X64.738 Y74.591 E16.97138
G1 X64.868 Y73.251 E17.05639
G1 X65.258 Y71.951 E17.14210
G1 X65.898 Y70.761 E17.22742
G1 X66.673 Y69.825 E17.30418
G1 F1800.000 E16.30418
G92 E0
G1 X73.913 Y76.877 F7800.000
G1 E1.00000 F1800.000
G1 X126.087 Y76.877 E4.29451 F540.000
G1 X126.087 Y123.123 E7.21475
G1 X73.913 Y123.123 E10.50925
G1 X73.913 Y77.011 E13.42104
G1 X73.021 Y75.984 F7800.000
G1 X126.979 Y75.984 E16.82828 F540.000
G1 X126.979 Y124.016 E19.86126
G1 X73.021 Y124.016 E23.26851
G1 X73.021 Y76.118 E26.29304
G1 X72.128 Y75.091 F7800.000
G1 X127.872 Y75.091 E29.81302 F378.000
G1 X127.872 Y124.908 E32.95874
G1 X72.128 Y124.908 E36.47873
G1 X72.128 Y75.225 E39.61599
G1 X72.901 Y75.538 F7800.000
G1 X74.571 Y122.486 F7800.000
G1 X74.551 Y122.466 E39.61780 F1080.000
G1 X74.551 Y121.188 E39.69946
G1 X75.848 Y122.486 E39.81675
G1 X77.126 Y122.486 E39.89841
G1 X74.551 Y119.910 E40.13119
G1 X74.551 Y118.633 E40.21285
G1 X78.404 Y122.486 E40.56111
G1 X79.682 Y122.486 E40.64277
G1 X74.551 Y117.355 E41.10652
G1 X74.551 Y116.077 E41.18818
G1 X80.959 Y122.486 E41.76741
G1 X82.237 Y122.486 E41.84907
G1 X74.551 Y114.799 E42.54378
G1 X74.551 Y113.522 E42.62544
G1 X83.515 Y122.486 E43.43564
G1 X84.793 Y122.486 E43.51730
G1 X74.551 Y112.244 E44.44299
G1 X74.551 Y110.966 E44.52465
G1 X86.070 Y122.486 E45.56582
G1 X87.348 Y122.486 E45.64748
G1 X74.551 Y109.688 E46.80413
G1 X74.551 Y108.411 E46.88579
G1 X88.626 Y122.486 E48.15793
G1 X89.903 Y122.486 E48.23959
G1 X74.551 Y107.133 E49.62721
G1 X74.551 Y105.855 E49.70887
G1 X91.181 Y122.486 E51.21198
G1 X92.459 Y122.486 E51.29364
G1 X74.551 Y104.578 E52.91223
G1 X74.551 Y103.300 E52.99389
G1 X93.737 Y122.486 E54.72797
G1 X95.014 Y122.486 E54.80963
G1 X74.551 Y102.022 E56.65919
G1 X74.551 Y100.744 E56.74085
G1 X96.292 Y122.486 E58.70590
G1 X97.570 Y122.486 E58.78755
G1 X74.551 Y99.467 E60.86809
G1 X74.551 Y98.189 E60.94975
G1 X98.848 Y122.486 E63.14576
G1 X100.125 Y122.486 E63.22742
G1 X74.551 Y96.911 E65.53892
G1 X74.551 Y95.633 E65.62058
G1 X101.403 Y122.486 E68.04756
G1 X102.681 Y122.486 E68.12922
G1 X74.551 Y94.356 E70.67169
G1 X74.551 Y93.078 E70.75335
G1 X103.959 Y122.486 E73.41131
G1 X105.236 Y122.486 E73.49297
G1 X74.551 Y91.800 E76.26640
G1 X74.551 Y90.522 E76.34806
G1 X106.514 Y122.486 E79.23699
G1 X107.792 Y122.486 E79.31865
G1 X74.551 Y89.245 E82.32305
G1 X74.551 Y87.967 E82.40471
G1 X109.070 Y122.486 E85.52461
G1 X110.347 Y122.486 E85.60627
G1 X74.551 Y86.689 E88.84164
G1 X74.551 Y85.411 E88.92330
G1 X111.625 Y122.486 E92.27416
G1 X112.903 Y122.486 E92.35582
G1 X74.551 Y84.134 E95.82217
G1 X74.551 Y82.856 E95.90383
G1 X114.181 Y122.486 E99.48566
G1 X115.458 Y122.486 E99.56732
G1 X74.551 Y81.578 E103.26463
G1 X74.551 Y80.300 E103.34629
G1 X116.736 Y122.486 E107.15909
G1 X118.014 Y122.486 E107.24075
G1 X74.551 Y79.023 E111.16904
G1 X74.551 Y77.745 E111.25070
G1 X119.292 Y122.486 E115.29447
G1 X120.569 Y122.486 E115.37613
G1 X75.597 Y77.514 E119.44076
G1 X76.875 Y77.514 E119.52242
G1 X121.847 Y122.486 E123.58705
G1 X123.125 Y122.486 E123.66871
G1 X78.153 Y77.514 E127.73335
G1 X79.431 Y77.514 E127.81501
G1 X124.403 Y122.486 E131.87964
G1 X125.449 Y122.255 E131.94815
G1 X80.708 Y77.514 E135.99192
G1 X81.986 Y77.514 E136.07358
G1 X125.449 Y120.977 E140.00186
G1 X125.449 Y119.700 E140.08352
G1 X83.264 Y77.514 E143.89632
G1 X84.542 Y77.514 E143.97798
G1 X125.449 Y118.422 E147.67530
G1 X125.449 Y117.144 E147.75696
G1 X85.819 Y77.514 E151.33879
G1 X87.097 Y77.514 E151.42045
G1 X125.449 Y115.866 E154.88679
G1 X125.449 Y114.589 E154.96845
G1 X88.375 Y77.514 E158.31931
G1 X89.653 Y77.514 E158.40097
G1 X125.449 Y113.311 E161.63635
G1 X125.449 Y112.033 E161.71801
G1 X90.930 Y77.514 E164.83790
G1 X92.208 Y77.514 E164.91956
G1 X125.449 Y110.755 E167.92396
G1 X125.449 Y109.478 E168.00562
G1 X93.486 Y77.514 E170.89455
G1 X94.764 Y77.514 E170.97621
G1 X125.449 Y108.200 E173.74964
G1 X125.449 Y106.922 E173.83130
G1 X96.041 Y77.514 E176.48926
G1 X97.319 Y77.514 E176.57092
G1 X125.449 Y105.644 E179.11338
G1 X125.449 Y104.367 E179.19504
G1 X98.597 Y77.514 E181.62203
G1 X99.875 Y77.514 E181.70369
G1 X125.449 Y103.089 E184.01519
G1 X125.449 Y101.811 E184.09685
G1 X101.152 Y77.514 E186.29286
G1 X102.430 Y77.514 E186.37452
G1 X125.449 Y100.533 E188.45505
G1 X125.449 Y99.256 E188.53671
G1 X103.708 Y77.514 E190.50175
G1 X104.986 Y77.514 E190.58341
G1 X125.449 Y97.978 E192.43297
G1 X125.449 Y96.700 E192.51463
G1 X106.263 Y77.514 E194.24871
G1 X107.541 Y77.514 E194.33037
G1 X125.449 Y95.422 E195.94896
G1 X125.449 Y94.145 E196.03062
G1 X108.819 Y77.514 E197.53373
G1 X110.097 Y77.514 E197.61539
G1 X125.449 Y92.867 E199.00301
G1 X125.449 Y91.589 E199.08467
G1 X111.374 Y77.514 E200.35681
G1 X112.652 Y77.514 E200.43847
G1 X125.449 Y90.311 E201.59512
G1 X125.449 Y89.034 E201.67678
G1 X113.930 Y77.514 E202.71795
G1 X115.207 Y77.514 E202.79961
G1 X125.449 Y87.756 E203.72529
G1 X125.449 Y86.478 E203.80695
G1 X116.485 Y77.514 E204.61715
G1 X117.763 Y77.514 E204.69881
G1 X125.449 Y85.201 E205.39353
G1 X125.449 Y83.923 E205.47519
G1 X119.041 Y77.514 E206.05442
G1 X120.318 Y77.514 E206.13608
G1 X125.449 Y82.645 E206.59982
G1 X125.449 Y81.367 E206.68148
G1 X121.596 Y77.514 E207.02974
G1 X122.874 Y77.514 E207.11140
G1 X125.449 Y80.090 E207.34418
G1 X125.449 Y78.812 E207.42584
G1 X124.152 Y77.514 E207.54313
G1 X125.429 Y77.514 E207.62479
G1 X125.449 Y77.534 E207.62659
M104 S200 ; set temperature
G1 F1800.000 E206.62659
G92 E0
G1 Z0.900 F7800.000
G1 X127.122 Y75.841 F7800.000
G1 E1.00000 F1800.000
G1 X127.122 Y124.159 E2.36709 F1800
G1 X72.878 Y124.159 E3.90188
G1 X72.878 Y75.841 E5.26897
G1 X127.047 Y75.841 E6.80164
G1 X127.622 Y75.341 F7800.000
G1 X127.622 Y124.659 E8.19703 F1800
G1 X72.378 Y124.659 E9.76011
G1 X72.378 Y75.341 E11.15550
G1 X127.547 Y75.341 E12.71646
G1 X128.122 Y74.841 F7800.000
G1 X128.122 Y125.159 E14.14014 F1260
G1 X71.878 Y125.159 E15.73152
G1 X71.878 Y74.841 E17.15520
G1 X128.047 Y74.841 E18.74446
G1 X127.872 Y75.275 F7800.000
G1 X126.765 Y123.782 F7800.000
G1 X126.745 Y123.802 E18.74530 F3600
G1 X126.007 Y123.802 E18.76708
G1 X126.765 Y123.044 E18.79873
G1 X126.765 Y122.306 E18.82052
G1 X125.269 Y123.802 E18.88298
G1 X124.531 Y123.802 E18.90477
G1 X126.765 Y121.568 E18.99804
G1 X126.765 Y120.830 E19.01983
G1 X123.793 Y123.802 E19.14392
G1 X123.056 Y123.802 E19.16571
G1 X126.765 Y120.092 E19.32061
G1 X126.765 Y119.354 E19.34239
G1 X122.318 Y123.802 E19.52811
G1 X121.580 Y123.802 E19.54990
G1 X126.765 Y118.616 E19.76642
G1 X126.765 Y117.878 E19.78821
G1 X120.842 Y123.802 E20.03555
G1 X120.104 Y123.802 E20.05734
G1 X126.765 Y117.140 E20.33549
G1 X126.765 Y116.403 E20.35728
G1 X119.366 Y123.802 E20.66624
G1 X118.628 Y123.802 E20.68803
G1 X126.765 Y115.665 E21.02781
G1 X126.765 Y114.927 E21.04960
G1 X117.890 Y123.802 E21.42019
G1 X117.152 Y123.802 E21.44198
G1 X126.765 Y114.189 E21.84338
G1 X126.765 Y113.451 E21.86517
G1 X116.414 Y123.802 E22.29738
G1 X115.676 Y123.802 E22.31917
G1 X126.765 Y112.713 E22.78220
G1 X126.765 Y111.975 E22.80399
G1 X114.939 Y123.802 E23.29783
G1 X114.201 Y123.802 E23.31962
G1 X126.765 Y111.237 E23.84428
G1 X126.765 Y110.499 E23.86607
G1 X113.463 Y123.802 E24.42154
G1 X112.725 Y123.802 E24.44332
G1 X126.765 Y109.761 E25.02961
G1 X126.765 Y109.023 E25.05139
G1 X111.987 Y123.802 E25.66849
G1 X111.249 Y123.802 E25.69028
G1 X126.765 Y108.286 E26.33818
G1 X126.765 Y107.548 E26.35997
G1 X110.511 Y123.802 E27.03869
G1 X109.773 Y123.802 E27.06048
G1 X126.765 Y106.810 E27.77001
G1 X126.765 Y106.072 E27.79180
G1 X109.035 Y123.802 E28.53215
G1 X108.297 Y123.802 E28.55394
G1 X126.765 Y105.334 E29.32510
G1 X126.765 Y104.596 E29.34689
G1 X107.559 Y123.802 E30.14886
G1 X106.822 Y123.802 E30.17065
G1 X126.765 Y103.858 E31.00343
G1 X126.765 Y103.120 E31.02522
G1 X106.084 Y123.802 E31.88882
G1 X105.346 Y123.802 E31.91061
G1 X126.765 Y102.382 E32.80502
G1 X126.765 Y101.644 E32.82681
G1 X104.608 Y123.802 E33.75203
G1 X103.870 Y123.802 E33.77382
G1 X126.765 Y100.906 E34.72986
G1 X126.765 Y100.168 E34.75165
G1 X103.132 Y123.802 E35.73850
G1 X102.394 Y123.802 E35.76028
G1 X126.765 Y99.431 E36.77795
G1 X126.765 Y98.693 E36.79974
G1 X101.656 Y123.802 E37.84821
G1 X100.918 Y123.802 E37.87000
G1 X126.765 Y97.955 E38.94929
G1 X126.765 Y97.217 E38.97108
G1 X100.180 Y123.802 E40.08118
G1 X99.442 Y123.802 E40.10297
G1 X126.765 Y96.479 E41.24389
G1 X126.765 Y95.741 E41.26567
G1 X98.705 Y123.802 E42.43740
G1 X97.967 Y123.802 E42.45919
G1 X126.765 Y95.003 E43.66173
G1 X126.765 Y94.265 E43.68352
G1 X97.229 Y123.802 E44.91687
G1 X96.491 Y123.802 E44.93866
G1 X126.765 Y93.527 E46.20283
G1 X126.765 Y92.789 E46.22462
G1 X95.753 Y123.802 E47.51960
G1 X95.015 Y123.802 E47.54139
G1 X126.765 Y92.051 E48.86718
G1 X126.765 Y91.314 E48.88897
G1 X94.277 Y123.802 E50.24558
G1 X93.539 Y123.802 E50.26736
G1 X126.765 Y90.576 E51.65478
G1 X126.765 Y89.838 E51.67657
G1 X92.801 Y123.802 E53.09480
G1 X92.063 Y123.802 E53.11659
G1 X126.765 Y89.100 E54.56564
G1 X126.765 Y88.362 E54.58743
G1 X91.325 Y123.802 E56.06728
G1 X90.588 Y123.802 E56.08907
G1 X126.765 Y87.624 E57.59974
G1 X126.765 Y86.886 E57.62153
G1 X89.850 Y123.802 E59.16302
G1 X89.112 Y123.802 E59.18480
G1 X126.765 Y86.148 E60.75710
G1 X126.765 Y85.410 E60.77889
G1 X88.374 Y123.802 E62.38200
G1 X87.636 Y123.802 E62.40379
G1 X126.765 Y84.672 E64.03771
G1 X126.765 Y83.934 E64.05950
G1 X86.898 Y123.802 E65.72424
G1 X86.160 Y123.802 E65.74602
G1 X126.765 Y83.197 E67.44157
G1 X126.765 Y82.459 E67.46336
G1 X85.422 Y123.802 E69.18972
G1 X84.684 Y123.802 E69.21151
G1 X126.765 Y81.721 E70.96869
G1 X126.765 Y80.983 E70.99048
G1 X83.946 Y123.802 E72.77846
G1 X83.208 Y123.802 E72.80025
G1 X126.765 Y80.245 E74.61905
G1 X126.765 Y79.507 E74.64084
G1 X82.471 Y123.802 E76.49046
G1 X81.733 Y123.802 E76.51224
G1 X126.765 Y78.769 E78.39267
G1 X126.765 Y78.031 E78.41446
G1 X80.995 Y123.802 E80.32570
G1 X80.257 Y123.802 E80.34749
G1 X126.765 Y77.293 E82.28954
G1 X126.765 Y76.555 E82.31133
G1 X79.519 Y123.802 E84.28419
G1 X78.781 Y123.802 E84.30598
G1 X126.384 Y76.198 E86.29376
G1 X125.646 Y76.198 E86.31554
G1 X78.043 Y123.802 E88.30332
G1 X77.305 Y123.802 E88.32511
G1 X124.908 Y76.198 E90.31288
G1 X124.170 Y76.198 E90.33467
G1 X76.567 Y123.802 E92.32244
G1 X75.829 Y123.802 E92.34423
G1 X123.433 Y76.198 E94.33200
G1 X122.695 Y76.198 E94.35379
G1 X75.091 Y123.802 E96.34156
G1 X74.354 Y123.802 E96.36335
G1 X121.957 Y76.198 E98.35113
G1 X121.219 Y76.198 E98.37291
G1 X73.616 Y123.802 E100.36069
G1 X73.235 Y123.444 E100.37610
G1 X120.481 Y76.198 E102.34896
G1 X119.743 Y76.198 E102.37075
G1 X73.235 Y122.707 E104.31279
G1 X73.235 Y121.969 E104.33458
G1 X119.005 Y76.198 E106.24581
G1 X118.267 Y76.198 E106.26760
G1 X73.235 Y121.231 E108.14802
G1 X73.235 Y120.493 E108.16981
G1 X117.529 Y76.198 E110.01942
G1 X116.791 Y76.198 E110.04120
G1 X73.235 Y119.755 E111.86000
G1 X73.235 Y119.017 E111.88179
G1 X116.053 Y76.198 E113.66977
G1 X115.316 Y76.198 E113.69155
G1 X73.235 Y118.279 E115.44872
G1 X73.235 Y117.541 E115.47051
G1 X114.578 Y76.198 E117.19686
G1 X113.840 Y76.198 E117.21865
G1 X73.235 Y116.803 E118.91419
G1 X73.235 Y116.065 E118.93598
G1 X113.102 Y76.198 E120.60071
G1 X112.364 Y76.198 E120.62250
G1 X73.235 Y115.327 E122.25641
G1 X73.235 Y114.590 E122.27820
G1 X111.626 Y76.198 E123.88130
G1 X110.888 Y76.198 E123.90309
G1 X73.235 Y113.852 E125.47538
G1 X73.235 Y113.114 E125.49717
G1 X110.150 Y76.198 E127.03865
G1 X109.412 Y76.198 E127.06043
G1 X73.235 Y112.376 E128.57110
G1 X73.235 Y111.638 E128.59289
G1 X108.674 Y76.198 E130.07274
G1 X107.936 Y76.198 E130.09453
G1 X73.235 Y110.900 E131.54356
G1 X73.235 Y110.162 E131.56535
G1 X107.199 Y76.198 E132.98358
G1 X106.461 Y76.198 E133.00536
G1 X73.235 Y109.424 E134.39278
G1 X73.235 Y108.686 E134.41456
G1 X105.723 Y76.198 E135.77116
G1 X104.985 Y76.198 E135.79295
G1 X73.235 Y107.948 E137.11874
G1 X73.235 Y107.210 E137.14052
G1 X104.247 Y76.198 E138.43550
G1 X103.509 Y76.198 E138.45728
G1 X73.235 Y106.472 E139.72144
G1 X73.235 Y105.735 E139.74323
G1 X102.771 Y76.198 E140.97658
G1 X102.033 Y76.198 E140.99837
G1 X73.235 Y104.997 E142.20090
G1 X73.235 Y104.259 E142.22269
G1 X101.295 Y76.198 E143.39441
G1 X100.557 Y76.198 E143.41620
G1 X73.235 Y103.521 E144.55711
G1 X73.235 Y102.783 E144.57889
G1 X99.819 Y76.198 E145.68899
G1 X99.082 Y76.198 E145.71078
G1 X73.235 Y102.045 E146.79006
G1 X73.235 Y101.307 E146.81185
G1 X98.344 Y76.198 E147.86032
G1 X97.606 Y76.198 E147.88210
G1 X73.235 Y100.569 E148.89976
G1 X73.235 Y99.831 E148.92155
G1 X96.868 Y76.198 E149.90839
G1 X96.130 Y76.198 E149.93018
G1 X73.235 Y99.093 E150.88621
G1 X73.235 Y98.355 E150.90800
G1 X95.392 Y76.198 E151.83321
G1 X94.654 Y76.198 E151.85500
G1 X73.235 Y97.618 E152.74941
G1 X73.235 Y96.880 E152.77119
G1 X93.916 Y76.198 E153.63478
G1 X93.178 Y76.198 E153.65657
G1 X73.235 Y96.142 E154.48935
G1 X73.235 Y95.404 E154.51114
G1 X92.440 Y76.198 E155.31310
G1 X91.702 Y76.198 E155.33489
G1 X73.235 Y94.666 E156.10604
G1 X73.235 Y93.928 E156.12783
G1 X90.965 Y76.198 E156.86817
G1 X90.227 Y76.198 E156.88996
G1 X73.235 Y93.190 E157.59949
G1 X73.235 Y92.452 E157.62127
G1 X89.489 Y76.198 E158.29999
G1 X88.751 Y76.198 E158.32177
G1 X73.235 Y91.714 E158.96967
G1 X73.235 Y90.976 E158.99146
G1 X88.013 Y76.198 E159.60855
G1 X87.275 Y76.198 E159.63034
G1 X73.235 Y90.238 E160.21661
G1 X73.235 Y89.501 E160.23840
G1 X86.537 Y76.198 E160.79386
G1 X85.799 Y76.198 E160.81565
G1 X73.235 Y88.763 E161.34030
G1 X73.235 Y88.025 E161.36209
G1 X85.061 Y76.198 E161.85592
G1 X84.323 Y76.198 E161.87771
G1 X73.235 Y87.287 E162.34073
G1 X73.235 Y86.549 E162.36252
G1 X83.585 Y76.198 E162.79473
G1 X82.848 Y76.198 E162.81652
G1 X73.235 Y85.811 E163.21791
G1 X73.235 Y85.073 E163.23970
G1 X82.110 Y76.198 E163.61028
G1 X81.372 Y76.198 E163.63207
G1 X73.235 Y84.335 E163.97184
G1 X73.235 Y83.597 E163.99363
G1 X80.634 Y76.198 E164.30259
G1 X79.896 Y76.198 E164.32438
G1 X73.235 Y82.859 E164.60252
G1 X73.235 Y82.121 E164.62431
G1 X79.158 Y76.198 E164.87164
G1 X78.420 Y76.198 E164.89343
G1 X73.235 Y81.384 E165.10995
G1 X73.235 Y80.646 E165.13173
G1 X77.682 Y76.198 E165.31744
G1 X76.944 Y76.198 E165.33923
G1 X73.235 Y79.908 E165.49412
G1 X73.235 Y79.170 E165.51591
G1 X76.206 Y76.198 E165.63999
G1 X75.468 Y76.198 E165.66177
G1 X73.235 Y78.432 E165.75504
G1 X73.235 Y77.694 E165.77683
G1 X74.731 Y76.198 E165.83928
