; generated by Slic3r 1.0.1 on 2014-07-11 at 17:51:31

; layer_height = 0.4
; perimeters = 3
; top_solid_layers = 2
; bottom_solid_layers = 1
; fill_density = 0.2
; perimeter_speed = 60
; infill_speed = 50
; travel_speed = 140
; nozzle_diameter = 0.5
; filament_diameter = 3
; extrusion_multiplier = 1
; perimeters extrusion width = 0.50mm
; infill extrusion width = 0.53mm
; solid infill extrusion width = 0.53mm
; top infill extrusion width = 0.53mm
; first layer extrusion width = 1.00mm

G21 ; set units to millimeters
M107
M190 S66 ; wait for bed temperature to be reached
M104 S205 ; set temperature
G28 ; home all axes
G1 Z5 F5000 ; lift nozzle
M109 S205 ; wait for temperature to be reached
G90 ; use absolute coordinates
G92 E0
M82 ; use absolute distances for extrusion
G1 F1800.000 E-1.00000
G92 E0
G1 Z0.500 F8400.000
G1 X72.858 Y73.826 F8400.000
G1 E1.00000 F1800.000
G1 X74.157 Y72.546 E1.11520 F1080.000
G1 X74.808 Y72.056 E1.16660
G1 X75.677 Y71.496 E1.23194
G1 X76.627 Y71.066 E1.29778
G1 X77.547 Y70.736 E1.35950
G1 X78.287 Y70.516 E1.40825
G1 X79.088 Y70.326 E1.46017
G1 X79.828 Y70.196 E1.50762
G1 X80.578 Y70.146 E1.55508
G1 X81.257 Y70.136 E1.59802
G1 X117.037 Y70.376 E3.85742
G1 X117.987 Y70.446 E3.91757
G1 X118.808 Y70.566 E3.96990
G1 X119.657 Y70.746 E4.02477
G1 X122.058 Y71.416 E4.18211
G1 X123.107 Y71.806 E4.25284
G1 X124.067 Y72.346 E4.32239
G1 X124.718 Y72.786 E4.37196
G1 X125.657 Y73.546 E4.44829
G1 X126.447 Y74.456 E4.52438
G1 X127.047 Y75.286 E4.58905
G1 X127.398 Y75.836 E4.63022
G1 X127.968 Y76.806 E4.70126
G1 X128.338 Y77.526 E4.75238
G1 X128.618 Y78.286 E4.80352
G1 X128.898 Y79.206 E4.86425
G1 X129.157 Y80.476 E4.94611
G1 X129.178 Y81.766 E5.02757
G1 X126.648 Y113.586 E7.04321
G1 X126.417 Y114.896 E7.12719
G1 X125.938 Y116.136 E7.21115
G1 X125.227 Y117.256 E7.29489
G1 X124.308 Y118.226 E7.37931
G1 X112.938 Y128.156 E8.33254
G1 X111.578 Y129.086 E8.43658
G1 X110.037 Y129.666 E8.54049
G1 X108.407 Y129.856 E8.64411
G1 X90.787 Y129.856 E9.75674
G1 X89.487 Y129.736 E9.83918
G1 X88.237 Y129.366 E9.92149
G1 X87.067 Y128.766 E10.00452
G1 X86.037 Y127.966 E10.08687
G1 X75.578 Y118.036 E10.99761
G1 X74.528 Y116.756 E11.10215
G1 X73.797 Y115.256 E11.20749
G1 X73.457 Y113.626 E11.31263
G1 X70.817 Y82.956 E13.25647
G1 X70.797 Y82.316 E13.29690
G1 X70.808 Y80.836 E13.39036
G1 X70.847 Y80.146 E13.43400
G1 X71.047 Y78.296 E13.55150
G1 X71.218 Y77.326 E13.61369
G1 X71.528 Y76.396 E13.67559
G1 X71.938 Y75.406 E13.74325
G1 X72.790 Y73.942 E13.85025
G1 F1800.000 E12.85025
G92 E0
G1 X96.263 Y115.605 F8400.000
G1 E1.00000 F1800.000
G1 X97.811 Y115.041 E1.10401 F540.000
G1 X99.459 Y115.641 E1.21475
G1 X101.071 Y115.054 E1.32311
G1 X102.948 Y115.734 E1.44918
G1 X102.948 Y117.305 E1.54836
G1 X96.263 Y117.305 E1.97050
G1 X96.263 Y115.739 E2.06938
G1 X96.048 Y114.733 F8400.000
G1 X97.507 Y114.202 E2.16747 F540.000
G1 X97.635 Y114.027 E2.18112
G1 X99.459 Y114.691 E2.30368
G1 X101.290 Y114.024 E2.42678
G1 X101.448 Y114.241 E2.44372
G1 X102.913 Y114.772 E2.54208
G1 X103.841 Y114.434 E2.60445
G1 X103.841 Y116.945 E2.76300
G1 X107.024 Y116.945 E2.96400
G1 X107.024 Y118.197 E3.04309
G1 X92.184 Y118.197 E3.98015
G1 X92.184 Y116.945 E4.05924
G1 X95.370 Y116.945 E4.26043
G1 X95.370 Y114.487 E4.41565
G1 X95.922 Y114.687 E4.45271
G1 X96.048 Y113.783 F8400.000
G1 X96.947 Y113.456 E4.51313 F756.000
G1 X97.297 Y112.976 E4.55067
G1 X97.529 Y111.779 E4.62763
G1 X97.985 Y111.779 E4.65647
G1 X98.209 Y112.934 E4.73073
G1 X98.559 Y113.414 E4.76827
G1 X99.459 Y113.741 E4.82869
G1 X100.358 Y113.414 E4.88910
G1 X100.708 Y112.934 E4.92664
G1 X100.947 Y111.697 E5.00617
G1 X101.398 Y111.696 E5.03463
G1 X101.663 Y113.018 E5.11981
G1 X102.009 Y113.495 E5.15701
G1 X102.912 Y113.822 E5.21764
G1 X103.811 Y113.495 E5.27806
G1 X104.498 Y112.550 E5.35183
G1 X104.734 Y112.626 E5.36746
G1 X104.734 Y116.052 E5.58378
G1 X107.916 Y116.052 E5.78477
G1 X107.916 Y122.474 E6.19029
G1 X106.072 Y122.474 E6.30673
G1 X106.072 Y119.090 E6.52042
G1 X102.799 Y119.090 E6.72716
G1 X102.799 Y122.474 E6.94084
G1 X100.760 Y122.474 E7.06959
G1 X100.760 Y119.090 E7.28328
G1 X98.118 Y119.090 E7.45005
G1 X98.118 Y122.474 E7.66373
G1 X96.409 Y122.474 E7.77165
G1 X96.409 Y119.090 E7.98533
G1 X93.135 Y119.090 E8.19207
G1 X93.135 Y122.474 E8.40575
G1 X91.291 Y122.474 E8.52219
G1 X91.291 Y116.052 E8.92771
G1 X94.478 Y116.052 E9.12890
G1 X94.478 Y113.211 E9.30826
G1 X95.922 Y113.737 E9.40531
G1 X96.581 Y114.499 F8400.000
G1 F1800.000 E8.40531
G92 E0
G1 X96.263 Y107.798 F8400.000
G1 E1.00000 F1800.000
G1 X96.263 Y106.495 E1.08225 F540.000
G1 X97.867 Y105.914 E1.19001
G1 X99.584 Y106.535 E1.30527
G1 X101.272 Y105.921 E1.41875
G1 X102.948 Y106.528 E1.53130
G1 X102.948 Y107.798 E1.61150
G1 X96.397 Y107.798 E2.02518
G1 X97.214 Y108.690 F8400.000
G1 X97.214 Y108.732 E2.02783 F540.000
G1 X95.370 Y108.732 E2.14425
G1 X95.370 Y105.319 E2.35978
G1 X96.127 Y105.595 E2.41066
G1 X97.867 Y104.964 E2.52753
G1 X99.583 Y105.586 E2.64273
G1 X101.271 Y104.971 E2.75622
G1 X102.994 Y105.595 E2.87188
G1 X103.841 Y105.286 E2.92881
G1 X103.841 Y108.771 E3.14887
G1 X101.703 Y108.771 E3.28385
G1 X101.703 Y108.690 E3.28897
G1 X97.348 Y108.690 E3.56400
G1 X98.106 Y109.583 F8400.000
G1 X98.106 Y109.625 E3.56665 F540.000
G1 X94.478 Y109.625 E3.79580
G1 X94.478 Y103.685 E4.17092
G1 X94.711 Y103.608 E4.18645
G1 X95.229 Y104.318 E4.24193
G1 X96.128 Y104.645 E4.30231
G1 X97.032 Y104.317 E4.36303
G1 X97.379 Y103.836 E4.40050
G1 X97.627 Y102.554 E4.48294
G1 X98.077 Y102.553 E4.51140
G1 X98.332 Y103.828 E4.59354
G1 X98.678 Y104.308 E4.63090
G1 X99.582 Y104.636 E4.69162
G1 X100.482 Y104.308 E4.75214
G1 X100.828 Y103.828 E4.78947
G1 X101.063 Y102.652 E4.86523
G1 X101.514 Y102.653 E4.89369
G1 X101.742 Y103.836 E4.96977
G1 X102.089 Y104.317 E5.00723
G1 X102.993 Y104.645 E5.06795
G1 X103.892 Y104.318 E5.12833
G1 X104.500 Y103.485 E5.19345
G1 X104.734 Y103.561 E5.20898
G1 X104.734 Y109.664 E5.59434
G1 X100.811 Y109.664 E5.84206
G1 X100.811 Y109.583 E5.84717
G1 X98.240 Y109.583 E6.00946
G1 X98.064 Y109.583 F8400.000
G1 F1800.000 E5.00946
G92 E0
G1 X88.468 Y107.342 F8400.000
G1 E1.00000 F1800.000
G1 X83.492 Y107.342 E1.31419 F540.000
G1 X83.407 Y106.860 E1.34505
G1 X85.976 Y105.925 E1.51764
G1 X88.553 Y106.859 E1.69071
G1 X88.491 Y107.210 E1.71323
G1 X88.832 Y106.985 F8400.000
G1 X91.106 Y106.985 E1.85682 F540.000
G1 X91.106 Y108.234 E1.93572
G1 X81.726 Y108.234 E2.52800
G1 X81.726 Y106.985 E2.60691
G1 X83.085 Y106.985 E2.69271
G1 X83.089 Y105.166 E2.80757
G1 X84.274 Y105.595 E2.88713
G1 X85.975 Y104.975 E3.00144
G1 X87.685 Y105.595 E3.11628
G1 X88.832 Y105.177 E3.19337
G1 X88.832 Y106.851 E3.29906
G1 X89.724 Y106.092 F8400.000
G1 X91.999 Y106.092 E3.44265 F756.000
G1 X91.999 Y112.538 E3.84968
G1 X90.154 Y112.538 E3.96613
G1 X90.154 Y109.127 E4.18151
G1 X86.880 Y109.127 E4.38825
G1 X86.880 Y112.538 E4.60364
G1 X85.040 Y112.538 E4.71989
G1 X85.040 Y109.127 E4.93528
G1 X81.765 Y109.127 E5.14202
G1 X81.765 Y112.538 E5.35741
G1 X80.834 Y112.538 E5.41626
G1 X80.834 Y106.092 E5.82330
G1 X82.194 Y106.092 E5.90923
G1 X82.201 Y103.101 E6.09811
G1 X82.439 Y103.025 E6.11387
G1 X83.369 Y104.317 E6.21442
G1 X84.273 Y104.645 E6.27514
G1 X85.173 Y104.317 E6.33566
G1 X85.518 Y103.837 E6.37296
G1 X85.756 Y102.661 E6.44876
G1 X86.197 Y102.661 E6.47666
G1 X86.435 Y103.837 E6.55245
G1 X86.780 Y104.317 E6.58979
G1 X87.684 Y104.645 E6.65051
G1 X88.583 Y104.318 E6.71089
G1 X89.491 Y103.074 E6.80813
G1 X89.724 Y103.151 E6.82366
G1 X89.724 Y105.958 E7.00094
G1 X89.724 Y106.985 F8400.000
G1 F1800.000 E6.00094
G92 E0
G1 X96.652 Y97.366 F8400.000
G1 E1.00000 F1800.000
G1 X95.973 Y96.621 E1.06362 F1080.000
G1 X95.493 Y95.779 E1.12483
G1 X95.188 Y94.812 E1.18882
G1 X95.093 Y93.808 E1.25254
G1 X95.093 Y83.361 E1.91219
G1 X104.619 Y83.361 E2.51374
G1 X104.619 Y93.808 E3.17339
G1 X104.524 Y94.810 E3.23693
G1 X104.222 Y95.779 E3.30104
G1 X103.737 Y96.623 E3.36252
G1 X103.060 Y97.366 E3.42596
G1 X101.578 Y98.234 E3.53446
G1 X99.858 Y98.527 E3.64464
G1 X98.134 Y98.234 E3.75502
G1 X96.767 Y97.433 E3.85508
G1 X97.220 Y96.664 F8400.000
G1 X96.700 Y96.093 E3.90388 F540.000
G1 X96.316 Y95.419 E3.95282
G1 X96.068 Y94.634 E4.00483
G1 X95.985 Y93.766 E4.05991
G1 X95.985 Y84.254 E4.66052
G1 X103.727 Y84.254 E5.14933
G1 X103.727 Y93.766 E5.74995
G1 X103.644 Y94.633 E5.80496
G1 X103.399 Y95.419 E5.85698
G1 X103.012 Y96.094 E5.90608
G1 X102.492 Y96.664 E5.95482
G1 X101.267 Y97.382 E6.04444
G1 X99.858 Y97.621 E6.13474
G1 X98.445 Y97.382 E6.22523
G1 X97.336 Y96.732 E6.30640
G1 X96.486 Y96.904 F8400.000
G1 F1800.000 E5.30640
G92 E0
G1 X111.166 Y98.178 F8400.000
G1 E1.00000 F1800.000
G1 X113.306 Y97.399 E1.14381 F540.000
G1 X115.452 Y98.177 E1.28796
G1 X115.367 Y98.660 E1.31893
G1 X111.251 Y98.660 E1.57888
G1 X111.189 Y98.310 E1.60129
G1 X111.604 Y97.069 F8400.000
G1 X113.305 Y96.449 E1.71560 F540.000
G1 X115.015 Y97.069 E1.83044
G1 X116.120 Y96.666 E1.90470
G1 X116.120 Y99.636 E2.09224
G1 X113.847 Y99.636 E2.23575
G1 X113.847 Y99.552 E2.24105
G1 X110.376 Y99.552 E2.46023
G1 X110.376 Y96.624 E2.64514
G1 X111.478 Y97.023 E2.71912
G1 F1800.000 E1.71912
G92 E0
G1 X88.238 Y98.219 F8400.000
G1 E1.00000 F1800.000
G1 X88.153 Y98.702 E1.03097 F540.000
G1 X83.805 Y98.702 E1.30552
G1 X83.720 Y98.220 E1.33639
G1 X85.976 Y97.399 E1.48795
G1 X88.112 Y98.173 E1.63143
G1 X87.685 Y97.069 F8400.000
G1 X88.832 Y96.651 E1.70851 F540.000
G1 X88.832 Y99.594 E1.89437
G1 X83.103 Y99.594 E2.25615
G1 X83.110 Y96.647 E2.44226
G1 X84.274 Y97.069 E2.52044
G1 X85.975 Y96.449 E2.63476
G1 X87.559 Y97.023 E2.74114
G1 X90.821 Y94.721 F8400.000
G1 X90.821 Y90.173 E3.02833 F1080.000
G1 X83.980 Y90.173 E3.46033
G1 X83.950 Y83.846 E3.85983
G1 X81.793 Y82.970 E4.00680
G1 X80.691 Y82.925 E4.07645
G1 X80.110 Y83.072 E4.11434
G1 X79.974 Y82.204 E4.16982
G1 X79.984 Y81.025 E4.24426
G1 X80.145 Y79.565 E4.33704
G1 X80.545 Y79.421 E4.36385
G1 X80.954 Y79.321 E4.39048
G1 X81.088 Y79.318 E4.39890
G1 X81.803 Y79.506 E4.44561
G1 X82.762 Y79.985 E4.51331
G1 X84.180 Y80.612 E4.61117
G1 X85.342 Y80.785 E4.68538
G1 X86.475 Y80.639 E4.75750
G1 X87.867 Y80.088 E4.85205
G1 X88.766 Y79.657 E4.91499
G1 X89.263 Y79.542 E4.94723
G1 X89.899 Y79.590 E4.98752
G1 X90.739 Y79.796 E5.04210
G1 X93.566 Y80.681 E5.22917
G1 X94.615 Y80.803 E5.29587
G1 X95.720 Y80.697 E5.36596
G1 X97.490 Y80.239 E5.48138
G1 X99.000 Y79.751 E5.58160
G1 X99.958 Y79.532 E5.64368
G1 X100.254 Y79.605 E5.66288
G1 X101.418 Y80.061 E5.74185
G1 X102.946 Y80.581 E5.84376
G1 X104.127 Y80.702 E5.91871
G1 X105.195 Y80.496 E5.98738
G1 X107.225 Y79.761 E6.12372
G1 X107.699 Y79.657 E6.15436
G1 X108.164 Y79.637 E6.18377
G1 X108.512 Y79.686 E6.20597
G1 X108.969 Y79.826 E6.23617
G1 X111.858 Y81.112 E6.43581
G1 X112.879 Y81.406 E6.50292
G1 X114.117 Y81.450 E6.58116
G1 X115.293 Y81.022 E6.66018
G1 X116.065 Y80.431 E6.72155
G1 X116.941 Y79.576 E6.79887
G1 X117.333 Y79.634 E6.82391
G1 X119.246 Y80.164 E6.94924
G1 X119.548 Y80.583 E6.98185
G1 X119.981 Y81.319 E7.03579
G1 X119.906 Y81.778 E7.06513
G1 X119.497 Y82.666 E7.12691
G1 X118.657 Y83.096 E7.18648
G1 X115.207 Y83.841 E7.40934
G1 X115.227 Y90.173 E7.80916
G1 X108.462 Y90.173 E8.23634
G1 X108.462 Y94.721 E8.52352
G1 X105.429 Y94.721 E8.71502
G1 X105.512 Y93.850 E8.77025
G1 X105.512 Y82.469 E9.48893
G1 X94.200 Y82.469 E10.20322
G1 X94.200 Y93.850 E10.92190
G1 X94.283 Y94.721 E10.97712
G1 X94.223 Y94.721 E10.98090
G1 X94.670 Y96.138 E11.07477
G1 X95.159 Y96.995 E11.13701
G1 X93.647 Y96.995 E11.23246
G1 X93.647 Y94.721 E11.37606
G1 X90.955 Y94.721 E11.54605
G1 X89.928 Y94.864 F8400.000
G1 X89.928 Y91.065 E11.78595 F1080.000
G1 X83.091 Y91.065 E12.21769
G1 X83.060 Y84.448 E12.63555
G1 X81.602 Y83.855 E12.73494
G1 X80.785 Y83.822 E12.78657
G1 X79.511 Y84.145 E12.86955
G1 X79.255 Y83.387 E12.92004
G1 X79.081 Y82.270 E12.99144
G1 X79.092 Y80.972 E13.07336
G1 X79.266 Y79.393 E13.17370
G1 X79.455 Y78.934 E13.20504
G1 X79.630 Y78.802 E13.21890
G1 X80.287 Y78.565 E13.26296
G1 X80.837 Y78.430 E13.29877
G1 X81.194 Y78.423 E13.32130
G1 X82.120 Y78.666 E13.38174
G1 X83.142 Y79.177 E13.45394
G1 X84.430 Y79.747 E13.54286
G1 X85.351 Y79.884 E13.60163
G1 X86.250 Y79.768 E13.65885
G1 X87.509 Y79.269 E13.74441
G1 X88.468 Y78.810 E13.81156
G1 X89.195 Y78.641 E13.85863
G1 X90.040 Y78.706 E13.91220
G1 X90.979 Y78.935 E13.97319
G1 X93.752 Y79.804 E14.15674
G1 X94.624 Y79.905 E14.21214
G1 X95.564 Y79.815 E14.27180
G1 X97.240 Y79.381 E14.38112
G1 X98.763 Y78.889 E14.48216
G1 X99.848 Y78.642 E14.55245
G1 X100.126 Y78.654 E14.56999
G1 X100.524 Y78.752 E14.59590
G1 X101.725 Y79.222 E14.67732
G1 X103.137 Y79.703 E14.77155
G1 X104.087 Y79.800 E14.83180
G1 X104.957 Y79.633 E14.88774
G1 X106.977 Y78.901 E15.02340
G1 X107.583 Y78.769 E15.06259
G1 X108.208 Y78.741 E15.10207
G1 X108.707 Y78.812 E15.13391
G1 X109.281 Y78.988 E15.17181
G1 X112.166 Y80.272 E15.37122
G1 X113.020 Y80.518 E15.42736
G1 X113.975 Y80.551 E15.48770
G1 X114.859 Y80.230 E15.54711
G1 X115.480 Y79.755 E15.59644
G1 X116.246 Y79.006 E15.66411
G1 X116.507 Y78.808 E15.68480
G1 X116.715 Y78.713 E15.69925
G1 X116.977 Y78.678 E15.71595
G1 X117.519 Y78.760 E15.75054
G1 X119.624 Y79.342 E15.88847
G1 X119.878 Y79.514 E15.90780
G1 X120.296 Y80.095 E15.95300
G1 X120.751 Y80.867 E16.00957
G1 X120.886 Y81.318 E16.03932
G1 X120.768 Y82.041 E16.08561
G1 X120.178 Y83.320 E16.17451
G1 X118.960 Y83.944 E16.26095
G1 X116.103 Y84.561 E16.44551
G1 X116.120 Y91.065 E16.85624
G1 X109.355 Y91.065 E17.28342
G1 X109.355 Y94.870 E17.52366
G1 X109.503 Y95.613 E17.57153
G1 X106.454 Y95.613 E17.76411
G1 X106.454 Y97.887 E17.90770
G1 X103.841 Y97.887 E18.07270
G1 X103.841 Y99.594 E18.18049
G1 X95.370 Y99.594 E18.71537
G1 X95.370 Y97.887 E18.82316
G1 X92.754 Y97.887 E18.98835
G1 X92.754 Y95.613 E19.13194
G1 X89.784 Y95.613 E19.31947
G1 X89.903 Y94.996 E19.35916
G1 X89.035 Y94.780 F8400.000
G1 X89.035 Y91.958 E19.53733 F756.000
G1 X82.203 Y91.958 E19.96880
G1 X82.170 Y85.050 E20.40502
G1 X81.410 Y84.741 E20.45682
G1 X80.878 Y84.719 E20.49043
G1 X79.401 Y85.077 E20.58642
G1 X79.185 Y85.056 E20.60008
G1 X79.004 Y84.972 E20.61269
G1 X78.702 Y84.541 E20.64591
G1 X78.385 Y83.600 E20.70865
G1 X78.188 Y82.335 E20.78946
G1 X78.199 Y80.920 E20.87886
G1 X78.393 Y79.170 E20.99001
G1 X78.722 Y78.369 E21.04471
G1 X79.200 Y78.008 E21.08255
G1 X80.028 Y77.709 E21.13812
G1 X80.720 Y77.540 E21.18311
G1 X81.300 Y77.527 E21.21974
G1 X82.436 Y77.826 E21.29392
G1 X83.523 Y78.370 E21.37061
G1 X84.681 Y78.882 E21.45060
G1 X85.360 Y78.983 E21.49392
G1 X86.025 Y78.897 E21.53625
G1 X87.152 Y78.450 E21.61281
G1 X88.171 Y77.963 E21.68417
G1 X89.126 Y77.740 E21.74608
G1 X90.181 Y77.821 E21.81293
G1 X91.218 Y78.075 E21.88032
G1 X93.939 Y78.927 E22.06036
G1 X94.633 Y79.008 E22.10445
G1 X95.409 Y78.933 E22.15368
G1 X96.991 Y78.523 E22.25690
G1 X98.526 Y78.028 E22.35876
G1 X99.768 Y77.745 E22.43917
G1 X100.254 Y77.766 E22.46990
G1 X100.795 Y77.900 E22.50509
G1 X102.032 Y78.384 E22.58895
G1 X103.329 Y78.826 E22.67550
G1 X104.047 Y78.899 E22.72106
G1 X104.719 Y78.770 E22.76427
G1 X106.728 Y78.041 E22.89924
G1 X107.467 Y77.881 E22.94699
G1 X108.251 Y77.846 E22.99653
G1 X108.901 Y77.938 E23.03801
G1 X109.592 Y78.150 E23.08362
G1 X112.474 Y79.432 E23.28279
G1 X113.161 Y79.630 E23.32796
G1 X113.833 Y79.653 E23.37040
G1 X114.426 Y79.438 E23.41021
G1 X114.894 Y79.079 E23.44749
G1 X115.662 Y78.329 E23.51524
G1 X116.046 Y78.037 E23.54571
G1 X116.467 Y77.845 E23.57492
G1 X116.986 Y77.777 E23.60798
G1 X117.705 Y77.885 E23.65392
G1 X120.003 Y78.521 E23.80448
G1 X120.510 Y78.863 E23.84308
G1 X121.044 Y79.607 E23.90089
G1 X121.575 Y80.507 E23.96687
G1 X121.800 Y81.259 E24.01647
G1 X121.629 Y82.305 E24.08341
G1 X120.860 Y83.974 E24.19943
G1 X119.263 Y84.792 E24.31274
G1 X116.999 Y85.281 E24.45900
G1 X117.012 Y91.958 E24.88063
G1 X110.248 Y91.958 E25.30781
G1 X110.248 Y94.782 E25.48610
G1 X110.353 Y95.311 E25.52021
G1 X110.699 Y95.791 E25.55757
G1 X111.603 Y96.119 E25.61829
G1 X112.503 Y95.791 E25.67880
G1 X112.849 Y95.311 E25.71613
G1 X113.084 Y94.133 E25.79197
G1 X113.529 Y94.133 E25.82005
G1 X113.764 Y95.311 E25.89589
G1 X114.110 Y95.791 E25.93325
