; generated by Slic3r 1.0.1 on 2014-07-11 at 19:16:51

; layer_height = 0.4
; perimeters = 3
; top_solid_layers = 2
; bottom_solid_layers = 1
; fill_density = 0.2
; perimeter_speed = 60
; infill_speed = 50
; travel_speed = 140
; nozzle_diameter = 0.5
; filament_diameter = 3
; extrusion_multiplier = 1
; perimeters extrusion width = 0.50mm
; infill extrusion width = 0.53mm
; solid infill extrusion width = 0.53mm
; top infill extrusion width = 0.53mm
; first layer extrusion width = 1.00mm

G21 ; set units to millimeters
M107
M190 S66 ; wait for bed temperature to be reached
M104 S205 ; set temperature
G28 ; home all axes
G1 Z5 F5000 ; lift nozzle
M109 S205 ; wait for temperature to be reached
G90 ; use absolute coordinates
G92 E0
M82 ; use absolute distances for extrusion
G1 F1800.000 E-1.00000
G92 E0
G1 Z0.500 F8400.000
G1 X32.729 Y31.687 F8400.000
G1 E1.00000 F1800.000
G1 X34.049 Y30.377 E1.11743 F1080.000
G1 X34.809 Y29.807 E1.17742
G1 X35.679 Y29.247 E1.24275
G1 X36.609 Y28.837 E1.30693
G1 X37.689 Y28.447 E1.37944
G1 X38.439 Y28.217 E1.42898
G1 X39.369 Y27.997 E1.48932
G1 X40.119 Y27.867 E1.53739
G1 X40.869 Y27.817 E1.58485
G1 X41.799 Y27.807 E1.64358
G1 X83.409 Y28.087 E4.27113
G1 X156.409 Y29.087 E8.88118
G1 X157.399 Y29.167 E8.94390
G1 X158.349 Y29.317 E9.00463
G1 X159.089 Y29.477 E9.05244
G1 X161.899 Y30.247 E9.23642
G1 X162.949 Y30.627 E9.30693
G1 X163.919 Y31.177 E9.37734
G1 X164.679 Y31.687 E9.43514
G1 X165.639 Y32.467 E9.51325
G1 X166.449 Y33.397 E9.59112
G1 X167.149 Y34.377 E9.66717
G1 X167.469 Y34.867 E9.70412
G1 X168.139 Y35.997 E9.78708
G1 X168.519 Y36.747 E9.84017
G1 X168.809 Y37.547 E9.89390
G1 X169.129 Y38.617 E9.96443
G1 X169.349 Y39.587 E10.02723
G1 X169.419 Y40.587 E10.09053
G1 X169.419 Y116.587 E14.88959
G1 X169.399 Y117.137 E14.92435
G1 X166.449 Y154.257 E17.27570
G1 X166.219 Y155.567 E17.35969
G1 X165.739 Y156.807 E17.44365
G1 X165.029 Y157.927 E17.52738
G1 X164.119 Y158.897 E17.61137
G1 X150.859 Y170.487 E18.72344
G1 X149.499 Y171.417 E18.82748
G1 X147.949 Y171.997 E18.93198
G1 X146.319 Y172.187 E19.03561
G1 X52.749 Y172.187 E24.94413
G1 X51.449 Y172.067 E25.02657
G1 X50.189 Y171.697 E25.10950
G1 X49.029 Y171.097 E25.19196
G1 X47.999 Y170.297 E25.27432
G1 X35.799 Y158.707 E26.33690
G1 X34.739 Y157.427 E26.44185
G1 X34.019 Y155.927 E26.54691
G1 X33.679 Y154.297 E26.65205
G1 X30.599 Y118.517 E28.91976
G1 X30.579 Y117.927 E28.95703
G1 X30.589 Y39.157 E33.93101
G1 X30.629 Y38.437 E33.97654
G1 X30.869 Y36.287 E34.11315
G1 X31.039 Y35.357 E34.17285
G1 X31.329 Y34.457 E34.23256
G1 X31.799 Y33.297 E34.31159
G1 X32.662 Y31.803 E34.42054
G1 F1800.000 E33.42054
G92 E0
G1 X75.539 Y139.102 F8400.000
G1 E1.00000 F1800.000
G1 X78.530 Y139.102 E1.18890 F540.000
G1 X78.530 Y142.305 E1.39112
G1 X78.412 Y142.897 E1.42925
G1 X78.035 Y143.422 E1.47004
G1 X77.037 Y143.785 E1.53711
G1 X76.035 Y143.422 E1.60441
G1 X75.657 Y142.897 E1.64523
G1 X75.539 Y142.305 E1.68336
G1 X75.539 Y139.236 E1.87713
G1 X75.539 Y138.210 F8400.000
G1 X79.518 Y139.201 F8400.000
G1 X82.510 Y139.201 E2.06603 F540.000
G1 X82.510 Y142.403 E2.26828
G1 X82.391 Y142.992 E2.30619
G1 X82.014 Y143.516 E2.34699
G1 X81.012 Y143.879 E2.41429
G1 X80.014 Y143.516 E2.48135
G1 X79.637 Y142.992 E2.52212
G1 X79.518 Y142.403 E2.56003
G1 X79.518 Y139.334 E2.75383
G1 X79.518 Y138.308 F8400.000
G1 X81.016 Y133.883 F8400.000
G1 X80.014 Y133.520 E2.82113 F540.000
G1 X79.637 Y132.996 E2.86195
G1 X79.518 Y132.403 E2.90008
G1 X79.518 Y129.201 E3.10230
G1 X82.510 Y129.201 E3.29120
G1 X82.510 Y132.404 E3.49343
G1 X82.391 Y132.996 E3.53155
G1 X82.014 Y133.520 E3.57235
G1 X81.142 Y133.838 E3.63096
G1 X80.484 Y134.600 F8400.000
G1 X78.412 Y132.996 F8400.000
G1 X78.035 Y133.520 E3.67175 F540.000
G1 X77.037 Y133.883 E3.73881
G1 X76.035 Y133.520 E3.80612
G1 X75.657 Y132.996 E3.84694
G1 X75.539 Y132.404 E3.88507
G1 X75.539 Y129.201 E4.08729
G1 X78.530 Y129.201 E4.27619
G1 X78.530 Y132.404 E4.47841
G1 X78.438 Y132.864 E4.50809
G1 X78.758 Y133.541 F8400.000
G1 F1800.000 E3.50809
G92 E0
G1 X68.550 Y132.399 F8400.000
G1 E1.00000 F1800.000
G1 X68.212 Y133.482 E1.07165 F1080.000
G1 X67.671 Y134.422 E1.14015
G1 X66.923 Y135.244 E1.21035
G1 X65.260 Y136.218 E1.33202
G1 X63.334 Y136.546 E1.45539
G1 X61.404 Y136.218 E1.57900
G1 X59.741 Y135.244 E1.70069
G1 X58.991 Y134.420 E1.77106
G1 X58.456 Y133.482 E1.83928
G1 X58.115 Y132.401 E1.91082
G1 X58.007 Y131.265 E1.98291
G1 X58.007 Y119.320 E2.73715
G1 X68.657 Y119.320 E3.40965
G1 X68.657 Y131.265 E4.16389
G1 X68.562 Y132.265 E4.22735
G1 X67.670 Y132.222 F8400.000
G1 X67.389 Y133.122 E4.28690 F756.000
G1 X66.946 Y133.893 E4.34304
G1 X66.354 Y134.542 E4.39852
G1 X64.950 Y135.366 E4.50132
G1 X63.334 Y135.640 E4.60481
G1 X61.714 Y135.366 E4.70853
G1 X60.310 Y134.542 E4.81133
G1 X59.717 Y133.892 E4.86688
G1 X59.278 Y133.122 E4.92284
G1 X58.994 Y132.223 E4.98240
G1 X58.900 Y131.223 E5.04585
G1 X58.900 Y120.213 E5.74105
G1 X67.764 Y120.213 E6.30081
G1 X67.764 Y131.223 E6.99602
G1 X67.682 Y132.089 E7.05095
G1 X68.319 Y132.835 F8400.000
G1 F1800.000 E6.05095
G92 E0
G1 X50.625 Y132.402 F8400.000
G1 E1.00000 F1800.000
G1 X50.511 Y132.996 E1.03821 F540.000
G1 X50.127 Y133.521 E1.07926
G1 X49.131 Y133.883 E1.14620
G1 X48.129 Y133.520 E1.21350
G1 X47.750 Y132.994 E1.25445
G1 X47.637 Y132.402 E1.29254
G1 X47.637 Y129.201 E1.49464
G1 X50.625 Y129.201 E1.68332
G1 X50.625 Y132.268 E1.87696
G1 X51.106 Y132.768 F8400.000
G1 F1800.000 E0.87696
G92 E0
G1 X46.645 Y132.402 F8400.000
G1 E1.00000 F1800.000
G1 X46.531 Y132.996 E1.03821 F540.000
G1 X46.148 Y133.521 E1.07926
G1 X45.152 Y133.883 E1.14620
G1 X44.150 Y133.520 E1.21350
G1 X43.771 Y132.994 E1.25445
G1 X43.657 Y132.402 E1.29254
G1 X43.657 Y129.201 E1.49464
G1 X46.645 Y129.201 E1.68332
G1 X46.645 Y132.268 E1.87696
G1 X47.127 Y132.768 F8400.000
G1 X46.645 Y139.151 F8400.000
G1 X46.645 Y142.354 E2.07921 F540.000
G1 X46.527 Y142.943 E2.11712
G1 X46.150 Y143.467 E2.15789
G1 X45.152 Y143.830 E2.22496
G1 X44.150 Y143.467 E2.29226
G1 X43.772 Y142.943 E2.33305
G1 X43.654 Y142.354 E2.37096
G1 X43.654 Y139.151 E2.57321
G1 X46.511 Y139.151 E2.75366
G1 X47.538 Y139.151 F8400.000
G1 X47.633 Y139.151 F8400.000
G1 X50.625 Y139.151 E2.94256 F540.000
G1 X50.625 Y142.352 E3.14468
G1 X50.510 Y142.943 E3.18268
G1 X50.127 Y143.468 E3.22370
G1 X49.131 Y143.830 E3.29064
G1 X48.129 Y143.467 E3.35794
G1 X47.752 Y142.943 E3.39873
G1 X47.633 Y142.354 E3.43665
G1 X47.633 Y139.285 E3.63044
G1 X47.633 Y138.259 F8400.000
G1 F1800.000 E2.63044
G92 E0
G1 X61.514 Y139.137 F8400.000
G1 E1.00000 F1800.000
G1 X64.506 Y139.137 E1.18890 F540.000
G1 X64.506 Y142.340 E1.39112
G1 X64.387 Y142.932 E1.42925
G1 X64.010 Y143.457 E1.47005
G1 X63.012 Y143.820 E1.53711
G1 X62.010 Y143.457 E1.60441
G1 X61.633 Y142.932 E1.64523
G1 X61.514 Y142.340 E1.68336
G1 X61.514 Y139.271 E1.87713
G1 X61.514 Y138.245 F8400.000
G1 X61.374 Y149.763 F8400.000
G1 X64.362 Y149.763 E2.06581 F540.000
G1 X64.362 Y152.964 E2.26794
G1 X64.248 Y153.555 E2.30593
G1 X63.865 Y154.080 E2.34695
G1 X62.868 Y154.443 E2.41392
G1 X61.872 Y154.080 E2.48089
G1 X61.489 Y153.555 E2.52191
G1 X61.374 Y152.964 E2.55990
G1 X61.374 Y149.897 E2.75357
G1 X61.374 Y148.871 F8400.000
G1 X60.946 Y155.643 F8400.000
G1 X62.868 Y156.343 E2.88277 F540.000
G1 X64.749 Y155.658 E3.00917
G1 X67.320 Y156.589 E3.18185
G1 X67.320 Y159.070 E3.33848
G1 X58.759 Y159.070 E3.87908
G1 X58.759 Y156.439 E4.04520
G1 X60.820 Y155.689 E4.18368
G1 X60.446 Y154.875 F8400.000
G1 X60.896 Y154.258 E4.23191 F1080.000
G1 X61.311 Y154.826 E4.27630
G1 X62.868 Y155.393 E4.38095
G1 X64.425 Y154.826 E4.48559
G1 X64.847 Y154.249 E4.53070
G1 X65.335 Y154.921 E4.58315
G1 X66.898 Y155.487 E4.68810
G1 X68.213 Y155.008 E4.77647
G1 X68.213 Y158.037 E4.96773
G1 X71.927 Y158.037 E5.20222
G1 X71.927 Y159.962 E5.32382
G1 X54.149 Y159.962 E6.44636
G1 X54.149 Y158.037 E6.56795
G1 X57.866 Y158.037 E6.80267
G1 X57.866 Y155.069 E6.99004
G1 X58.889 Y155.442 E7.05874
G1 X60.320 Y154.920 E7.15493
G1 F1800.000 E6.15493
G92 E0
G1 X58.759 Y147.978 F8400.000
G1 E1.00000 F1800.000
G1 X58.759 Y145.810 E1.13688 F540.000
G1 X61.012 Y144.994 E1.28818
G1 X63.014 Y145.719 E1.42263
G1 X64.984 Y145.002 E1.55502
G1 X67.320 Y145.848 E1.71194
G1 X67.320 Y148.073 E1.85238
G1 X66.148 Y148.073 E1.92643
G1 X66.148 Y147.978 E1.93240
G1 X58.893 Y147.978 E2.39050
G1 X57.866 Y148.920 F8400.000
G1 X57.866 Y144.374 E2.67754 F540.000
G1 X58.982 Y144.780 E2.75251
G1 X60.549 Y144.213 E2.85772
G1 X61.001 Y143.583 E2.90669
G1 X61.446 Y144.202 E2.95484
G1 X63.013 Y144.770 E3.06005
G1 X64.574 Y144.201 E3.16497
G1 X64.996 Y143.615 E3.21058
G1 X65.426 Y144.213 E3.25709
G1 X66.992 Y144.780 E3.36230
G1 X68.213 Y144.336 E3.44432
G1 X68.213 Y148.965 E3.73666
G1 X65.255 Y148.965 E3.92345
G1 X65.255 Y148.871 E3.92941
G1 X60.482 Y148.871 E4.23083
G1 X60.482 Y148.920 E4.23393
G1 X58.000 Y148.920 E4.39060
G1 F1800.000 E3.39060
G92 E0
G1 X49.810 Y147.446 F8400.000
G1 E1.00000 F1800.000
G1 X44.424 Y147.446 E1.34007 F540.000
G1 X44.429 Y145.468 E1.46500
G1 X45.153 Y145.730 E1.51364
G1 X47.138 Y145.007 E1.64701
G1 X49.133 Y145.730 E1.78099
G1 X49.810 Y145.483 E1.82648
G1 X49.810 Y147.312 E1.94196
G1 X50.703 Y146.417 F8400.000
G1 X53.356 Y146.417 E2.10949 F540.000
G1 X53.356 Y148.339 E2.23086
G1 X41.948 Y148.339 E2.95117
G1 X41.948 Y146.417 E3.07254
G1 X43.534 Y146.417 E3.17267
G1 X43.539 Y144.196 E3.31290
G1 X45.152 Y144.780 E3.42124
G1 X46.714 Y144.212 E3.52616
G1 X47.139 Y143.620 E3.57218
G1 X47.565 Y144.213 E3.61828
G1 X49.132 Y144.780 E3.72349
G1 X50.703 Y144.208 E3.82903
G1 X50.703 Y146.283 E3.96002
G1 F1800.000 E2.96002
G92 E0
G1 X49.810 Y137.366 F8400.000
G1 E1.00000 F1800.000
G1 X44.448 Y137.366 E1.33855 F540.000
G1 X44.453 Y135.529 E1.45454
G1 X45.153 Y135.783 E1.50159
G1 X47.138 Y135.060 E1.63495
G1 X49.133 Y135.783 E1.76893
G1 X49.810 Y135.536 E1.81443
G1 X49.810 Y137.232 E1.92151
G1 X50.703 Y138.259 F8400.000
G1 X43.554 Y138.259 E2.37294 F540.000
G1 X43.563 Y134.257 E2.62561
G1 X45.152 Y134.833 E2.73235
G1 X46.708 Y134.267 E2.83691
G1 X47.141 Y133.675 E2.88318
G1 X47.565 Y134.266 E2.92914
G1 X49.132 Y134.833 E3.03434
G1 X50.703 Y134.261 E3.13989
G1 X50.703 Y138.125 E3.38385
G1 F1800.000 E2.38385
G92 E0
G1 X65.626 Y137.038 F8400.000
G1 E1.00000 F1800.000
G1 X67.320 Y136.046 E1.12399 F540.000
G1 X67.320 Y137.366 E1.20737
G1 X65.711 Y137.352 E1.30897
G1 X65.661 Y137.168 E1.32103
G1 X61.038 Y137.038 F8400.000
G1 X60.953 Y137.352 E1.34155 F540.000
G1 X58.759 Y137.366 E1.48006
G1 X58.759 Y135.703 E1.58508
G1 X60.922 Y136.971 E1.74339
G1 X58.507 Y135.375 F8400.000
G1 X55.707 Y135.375 E1.92020 F1080.000
G1 X55.707 Y132.722 E2.08772
G1 X52.410 Y132.722 E2.29591
G1 X52.410 Y127.416 E2.63096
G1 X44.430 Y127.416 E3.13485
G1 X44.395 Y119.911 E3.60876
G1 X40.719 Y118.416 E3.85933
G1 X40.719 Y119.424 E3.92297
G1 X40.022 Y119.478 E3.96708
G1 X39.756 Y117.766 E4.07649
G1 X39.767 Y116.340 E4.16653
G1 X39.957 Y114.623 E4.27560
G1 X40.069 Y114.350 E4.29424
G1 X40.692 Y114.126 E4.33605
G1 X41.230 Y113.994 E4.37104
G1 X41.481 Y113.989 E4.38688
G1 X42.405 Y114.232 E4.44723
G1 X43.551 Y114.805 E4.52813
G1 X45.150 Y115.511 E4.63849
G1 X46.403 Y115.698 E4.71848
G1 X47.624 Y115.540 E4.79626
G1 X49.192 Y114.920 E4.90273
G1 X50.267 Y114.405 E4.97796
G1 X50.944 Y114.248 E5.02191
G1 X51.776 Y114.311 E5.07458
G1 X52.798 Y114.561 E5.14099
G1 X56.073 Y115.587 E5.35773
G1 X57.221 Y115.721 E5.43073
G1 X58.440 Y115.603 E5.50805
G1 X60.465 Y115.079 E5.64010
G1 X62.232 Y114.508 E5.75738
G1 X63.383 Y114.246 E5.83191
G1 X63.552 Y114.254 E5.84260
G1 X63.911 Y114.342 E5.86597
G1 X65.285 Y114.880 E5.95914
G1 X67.019 Y115.470 E6.07476
G1 X68.297 Y115.601 E6.15593
G1 X69.459 Y115.377 E6.23061
G1 X71.823 Y114.521 E6.38939
G1 X72.432 Y114.388 E6.42878
G1 X73.043 Y114.361 E6.46739
G1 X73.514 Y114.428 E6.49740
G1 X74.097 Y114.606 E6.53592
G1 X77.465 Y116.106 E6.76874
G1 X78.586 Y116.428 E6.84235
G1 X79.909 Y116.475 E6.92599
G1 X81.157 Y116.021 E7.00981
G1 X81.993 Y115.381 E7.07627
G1 X82.887 Y114.508 E7.15517
G1 X83.192 Y114.275 E7.17942
G1 X83.801 Y114.367 E7.21833
G1 X86.184 Y115.027 E7.37447
G1 X86.625 Y115.639 E7.42208
G1 X87.100 Y116.444 E7.48112
G1 X87.191 Y116.748 E7.50114
G1 X87.092 Y117.353 E7.53987
G1 X86.537 Y118.556 E7.62352
G1 X85.396 Y119.141 E7.70447
G1 X81.624 Y119.955 E7.94814
G1 X81.646 Y127.416 E8.41925
G1 X73.753 Y127.416 E8.91763
G1 X73.753 Y132.722 E9.25268
G1 X70.369 Y132.722 E9.46639
G1 X70.369 Y135.375 E9.63392
G1 X68.154 Y135.375 E9.77381
G1 X69.035 Y133.842 E9.88548
G1 X69.430 Y132.575 E9.96922
G1 X69.550 Y131.307 E10.04967
G1 X69.550 Y118.428 E10.86295
G1 X57.114 Y118.428 E11.64818
G1 X57.114 Y131.307 E12.46146
G1 X57.235 Y132.580 E12.54219
G1 X57.633 Y133.841 E12.62572
G1 X58.441 Y135.258 E12.72871
G1 X57.866 Y136.267 F8400.000
G1 X54.814 Y136.267 E12.92143 F1080.000
G1 X54.814 Y133.614 E13.08896
G1 X51.301 Y133.614 E13.31082
G1 X51.517 Y132.486 E13.38333
G1 X51.517 Y128.308 E13.64717
G1 X43.542 Y128.308 E14.15079
G1 X43.505 Y120.512 E14.64307
G1 X41.612 Y119.743 E14.77213
G1 X41.612 Y119.880 E14.78077
G1 X41.106 Y119.859 E14.81269
G1 X39.440 Y120.266 E14.92102
G1 X39.071 Y119.173 E14.99381
G1 X38.862 Y117.832 E15.07955
G1 X38.875 Y116.287 E15.17707
G1 X39.083 Y114.400 E15.29695
G1 X39.340 Y113.776 E15.33958
G1 X39.623 Y113.562 E15.36199
G1 X40.434 Y113.270 E15.41639
G1 X41.113 Y113.104 E15.46055
G1 X41.587 Y113.094 E15.49049
G1 X42.722 Y113.392 E15.56459
G1 X43.931 Y113.997 E15.64998
G1 X45.401 Y114.646 E15.75140
G1 X46.411 Y114.797 E15.81595
G1 X47.399 Y114.669 E15.87884
G1 X48.834 Y114.101 E15.97631
G1 X49.969 Y113.558 E16.05575
G1 X50.876 Y113.347 E16.11453
G1 X51.917 Y113.427 E16.18048
G1 X53.037 Y113.701 E16.25330
G1 X56.260 Y114.710 E16.46652
G1 X57.230 Y114.823 E16.52822
G1 X58.285 Y114.721 E16.59511
G1 X60.216 Y114.221 E16.72106
G1 X61.995 Y113.647 E16.83916
G1 X63.302 Y113.349 E16.92380
G1 X63.680 Y113.366 E16.94769
G1 X64.182 Y113.489 E16.98033
G1 X65.592 Y114.041 E17.07595
G1 X67.210 Y114.592 E17.18389
G1 X68.258 Y114.699 E17.25037
G1 X69.221 Y114.514 E17.31231
G1 X71.575 Y113.661 E17.47041
G1 X72.317 Y113.500 E17.51836
G1 X73.087 Y113.465 E17.56703
G1 X73.708 Y113.554 E17.60668
G1 X74.408 Y113.768 E17.65290
G1 X77.774 Y115.265 E17.88548
G1 X78.727 Y115.540 E17.94813
G1 X79.767 Y115.576 E18.01387
G1 X80.723 Y115.229 E18.07809
G1 X81.407 Y114.705 E18.13251
G1 X82.302 Y113.831 E18.21148
G1 X82.638 Y113.575 E18.23816
G1 X82.937 Y113.439 E18.25885
G1 X83.309 Y113.390 E18.28259
G1 X83.987 Y113.492 E18.32590
G1 X86.494 Y114.186 E18.49010
G1 X86.855 Y114.430 E18.51766
G1 X87.373 Y115.150 E18.57367
G1 X87.924 Y116.084 E18.64212
G1 X88.105 Y116.689 E18.68199
G1 X87.953 Y117.617 E18.74136
G1 X87.218 Y119.210 E18.85213
G1 X85.699 Y119.989 E18.95996
G1 X82.520 Y120.675 E19.16532
G1 X82.539 Y128.308 E19.64734
G1 X74.646 Y128.308 E20.14572
G1 X74.646 Y132.492 E20.40990
G1 X74.871 Y133.614 E20.48217
G1 X71.262 Y133.614 E20.71006
G1 X71.262 Y136.267 E20.87759
G1 X68.213 Y136.267 E21.07009
G1 X68.213 Y138.259 E21.19584
G1 X65.398 Y138.259 E21.37357
G1 X65.398 Y138.245 E21.37446
G1 X57.866 Y138.259 E21.85007
G1 X57.866 Y136.401 E21.96737
G1 F1800.000 E20.96737
G92 E0
G1 X76.266 Y135.503 F8400.000
G1 E1.00000 F1800.000
G1 X77.038 Y135.783 E1.05186 F540.000
G1 X79.023 Y135.060 E1.18523
G1 X81.018 Y135.783 E1.31921
G1 X81.646 Y135.554 E1.36141
G1 X81.646 Y137.415 E1.47892
G1 X80.316 Y137.415 E1.56291
G1 X80.316 Y137.317 E1.56910
G1 X76.266 Y137.317 E1.82481
G1 X76.266 Y135.637 E1.93089
G1 X77.037 Y134.833 F8400.000
G1 X78.599 Y134.265 E2.03581 F540.000
G1 X79.024 Y133.673 E2.08183
G1 X79.450 Y134.266 E2.12793
G1 X81.017 Y134.833 E2.23314
G1 X82.539 Y134.279 E2.33539
G1 X82.539 Y138.308 E2.58978
G1 X79.423 Y138.308 E2.78651
G1 X79.423 Y138.210 E2.79270
G1 X75.373 Y138.210 E3.04841
G1 X75.373 Y134.230 E3.29969
G1 X76.912 Y134.788 E3.40299
G1 F1800.000 E2.40299
G92 E0
G1 X78.894 Y145.009 F8400.000
G1 E1.00000 F1800.000
G1 X81.010 Y145.779 E1.14218 F540.000
G1 X81.646 Y145.549 E1.18487
G1 X81.646 Y147.446 E1.30468
G1 X76.266 Y147.446 E1.64439
G1 X76.266 Y145.405 E1.77329
G1 X77.038 Y145.684 E1.82515
