; generated by Slic3r 1.0.1 on 2014-07-11 at 17:50:07

; layer_height = 0.4
; perimeters = 3
; top_solid_layers = 2
; bottom_solid_layers = 1
; fill_density = 0.2
; perimeter_speed = 60
; infill_speed = 50
; travel_speed = 140
; nozzle_diameter = 0.5
; filament_diameter = 3
; extrusion_multiplier = 1
; perimeters extrusion width = 0.50mm
; infill extrusion width = 0.53mm
; solid infill extrusion width = 0.53mm
; top infill extrusion width = 0.53mm
; first layer extrusion width = 1.00mm

G21 ; set units to millimeters
M107
M190 S66 ; wait for bed temperature to be reached
M104 S205 ; set temperature
G28 ; home all axes
G1 Z5 F5000 ; lift nozzle
M109 S205 ; wait for temperature to be reached
G90 ; use absolute coordinates
G92 E0
M82 ; use absolute distances for extrusion
G1 F1800.000 E-1.00000
G92 E0
G1 Z0.500 F8400.000
G1 X81.335 Y79.894 F8400.000
G1 E1.00000 F1800.000
G1 X81.765 Y79.564 E1.03423 F1080.000
G1 X82.675 Y78.974 E1.10271
G1 X83.665 Y78.534 E1.17112
G1 X84.285 Y78.314 E1.21266
G1 X84.975 Y78.114 E1.25803
G1 X85.515 Y77.984 E1.29310
G1 X86.315 Y77.844 E1.34438
G1 X87.125 Y77.794 E1.39563
G1 X87.615 Y77.794 E1.42657
G1 X111.375 Y77.954 E2.92694
G1 X112.335 Y78.024 E2.98772
G1 X112.875 Y78.104 E3.02219
G1 X113.725 Y78.284 E3.07706
G1 X115.335 Y78.734 E3.18262
G1 X116.365 Y79.114 E3.25194
G1 X117.325 Y79.664 E3.32181
G1 X117.755 Y79.954 E3.35456
G1 X118.695 Y80.704 E3.43049
G1 X119.475 Y81.614 E3.50617
G1 X119.875 Y82.164 E3.54912
G1 X120.255 Y82.734 E3.59238
G1 X120.635 Y83.384 E3.63992
G1 X120.995 Y84.084 E3.68963
G1 X121.265 Y84.814 E3.73877
G1 X121.455 Y85.424 E3.77912
G1 X121.725 Y86.704 E3.86172
G1 X121.745 Y88.024 E3.94508
G1 X120.055 Y109.234 E5.28865
G1 X119.825 Y110.544 E5.37263
G1 X119.345 Y111.784 E5.45659
G1 X118.635 Y112.904 E5.54033
G1 X117.725 Y113.874 E5.62432
G1 X110.145 Y120.504 E6.26022
G1 X108.785 Y121.434 E6.36426
G1 X107.245 Y122.014 E6.46817
G1 X105.605 Y122.204 E6.57242
G1 X93.855 Y122.204 E7.31438
G1 X92.555 Y122.084 E7.39682
G1 X91.295 Y121.714 E7.47974
G1 X90.135 Y121.114 E7.56221
G1 X89.105 Y120.304 E7.64495
G1 X82.135 Y113.674 E8.25239
G1 X81.075 Y112.394 E8.35733
G1 X80.355 Y110.904 E8.46183
G1 X80.015 Y109.274 E8.56697
G1 X78.255 Y88.834 E9.86244
G1 X78.235 Y88.244 E9.89972
G1 X78.235 Y87.254 E9.96223
G1 X78.275 Y86.474 E10.01155
G1 X78.415 Y85.244 E10.08972
G1 X78.585 Y84.314 E10.14942
G1 X78.885 Y83.414 E10.20932
G1 X79.155 Y82.754 E10.25435
G1 X80.055 Y81.184 E10.36863
G1 X81.241 Y79.989 E10.47492
G1 F1800.000 E9.47492
G92 E0
G1 X97.378 Y110.312 F8400.000
G1 E1.00000 F1800.000
G1 X98.540 Y109.888 E1.07814 F540.000
G1 X99.639 Y110.288 E1.15196
G1 X100.714 Y109.897 E1.22420
G1 X102.096 Y110.398 E1.31704
G1 X102.096 Y111.667 E1.39722
G1 X97.378 Y111.667 E1.69518
G1 X97.378 Y110.445 E1.77234
G1 X96.485 Y110.868 F8400.000
G1 X96.485 Y109.046 E1.88741 F756.000
G1 X97.365 Y109.366 E1.94654
G1 X98.069 Y109.110 E1.99385
G1 X98.512 Y108.503 E2.04130
G1 X98.935 Y109.082 E2.08656
G1 X99.639 Y109.338 E2.13388
G1 X100.343 Y109.082 E2.18119
G1 X100.770 Y108.497 E2.22691
G1 X101.235 Y109.136 E2.27679
G1 X101.941 Y109.392 E2.32426
G1 X102.989 Y109.011 E2.39465
G1 X102.989 Y110.868 E2.51194
G1 X105.111 Y110.868 E2.64594
G1 X105.111 Y114.816 E2.89524
G1 X104.215 Y114.816 E2.95182
G1 X104.215 Y112.560 E3.09427
G1 X101.699 Y112.560 E3.25315
G1 X101.699 Y114.816 E3.39560
G1 X100.673 Y114.816 E3.46039
G1 X100.673 Y112.560 E3.60285
G1 X95.257 Y112.560 E3.94484
G1 X95.257 Y114.816 E4.08730
G1 X94.361 Y114.816 E4.14388
G1 X94.361 Y110.868 E4.39318
G1 X96.351 Y110.868 E4.51884
G1 X97.378 Y110.868 F8400.000
G1 F1800.000 E3.51884
G92 E0
G1 X97.378 Y105.329 F8400.000
G1 E1.00000 F1800.000
G1 X97.378 Y104.238 E1.06890 F540.000
G1 X98.578 Y103.803 E1.14953
G1 X99.722 Y104.218 E1.22636
G1 X100.848 Y103.808 E1.30201
G1 X102.096 Y104.260 E1.38585
G1 X102.096 Y105.329 E1.45337
G1 X97.512 Y105.329 E1.74288
G1 X96.485 Y106.250 F8400.000
G1 X96.485 Y102.934 E1.95226 F540.000
G1 X97.419 Y103.274 E2.01500
G1 X98.127 Y103.017 E2.06256
G1 X98.572 Y102.398 E2.11074
G1 X99.013 Y103.011 E2.15846
G1 X99.721 Y103.268 E2.20601
G1 X100.427 Y103.011 E2.25342
G1 X100.855 Y102.416 E2.29971
G1 X101.287 Y103.017 E2.34648
G1 X101.995 Y103.274 E2.39404
G1 X102.989 Y102.912 E2.46081
G1 X102.989 Y106.276 E2.67322
G1 X100.707 Y106.276 E2.81732
G1 X100.707 Y106.222 E2.82073
G1 X98.571 Y106.222 E2.95560
G1 X98.571 Y106.250 E2.95737
G1 X96.619 Y106.250 E3.08064
G1 X96.931 Y105.477 F8400.000
G1 F1800.000 E2.08064
G92 E0
G1 X92.670 Y104.542 F8400.000
G1 E1.00000 F1800.000
G1 X92.585 Y105.025 E1.03097 F540.000
G1 X88.722 Y105.025 E1.27491
G1 X88.637 Y104.544 E1.30578
G1 X90.650 Y103.811 E1.44109
G1 X92.544 Y104.497 E1.56826
G1 X92.983 Y104.228 F8400.000
G1 X94.499 Y104.228 E1.66399 F540.000
G1 X94.499 Y108.192 E1.91430
G1 X93.603 Y108.192 E1.97087
G1 X93.603 Y105.918 E2.11447
G1 X91.087 Y105.918 E2.27334
G1 X91.087 Y108.192 E2.41693
G1 X90.193 Y108.192 E2.47339
G1 X90.193 Y105.918 E2.61698
G1 X87.389 Y105.918 E2.79404
G1 X87.389 Y104.228 E2.90076
G1 X88.296 Y104.228 E2.95802
G1 X88.299 Y102.833 E3.04608
G1 X89.515 Y103.274 E3.12777
G1 X90.221 Y103.017 E3.17518
G1 X90.651 Y102.419 E3.22170
G1 X91.081 Y103.017 E3.26824
G1 X91.789 Y103.274 E3.31580
G1 X92.983 Y102.839 E3.39601
G1 X92.983 Y104.094 E3.47524
G1 X92.983 Y105.121 F8400.000
G1 F1800.000 E2.47524
G92 E0
G1 X98.041 Y97.907 F8400.000
G1 E1.00000 F1800.000
G1 X97.664 Y97.494 E1.03530 F540.000
G1 X97.390 Y97.013 E1.07022
G1 X97.214 Y96.456 E1.10713
G1 X97.157 Y95.852 E1.14546
G1 X97.157 Y89.336 E1.55689
G1 X102.651 Y89.336 E1.90381
G1 X102.651 Y95.852 E2.31525
G1 X102.594 Y96.455 E2.35352
G1 X102.420 Y97.013 E2.39045
G1 X102.143 Y97.495 E2.42549
G1 X101.767 Y97.907 E2.46073
G1 X100.903 Y98.414 E2.52400
G1 X99.905 Y98.583 E2.58791
G1 X98.905 Y98.414 E2.65196
G1 X98.156 Y97.975 E2.70678
G1 X97.509 Y98.081 F8400.000
G1 F1800.000 E1.70678
G92 E0
G1 X92.460 Y98.782 F8400.000
G1 E1.00000 F1800.000
G1 X92.375 Y99.265 E1.03097 F540.000
G1 X88.930 Y99.265 E1.24848
G1 X88.845 Y98.784 E1.27934
G1 X90.650 Y98.127 E1.40063
G1 X92.334 Y98.737 E1.51370
G1 F1800.000 E0.51370
G92 E0
G1 X104.436 Y92.687 F8400.000
G1 E1.00000 F1800.000
G1 X104.436 Y87.455 E1.33035 F540.000
G1 X105.028 Y87.241 E1.37009
G1 X105.231 Y87.196 E1.38322
G1 X105.509 Y87.203 E1.40073
G1 X105.714 Y87.266 E1.41429
G1 X107.642 Y88.125 E1.54759
G1 X108.465 Y88.362 E1.60168
G1 X109.373 Y88.394 E1.65901
G1 X109.391 Y92.687 E1.93008
G1 X104.570 Y92.687 E2.23449
G1 F1800.000 E1.23449
G92 E0
G1 X95.372 Y92.687 F8400.000
G1 E1.00000 F1800.000
G1 X90.078 Y92.687 E1.33427 F540.000
G1 X90.059 Y88.717 E1.58493
G1 X89.299 Y88.408 E1.63677
G1 X89.342 Y88.073 E1.65810
G1 X91.175 Y87.836 E1.77480
G1 X92.216 Y87.424 E1.84552
G1 X92.764 Y87.161 E1.88389
G1 X92.901 Y87.130 E1.89273
G1 X93.146 Y87.148 E1.90825
G1 X93.621 Y87.265 E1.93917
G1 X95.372 Y87.813 E2.05498
G1 X95.372 Y92.553 E2.35428
G1 X93.750 Y93.579 F8400.000
G1 X89.189 Y93.579 E2.64224 F1080.000
G1 X89.169 Y89.319 E2.91126
G1 X87.834 Y88.776 E3.00227
G1 X87.141 Y88.748 E3.04606
G1 X86.633 Y88.877 E3.07919
G1 X86.519 Y88.146 E3.12592
G1 X86.525 Y87.342 E3.17665
G1 X86.642 Y86.281 E3.24407
G1 X86.992 Y86.155 E3.26754
G1 X87.286 Y86.083 E3.28664
G1 X87.407 Y86.081 E3.29432
G1 X87.915 Y86.214 E3.32747
G1 X88.564 Y86.538 E3.37326
G1 X89.490 Y86.948 E3.43720
G1 X90.229 Y87.058 E3.48441
G1 X90.950 Y86.965 E3.53030
G1 X91.859 Y86.605 E3.59201
G1 X92.467 Y86.314 E3.63459
G1 X92.832 Y86.229 E3.65826
G1 X93.287 Y86.264 E3.68707
G1 X93.861 Y86.404 E3.72439
G1 X95.738 Y86.992 E3.84859
G1 X96.411 Y87.070 E3.89140
G1 X97.124 Y87.002 E3.93660
G1 X98.290 Y86.700 E4.01265
G1 X99.299 Y86.374 E4.07958
G1 X99.973 Y86.220 E4.12329
G1 X100.209 Y86.278 E4.13860
G1 X100.990 Y86.584 E4.19160
G1 X101.992 Y86.925 E4.25842
G1 X102.745 Y87.002 E4.30623
G1 X103.428 Y86.871 E4.35014
G1 X104.780 Y86.381 E4.44094
G1 X105.116 Y86.308 E4.46262
G1 X105.449 Y86.293 E4.48370
G1 X105.703 Y86.329 E4.49991
G1 X106.025 Y86.428 E4.52118
G1 X107.950 Y87.285 E4.65424
G1 X108.607 Y87.474 E4.69737
G1 X109.391 Y87.501 E4.74690
G1 X110.132 Y87.232 E4.79671
G1 X110.624 Y86.855 E4.83585
G1 X111.249 Y86.245 E4.89101
G1 X111.583 Y86.295 E4.91232
G1 X112.910 Y86.662 E4.99928
G1 X113.141 Y86.984 E5.02431
G1 X113.458 Y87.520 E5.06364
G1 X113.397 Y87.890 E5.08731
G1 X113.098 Y88.540 E5.13248
G1 X112.483 Y88.855 E5.17613
G1 X110.269 Y89.333 E5.31909
G1 X110.282 Y93.579 E5.58723
G1 X105.772 Y93.579 E5.87202
G1 X105.772 Y96.611 E6.06348
G1 X103.476 Y96.611 E6.20849
G1 X103.544 Y95.894 E6.25400
G1 X103.544 Y88.443 E6.72447
G1 X96.264 Y88.443 E7.18413
G1 X96.264 Y95.894 E7.65459
G1 X96.327 Y96.611 E7.70008
G1 X96.568 Y97.373 E7.75050
G1 X96.998 Y98.127 E7.80534
G1 X95.634 Y98.127 E7.89146
G1 X95.634 Y96.611 E7.98719
G1 X93.750 Y96.611 E8.10616
G1 X93.750 Y93.713 E8.28916
G1 F1800.000 E7.28916
G92 E0
G1 X107.142 Y98.756 F8400.000
G1 E1.00000 F1800.000
G1 X108.870 Y98.127 E1.11612 F540.000
G1 X110.603 Y98.754 E1.23246
G1 X110.518 Y99.237 E1.26343
G1 X107.227 Y99.237 E1.47121
G1 X107.166 Y98.888 E1.49361
G1 X106.489 Y100.130 F8400.000
G1 X106.489 Y97.504 E1.65943 F756.000
G1 X104.731 Y97.504 E1.77044
G1 X104.731 Y99.020 E1.86617
G1 X102.989 Y99.020 E1.97617
G1 X102.989 Y100.158 E2.04803
G1 X96.485 Y100.158 E2.45873
G1 X96.485 Y99.020 E2.53059
G1 X94.741 Y99.020 E2.64072
G1 X94.741 Y97.504 E2.73644
G1 X92.983 Y97.504 E2.84745
G1 X92.983 Y100.158 E3.01504
G1 X88.306 Y100.158 E3.31041
G1 X88.313 Y97.154 E3.50008
G1 X89.515 Y97.590 E3.58086
G1 X90.219 Y97.334 E3.62814
G1 X90.654 Y96.739 E3.67467
G1 X91.081 Y97.333 E3.72093
G1 X91.789 Y97.590 E3.76849
G1 X92.720 Y97.251 E3.83099
G1 X92.857 Y96.536 E3.87701
G1 X92.857 Y94.472 E4.00732
G1 X88.301 Y94.472 E4.29501
G1 X88.279 Y89.921 E4.58240
G1 X87.642 Y89.662 E4.62582
G1 X87.235 Y89.645 E4.65159
G1 X86.056 Y89.928 E4.72810
G1 X85.752 Y89.027 E4.78817
G1 X85.625 Y88.211 E4.84029
G1 X85.633 Y87.290 E4.89849
G1 X85.758 Y86.155 E4.97058
G1 X85.951 Y85.685 E5.00268
G1 X86.214 Y85.487 E5.02343
G1 X86.734 Y85.299 E5.05833
G1 X87.169 Y85.193 E5.08661
G1 X87.514 Y85.185 E5.10839
G1 X88.232 Y85.374 E5.15529
G1 X88.944 Y85.731 E5.20557
G1 X89.741 Y86.083 E5.26057
G1 X90.238 Y86.157 E5.29233
G1 X90.725 Y86.094 E5.32333
G1 X91.501 Y85.786 E5.37605
G1 X92.170 Y85.467 E5.42284
G1 X92.763 Y85.328 E5.46134
G1 X93.428 Y85.379 E5.50343
G1 X94.101 Y85.544 E5.54716
G1 X95.924 Y86.115 E5.66784
G1 X96.420 Y86.173 E5.69935
G1 X96.968 Y86.120 E5.73412
G1 X98.041 Y85.842 E5.80407
G1 X99.062 Y85.513 E5.87182
G1 X99.860 Y85.331 E5.92354
G1 X100.145 Y85.343 E5.94156
G1 X100.479 Y85.426 E5.96329
G1 X101.297 Y85.746 E6.01874
G1 X102.184 Y86.048 E6.07788
G1 X102.705 Y86.101 E6.11099
G1 X103.190 Y86.008 E6.14217
G1 X104.532 Y85.521 E6.23228
G1 X105.000 Y85.420 E6.26252
G1 X105.493 Y85.398 E6.29367
G1 X105.898 Y85.455 E6.31952
G1 X106.337 Y85.590 E6.34849
G1 X108.258 Y86.445 E6.48131
G1 X108.748 Y86.586 E6.51347
G1 X109.249 Y86.603 E6.54511
G1 X109.698 Y86.440 E6.57531
G1 X110.039 Y86.179 E6.60241
G1 X110.550 Y85.679 E6.64756
G1 X110.783 Y85.502 E6.66605
G1 X111.024 Y85.392 E6.68277
G1 X111.322 Y85.353 E6.70175
G1 X111.769 Y85.420 E6.73026
G1 X113.265 Y85.834 E6.82828
G1 X113.555 Y86.030 E6.85041
G1 X113.890 Y86.496 E6.88660
G1 X114.229 Y87.072 E6.92883
G1 X114.363 Y87.517 E6.95819
G1 X114.259 Y88.154 E6.99896
G1 X113.779 Y89.194 E7.07124
G1 X112.785 Y89.703 E7.14176
G1 X111.165 Y90.053 E7.24642
G1 X111.175 Y94.472 E7.52548
G1 X106.665 Y94.472 E7.81026
G1 X106.665 Y96.538 E7.94069
G1 X106.808 Y97.254 E7.98684
G1 X107.735 Y97.590 E8.04910
G1 X108.441 Y97.333 E8.09651
G1 X108.871 Y96.735 E8.14303
G1 X109.301 Y97.333 E8.18957
G1 X110.009 Y97.590 E8.23713
G1 X111.175 Y97.166 E8.31546
G1 X111.175 Y100.186 E8.50618
G1 X108.803 Y100.186 E8.65596
G1 X108.803 Y100.130 E8.65950
G1 X106.623 Y100.130 E8.79716
G1 X106.935 Y99.357 F8400.000
G1 F1800.000 E7.79716
G92 E0
G1 X108.797 Y103.812 F8400.000
G1 E1.00000 F1800.000
G1 X110.808 Y104.544 E1.13518 F540.000
G1 X110.723 Y105.025 E1.16604
G1 X106.870 Y105.025 E1.40936
G1 X106.785 Y104.544 E1.44023
G1 X108.671 Y103.857 E1.56695
G1 X108.441 Y102.991 F8400.000
G1 X108.852 Y102.420 E1.61137 F540.000
G1 X109.301 Y103.045 E1.65998
G1 X110.007 Y103.302 E1.70739
G1 X111.175 Y102.879 E1.78586
G1 X111.175 Y104.228 E1.87107
G1 X112.691 Y104.228 E1.96680
G1 X112.691 Y108.192 E2.21710
G1 X111.795 Y108.192 E2.27368
G1 X111.795 Y105.918 E2.41728
G1 X109.279 Y105.918 E2.57615
G1 X109.279 Y108.192 E2.71974
G1 X108.385 Y108.192 E2.77620
G1 X108.385 Y105.918 E2.91979
G1 X105.869 Y105.918 E3.07866
G1 X105.869 Y108.192 E3.22226
G1 X104.973 Y108.192 E3.27883
G1 X104.973 Y104.228 E3.52914
G1 X106.489 Y104.228 E3.62487
G1 X106.489 Y102.796 E3.71527
G1 X107.735 Y103.248 E3.79898
G1 X108.315 Y103.037 E3.83793
G1 X109.113 Y103.198 F8400.000
G1 F1800.000 E2.83793
G92 E0
G1 X97.496 Y113.072 F8400.000
G1 E1.00000 F1800.000
G1 X97.509 Y113.307 E1.01488 F756.000
G1 X98.176 Y113.963 E1.07394
G1 X98.835 Y113.294 E1.13325
G1 X99.069 Y113.283 E1.14801
G1 F1800.000 E0.14801
G92 E0
G1 X105.094 Y92.049 F8400.000
G1 E1.00000 F1800.000
G1 X105.074 Y92.029 E1.00189 F1080.000
G1 X105.074 Y90.696 E1.09077
G1 X106.427 Y92.049 E1.21835
G1 X107.760 Y92.049 E1.30722
G1 X105.074 Y89.363 E1.56050
G1 X105.074 Y88.030 E1.64938
G1 X108.750 Y91.707 E1.99601
G1 X108.744 Y90.368 E2.08528
G1 X106.843 Y88.467 E2.26454
G1 X108.718 Y89.009 E2.39466
G1 X108.738 Y89.029 E2.39659
G1 X110.309 Y88.344 F8400.000
G1 X111.087 Y87.679 E2.47047 F360.000
G1 X111.514 Y88.106 E2.51404 F360.000
G1 X112.322 Y87.471 E2.58822 F360.000
G1 X112.370 Y87.519 E2.59310 F360.000
G1 X110.327 Y88.362 F8400.000
G1 X110.309 Y88.344 E2.59498 F360.000
G1 X103.800 Y87.437 F8400.000
G1 X103.782 Y87.419 E2.59579 F360.000
G1 X103.800 Y87.437 F8400.000
G1 X103.531 Y87.807 E2.61041 F360.000
G1 X103.273 Y87.549 E2.62208 F360.000
G1 X102.892 Y87.807 E2.63679 F360.000
G1 X102.725 Y87.640 E2.64434 F360.000
G1 X102.234 Y87.788 E2.66073 F360.000
G1 X102.253 Y87.807 E2.66157 F360.000
G1 X100.735 Y87.497 F8400.000
G1 X100.719 Y87.481 E2.66365 F360.000
G1 X98.901 Y87.497 E2.83034 F360.000
G1 X98.911 Y87.507 E2.83164 F360.000
G1 X97.368 Y87.621 F8400.000
G1 X97.347 Y87.601 E2.83273 F360.000
G1 X96.791 Y87.807 E2.85537 F360.000
G1 X96.669 Y87.685 E2.86195 F360.000
G1 X96.008 Y87.787 E2.88744 F360.000
G1 X96.028 Y87.807 E2.88852 F360.000
G1 X95.308 Y93.623 F8400.000
G1 X95.328 Y93.643 E2.89040 F360.000
G1 X94.686 Y94.328 E2.95271 F360.000
G1 X95.328 Y94.970 E3.01296 F360.000
G1 X94.686 Y95.655 E3.07527 F360.000
G1 X94.706 Y95.675 E3.07714 F360.000
G1 X97.421 Y99.202 F8400.000
G1 X97.441 Y99.222 E3.07893 F360.000
G1 X98.823 Y99.474 F8400.000
G1 X99.259 Y99.188 E3.09777 F360.000
G1 X99.491 Y99.419 E3.10959 F360.000
G1 X100.005 Y99.212 E3.12963 F360.000
G1 X100.021 Y99.228 E3.13045 F360.000
G1 X98.863 Y99.514 F8400.000
G1 X98.823 Y99.474 E3.13246 F360.000
G1 X101.427 Y99.204 F8400.000
G1 X101.437 Y99.214 E3.13335 F360.000
G1 X102.889 Y98.067 F8400.000
G1 X103.775 Y97.548 E3.20549 F360.000
G1 X103.795 Y97.568 E3.20747 F360.000
G1 X102.906 Y98.084 F8400.000
G1 X102.889 Y98.067 E3.20917 F360.000
G1 X104.500 Y95.675 F8400.000
G1 X104.480 Y95.655 E3.21252 F360.000
G1 X104.836 Y93.643 E3.45451 F360.000
G1 X104.816 Y93.623 E3.45786 F360.000
G1 F1800.000 E2.45786
G92 E0
G1 X101.350 Y104.666 F8400.000
G1 E1.00000 F1800.000
G1 X101.366 Y104.683 E1.00122 F360.000
G1 X101.350 Y104.666 F8400.000
G1 X100.334 Y104.683 E1.05370 F360.000
G1 X100.344 Y104.693 E1.05443 F360.000
G1 X99.109 Y104.683 F8400.000
G1 X99.092 Y104.666 E1.05568 F360.000
G1 X98.048 Y104.683 E1.11112 F360.000
G1 X98.058 Y104.693 E1.11187 F360.000
G1 X98.267 Y110.665 F8400.000
G1 X98.633 Y111.031 E1.12739 F360.000
G1 X98.897 Y110.695 E1.14019 F360.000
G1 X99.233 Y111.031 E1.15442 F360.000
G1 X99.732 Y110.931 E1.16970 F360.000
G1 X99.832 Y111.031 E1.17392 F360.000
G1 X100.172 Y110.771 E1.18674 F360.000
G1 X100.431 Y111.031 E1.19774 F360.000
G1 X100.611 Y110.611 E1.21143 F360.000
G1 X101.031 Y111.031 E1.22922 F360.000
