; generated by Slic3r 1.0.1 on 2014-07-11 at 19:15:22

; layer_height = 0.4
; perimeters = 3
; top_solid_layers = 2
; bottom_solid_layers = 1
; fill_density = 0.2
; perimeter_speed = 60
; infill_speed = 50
; travel_speed = 140
; nozzle_diameter = 0.5
; filament_diameter = 3
; extrusion_multiplier = 1
; perimeters extrusion width = 0.50mm
; infill extrusion width = 0.53mm
; solid infill extrusion width = 0.53mm
; top infill extrusion width = 0.53mm
; first layer extrusion width = 1.00mm

G21 ; set units to millimeters
M107
M190 S66 ; wait for bed temperature to be reached
M104 S205 ; set temperature
G28 ; home all axes
G1 Z5 F5000 ; lift nozzle
M109 S205 ; wait for temperature to be reached
G90 ; use absolute coordinates
G92 E0
M82 ; use absolute distances for extrusion
G1 F1800.000 E-1.00000
G92 E0
G1 Z0.500 F8400.000
G1 X21.630 Y21.518 F8400.000
G1 E1.00000 F1800.000
G1 X22.920 Y20.228 E1.11520 F1080.000
G1 X23.780 Y19.578 E1.18327
G1 X24.660 Y19.018 E1.24914
G1 X25.620 Y18.588 E1.31556
G1 X26.850 Y18.148 E1.39805
G1 X27.530 Y17.948 E1.44281
G1 X28.590 Y17.688 E1.51172
G1 X29.370 Y17.538 E1.56188
G1 X30.150 Y17.488 E1.61123
G1 X31.190 Y17.478 E1.67691
G1 X78.890 Y17.798 E4.68902
G1 X165.890 Y20.798 E10.18595
G1 X166.710 Y20.878 E10.23797
G1 X167.800 Y21.048 E10.30763
G1 X168.580 Y21.218 E10.35804
G1 X171.790 Y22.108 E10.56839
G1 X172.840 Y22.488 E10.63890
G1 X173.800 Y23.038 E10.70876
G1 X174.660 Y23.618 E10.77426
G1 X175.610 Y24.378 E10.85108
G1 X176.400 Y25.298 E10.92766
G1 X177.200 Y26.408 E11.01406
G1 X177.540 Y26.928 E11.05329
G1 X178.310 Y28.228 E11.14870
G1 X178.690 Y28.968 E11.20122
G1 X178.980 Y29.748 E11.25377
G1 X179.350 Y30.978 E11.33488
G1 X179.560 Y31.928 E11.39632
G1 X179.640 Y32.888 E11.45715
G1 X180.640 Y119.888 E16.95117
G1 X180.620 Y120.518 E16.99097
G1 X177.250 Y162.928 E19.67742
G1 X177.020 Y164.238 E19.76140
G1 X176.540 Y165.478 E19.84536
G1 X175.830 Y166.598 E19.92910
G1 X174.920 Y167.568 E20.01309
G1 X159.760 Y180.818 E21.28447
G1 X158.400 Y181.748 E21.38851
G1 X156.850 Y182.328 E21.49301
G1 X155.220 Y182.518 E21.59664
G1 X44.720 Y182.518 E28.57422
G1 X43.420 Y182.398 E28.65666
G1 X42.160 Y182.028 E28.73958
G1 X41.000 Y181.428 E28.82205
G1 X39.970 Y180.628 E28.90440
G1 X26.020 Y167.378 E30.11930
G1 X24.960 Y166.098 E30.22425
G1 X24.240 Y164.598 E30.32931
G1 X23.900 Y162.968 E30.43445
G1 X20.380 Y122.078 E33.02602
G1 X20.360 Y121.568 E33.05825
G1 X19.360 Y31.568 E38.74170
G1 X19.370 Y29.488 E38.87305
G1 X19.410 Y28.768 E38.91858
G1 X19.680 Y26.308 E39.07485
G1 X19.850 Y25.348 E39.13642
G1 X20.160 Y24.428 E39.19772
G1 X20.710 Y23.098 E39.28860
G1 X21.563 Y21.634 E39.39560
G1 F1800.000 E38.39560
G92 E0
G1 X70.830 Y145.760 F8400.000
G1 E1.00000 F1800.000
G1 X74.106 Y145.760 E1.20687 F540.000
G1 X74.106 Y149.342 E1.43302
G1 X73.975 Y149.996 E1.47517
G1 X73.566 Y150.565 E1.51943
G1 X72.470 Y150.964 E1.59305
G1 X71.370 Y150.565 E1.66693
G1 X70.961 Y149.996 E1.71121
G1 X70.830 Y149.342 E1.75337
G1 X70.830 Y145.894 E1.97107
G1 X70.830 Y144.867 F8400.000
G1 X75.378 Y145.872 F8400.000
G1 X78.654 Y145.872 E2.17793 F540.000
G1 X78.654 Y149.454 E2.40411
G1 X78.523 Y150.104 E2.44602
G1 X78.114 Y150.673 E2.49027
G1 X77.014 Y151.072 E2.56416
G1 X75.918 Y150.673 E2.63778
G1 X75.509 Y150.104 E2.68200
G1 X75.378 Y149.454 E2.72391
G1 X75.378 Y146.006 E2.94163
G1 X75.378 Y144.979 F8400.000
G1 X77.018 Y139.648 F8400.000
G1 X75.918 Y139.249 E3.01552 F540.000
G1 X75.509 Y138.680 E3.05980
G1 X75.378 Y138.025 E3.10195
G1 X75.378 Y134.444 E3.32811
G1 X78.654 Y134.444 E3.53497
G1 X78.654 Y138.026 E3.76113
G1 X78.523 Y138.680 E3.80328
G1 X78.114 Y139.249 E3.84754
G1 X77.144 Y139.602 E3.91270
G1 X76.486 Y140.365 F8400.000
G1 X73.975 Y138.680 F8400.000
G1 X73.566 Y139.249 E3.95695 F540.000
G1 X72.470 Y139.648 E4.03057
G1 X71.370 Y139.249 E4.10446
G1 X70.961 Y138.680 E4.14874
G1 X70.830 Y138.026 E4.19089
G1 X70.830 Y134.444 E4.41705
G1 X74.106 Y134.444 E4.62391
G1 X74.106 Y138.026 E4.85007
G1 X74.001 Y138.549 E4.88376
G1 X74.351 Y139.272 F8400.000
G1 F1800.000 E3.88376
G92 E0
G1 X62.575 Y137.988 F8400.000
G1 E1.00000 F1800.000
G1 X62.202 Y139.185 E1.07919 F1080.000
G1 X61.606 Y140.222 E1.15472
G1 X60.785 Y141.123 E1.23167
G1 X58.942 Y142.202 E1.36651
G1 X56.810 Y142.565 E1.50308
G1 X54.674 Y142.203 E1.63991
G1 X52.831 Y141.123 E1.77478
G1 X52.009 Y140.220 E1.85189
G1 X51.419 Y139.185 E1.92713
G1 X51.041 Y137.990 E2.00622
G1 X50.781 Y135.242 E2.18056
G1 X50.921 Y135.242 E2.18941
G1 X50.921 Y123.279 E2.94479
G1 X62.695 Y123.279 E3.68822
G1 X62.695 Y136.722 E4.53706
G1 X62.587 Y137.854 E4.60889
G1 X61.695 Y137.811 F8400.000
G1 X61.379 Y138.825 E4.67598 F756.000
G1 X60.880 Y139.693 E4.73915
G1 X60.216 Y140.421 E4.80138
G1 X58.632 Y141.350 E4.91735
G1 X56.810 Y141.659 E5.03404
G1 X54.984 Y141.350 E5.15098
G1 X53.400 Y140.421 E5.26696
G1 X52.735 Y139.692 E5.32926
G1 X52.241 Y138.825 E5.39224
G1 X51.921 Y137.812 E5.45934
G1 X51.762 Y136.134 E5.56574
G1 X51.814 Y136.134 E5.56900
G1 X51.814 Y124.172 E6.32438
G1 X61.802 Y124.172 E6.95507
G1 X61.802 Y136.680 E7.74487
G1 X61.707 Y137.678 E7.80818
G1 X62.344 Y138.424 F8400.000
G1 F1800.000 E6.80818
G92 E0
G1 X42.214 Y138.024 F8400.000
G1 E1.00000 F1800.000
G1 X42.088 Y138.680 E1.04223 F540.000
G1 X41.672 Y139.250 E1.08676
G1 X40.578 Y139.648 E1.16025
G1 X39.478 Y139.249 E1.23413
G1 X39.068 Y138.678 E1.27854
G1 X38.942 Y138.024 E1.32065
G1 X38.942 Y134.444 E1.54668
G1 X42.214 Y134.444 E1.75329
G1 X42.214 Y137.890 E1.97087
G1 X42.746 Y138.428 F8400.000
G1 F1800.000 E0.97087
G92 E0
G1 X37.666 Y138.024 F8400.000
G1 E1.00000 F1800.000
G1 X37.540 Y138.680 E1.04223 F540.000
G1 X37.124 Y139.250 E1.08676
G1 X36.030 Y139.648 E1.16025
G1 X34.930 Y139.249 E1.23413
G1 X34.520 Y138.678 E1.27854
G1 X34.394 Y138.024 E1.32065
G1 X34.394 Y134.444 E1.54668
G1 X37.666 Y134.444 E1.75329
G1 X37.666 Y137.890 E1.97087
G1 X38.198 Y138.428 F8400.000
G1 X37.666 Y145.816 F8400.000
G1 X37.666 Y149.398 E2.19705 F540.000
G1 X37.535 Y150.048 E2.23896
G1 X37.126 Y150.617 E2.28319
G1 X36.030 Y151.016 E2.35680
G1 X34.930 Y150.617 E2.43069
G1 X34.521 Y150.048 E2.47494
G1 X34.390 Y149.398 E2.51685
G1 X34.390 Y145.816 E2.74303
G1 X37.532 Y145.816 E2.94144
G1 X38.559 Y145.816 F8400.000
G1 X38.938 Y145.816 F8400.000
G1 X42.214 Y145.816 E3.14830 F540.000
G1 X42.214 Y149.396 E3.37436
G1 X42.088 Y150.049 E3.41634
G1 X41.672 Y150.618 E3.46084
G1 X40.578 Y151.016 E3.53433
G1 X39.478 Y150.617 E3.60822
G1 X39.069 Y150.048 E3.65247
G1 X38.938 Y149.398 E3.69438
G1 X38.938 Y145.950 E3.91210
G1 X38.938 Y144.923 F8400.000
G1 F1800.000 E2.91210
G92 E0
G1 X54.802 Y145.800 F8400.000
G1 E1.00000 F1800.000
G1 X58.078 Y145.800 E1.20686 F540.000
G1 X58.078 Y149.382 E1.43302
G1 X57.947 Y150.036 E1.47517
G1 X57.538 Y150.605 E1.51943
G1 X56.442 Y151.004 E1.59305
G1 X55.342 Y150.605 E1.66693
G1 X54.933 Y150.036 E1.71121
G1 X54.802 Y149.382 E1.75337
G1 X54.802 Y145.934 E1.97107
G1 X54.802 Y144.907 F8400.000
G1 X54.642 Y157.944 F8400.000
G1 X57.914 Y157.944 E2.17768 F540.000
G1 X57.914 Y161.524 E2.40374
G1 X57.788 Y162.177 E2.44572
G1 X57.372 Y162.746 E2.49022
G1 X56.278 Y163.144 E2.56374
G1 X55.184 Y162.746 E2.63726
G1 X54.768 Y162.177 E2.68176
G1 X54.642 Y161.524 E2.72374
G1 X54.642 Y158.078 E2.94134
G1 X54.642 Y157.051 F8400.000
G1 X59.242 Y158.052 F8400.000
G1 X62.518 Y158.052 E3.14821 F540.000
G1 X62.518 Y161.634 E3.37436
G1 X62.387 Y162.289 E3.41661
G1 X61.977 Y162.854 E3.46065
G1 X60.882 Y163.252 E3.53418
G1 X59.784 Y162.854 E3.60797
G1 X59.373 Y162.289 E3.65204
G1 X59.242 Y161.634 E3.69428
G1 X59.242 Y158.186 E3.91198
G1 X59.242 Y157.159 F8400.000
G1 X58.427 Y164.262 F8400.000
G1 X60.884 Y165.151 E4.07697 F540.000
G1 X61.693 Y164.857 E4.13131
G1 X61.693 Y168.835 E4.38247
G1 X51.255 Y168.835 E5.04154
G1 X51.255 Y164.927 E5.28826
G1 X51.730 Y165.100 E5.32016
G1 X54.081 Y164.244 E5.47814
G1 X56.278 Y165.044 E5.62579
G1 X58.302 Y164.307 E5.76177
G1 X57.933 Y163.492 F8400.000
G1 X58.539 Y162.661 E5.82673 F1080.000
G1 X59.223 Y163.600 E5.90007
G1 X60.883 Y164.202 E6.01160
G1 X62.585 Y163.582 E6.12598
G1 X62.585 Y167.129 E6.34994
G1 X66.829 Y167.129 E6.61793
G1 X66.829 Y174.239 E7.06694
G1 X65.823 Y174.239 E7.13050
G1 X65.823 Y169.727 E7.41541
G1 X60.005 Y169.727 E7.78275
G1 X60.005 Y174.239 E8.06767
G1 X58.739 Y174.239 E8.14765
G1 X58.739 Y169.727 E8.43256
G1 X47.121 Y169.727 E9.16615
G1 X47.121 Y174.239 E9.45106
G1 X46.115 Y174.239 E9.51462
G1 X46.115 Y167.129 E9.96362
G1 X50.363 Y167.129 E10.23187
G1 X50.363 Y163.652 E10.45138
G1 X51.730 Y164.150 E10.54327
G1 X53.385 Y163.548 E10.65447
G1 X54.024 Y162.672 E10.72296
G1 X54.623 Y163.492 E10.78707
G1 X56.278 Y164.094 E10.89827
G1 X57.807 Y163.537 E11.00102
G1 X59.699 Y156.267 F8400.000
G1 X59.699 Y156.159 E11.00784 F540.000
G1 X52.857 Y156.159 E11.43993
G1 X52.857 Y156.215 E11.44346
G1 X51.255 Y156.215 E11.54457
G1 X51.255 Y152.704 E11.76625
G1 X51.836 Y152.915 E11.80527
G1 X54.157 Y152.075 E11.96111
G1 X56.444 Y152.903 E12.11475
G1 X58.696 Y152.084 E12.26606
G1 X60.992 Y152.915 E12.42028
G1 X61.693 Y152.660 E12.46736
G1 X61.693 Y156.267 E12.69508
G1 X59.833 Y156.267 E12.81249
G1 X58.807 Y157.051 F8400.000
G1 X53.749 Y157.051 E13.13184 F540.000
G1 X53.749 Y157.107 E13.13537
G1 X50.363 Y157.107 E13.34922
G1 X50.363 Y151.429 E13.70778
G1 X51.837 Y151.966 E13.80684
G1 X53.501 Y151.363 E13.91863
G1 X54.144 Y150.469 E13.98818
G1 X54.779 Y151.351 E14.05680
G1 X56.443 Y151.954 E14.16859
G1 X58.102 Y151.350 E14.28006
G1 X58.710 Y150.505 E14.34579
G1 X59.327 Y151.363 E14.41253
G1 X60.991 Y151.966 E14.52432
G1 X62.585 Y151.385 E14.63144
G1 X62.585 Y157.159 E14.99604
G1 X58.833 Y157.159 E15.23301
G1 F1800.000 E14.23301
G92 E0
G1 X41.681 Y155.551 F8400.000
G1 E1.00000 F1800.000
G1 X34.872 Y155.551 E1.42993 F540.000
G1 X34.879 Y152.498 E1.62270
G1 X36.032 Y152.915 E1.70011
G1 X38.300 Y152.090 E1.85254
G1 X40.580 Y152.915 E2.00565
G1 X41.681 Y152.515 E2.07961
G1 X41.681 Y155.417 E2.26286
G1 X42.573 Y153.849 F8400.000
G1 X45.605 Y153.849 E2.45432 F1080.000
G1 X45.605 Y160.991 E2.90534
G1 X44.599 Y160.991 E2.96890
G1 X44.599 Y156.443 E3.25609
G1 X38.781 Y156.443 E3.62343
G1 X38.781 Y160.991 E3.91062
G1 X37.779 Y160.991 E3.97393
G1 X37.779 Y156.443 E4.26111
G1 X32.171 Y156.443 E4.61523
G1 X32.171 Y153.849 E4.77907
G1 X33.983 Y153.849 E4.89354
G1 X33.990 Y151.226 E5.05914
G1 X36.031 Y151.966 E5.19626
G1 X37.690 Y151.362 E5.30773
G1 X38.302 Y150.511 E5.37392
G1 X38.915 Y151.363 E5.44019
G1 X40.579 Y151.966 E5.55198
G1 X42.573 Y151.240 E5.68599
G1 X42.573 Y153.715 E5.84228
G1 X41.681 Y144.031 F8400.000
G1 X34.899 Y144.031 E6.27048 F540.000
G1 X34.906 Y141.140 E6.45302
G1 X36.032 Y141.547 E6.52862
G1 X38.300 Y140.722 E6.68105
G1 X40.580 Y141.547 E6.83416
G1 X41.681 Y141.147 E6.90812
G1 X41.681 Y143.897 E7.08177
G1 X42.573 Y144.923 F8400.000
G1 X34.005 Y144.923 E7.62284 F540.000
G1 X34.017 Y139.868 E7.94207
G1 X36.031 Y140.598 E8.07736
G1 X37.685 Y139.996 E8.18848
G1 X38.305 Y139.147 E8.25487
G1 X38.915 Y139.995 E8.32084
G1 X40.579 Y140.598 E8.43263
G1 X42.573 Y139.872 E8.56663
G1 X42.573 Y144.789 E8.87716
G1 F1800.000 E7.87716
G92 E0
G1 X47.767 Y141.755 F8400.000
G1 E1.00000 F1800.000
G1 X47.767 Y138.723 E1.19146 F1080.000
G1 X43.898 Y138.723 E1.43581
G1 X43.999 Y138.193 E1.46983
G1 X43.999 Y132.659 E1.81933
G1 X34.881 Y132.659 E2.39510
G1 X34.840 Y123.975 E2.94344
G1 X32.561 Y123.049 E3.09880
G1 X31.335 Y122.999 E3.17628
G1 X29.960 Y123.347 E3.26581
G1 X29.758 Y122.747 E3.30579
G1 X29.537 Y121.328 E3.39646
G1 X29.550 Y119.655 E3.50211
G1 X29.774 Y117.631 E3.63071
G1 X29.975 Y117.142 E3.66405
G1 X30.839 Y116.831 E3.72207
G1 X31.506 Y116.668 E3.76541
G1 X31.874 Y116.660 E3.78868
G1 X33.008 Y116.958 E3.86268
G1 X34.340 Y117.624 E3.95678
G1 X36.120 Y118.411 E4.07964
G1 X37.463 Y118.611 E4.16541
G1 X38.774 Y118.442 E4.24885
G1 X40.517 Y117.752 E4.36724
G1 X41.767 Y117.153 E4.45476
G1 X42.626 Y116.954 E4.51040
G1 X43.653 Y117.032 E4.57545
G1 X44.856 Y117.327 E4.65369
G1 X48.580 Y118.493 E4.90011
G1 X49.828 Y118.638 E4.97941
G1 X51.161 Y118.510 E5.06396
G1 X53.440 Y117.920 E5.21265
G1 X55.464 Y117.266 E5.34697
G1 X56.837 Y116.953 E5.43585
G1 X57.106 Y116.965 E5.45290
G1 X57.569 Y117.079 E5.48300
G1 X59.153 Y117.699 E5.59038
G1 X61.091 Y118.359 E5.71970
G1 X62.468 Y118.500 E5.80709
G1 X63.723 Y118.258 E5.88779
G1 X66.421 Y117.281 E6.06900
G1 X67.166 Y117.118 E6.11715
G1 X67.922 Y117.085 E6.16495
G1 X68.516 Y117.169 E6.20278
G1 X69.225 Y117.386 E6.24962
G1 X73.073 Y119.099 E6.51560
G1 X74.292 Y119.450 E6.59572
G1 X75.702 Y119.500 E6.68476
G1 X77.021 Y119.020 E6.77339
G1 X77.920 Y118.331 E6.84494
G1 X78.942 Y117.333 E6.93514
G1 X79.231 Y117.113 E6.95803
G1 X79.406 Y117.033 E6.97021
G1 X79.633 Y117.004 E6.98462
G1 X80.270 Y117.099 E7.02531
G1 X82.984 Y117.851 E7.20314
G1 X83.201 Y117.997 E7.21966
G1 X83.702 Y118.694 E7.27387
G1 X84.272 Y119.662 E7.34479
G1 X84.409 Y120.119 E7.37493
G1 X84.277 Y120.929 E7.42674
G1 X83.577 Y122.446 E7.53226
G1 X82.135 Y123.185 E7.63461
G1 X78.041 Y124.069 E7.89908
G1 X78.065 Y132.659 E8.44148
G1 X69.045 Y132.659 E9.01105
G1 X69.045 Y138.202 E9.36111
G1 X69.149 Y138.723 E9.39462
G1 X65.177 Y138.723 E9.64543
G1 X65.177 Y141.755 E9.83689
G1 X61.693 Y141.755 E10.05689
G1 X61.693 Y144.031 E10.20061
G1 X57.666 Y144.015 E10.45484
G1 X57.609 Y143.334 E10.49795
G1 X59.253 Y143.055 E10.60324
G1 X61.472 Y141.755 E10.76564
G1 X61.417 Y141.755 E10.76913
G1 X62.331 Y140.751 E10.85485
G1 X63.025 Y139.545 E10.94275
G1 X63.455 Y138.164 E11.03404
G1 X63.587 Y136.764 E11.12286
G1 X63.587 Y122.387 E12.03073
G1 X50.029 Y122.387 E12.88690
G1 X50.029 Y134.349 E13.64228
G1 X49.800 Y134.349 E13.65672
G1 X50.162 Y138.169 E13.89900
G1 X50.596 Y139.544 E13.99007
G1 X51.282 Y140.748 E14.07757
G1 X52.263 Y141.824 E14.16951
G1 X54.364 Y143.055 E14.32327
G1 X56.007 Y143.334 E14.42853
G1 X55.950 Y144.015 E14.47167
G1 X51.255 Y144.031 E14.76810
G1 X51.255 Y141.755 E14.91182
G1 X47.901 Y141.755 E15.12362
G1 X46.875 Y142.647 F8400.000
G1 X46.875 Y139.615 E15.31507 F1080.000
G1 X42.817 Y139.615 E15.57127
G1 X43.107 Y138.108 E15.66816
G1 X43.107 Y133.551 E15.95593
G1 X33.993 Y133.551 E16.53143
G1 X33.950 Y124.577 E17.09813
G1 X32.369 Y123.934 E17.20591
G1 X31.428 Y123.896 E17.26537
G1 X29.477 Y124.371 E17.39216
G1 X29.258 Y124.057 E17.41631
G1 X28.888 Y122.960 E17.48944
G1 X28.644 Y121.394 E17.58953
G1 X28.658 Y119.602 E17.70265
G1 X28.901 Y117.408 E17.84206
G1 X29.225 Y116.618 E17.89599
G1 X29.617 Y116.323 E17.92695
G1 X30.581 Y115.975 E17.99168
G1 X31.389 Y115.777 E18.04420
G1 X31.980 Y115.765 E18.08156
G1 X33.324 Y116.118 E18.16930
G1 X34.721 Y116.816 E18.26790
G1 X36.371 Y117.546 E18.38182
G1 X37.472 Y117.710 E18.45214
G1 X38.549 Y117.571 E18.52070
G1 X40.160 Y116.933 E18.63009
G1 X41.470 Y116.306 E18.72182
G1 X42.557 Y116.053 E18.79229
G1 X43.794 Y116.148 E18.87063
G1 X45.096 Y116.466 E18.95528
G1 X48.767 Y117.616 E19.19818
G1 X49.836 Y117.740 E19.26617
G1 X51.005 Y117.628 E19.34029
G1 X53.191 Y117.062 E19.48288
G1 X55.228 Y116.404 E19.61803
G1 X56.756 Y116.056 E19.71701
G1 X57.234 Y116.077 E19.74725
G1 X57.840 Y116.226 E19.78663
G1 X59.459 Y116.860 E19.89646
G1 X61.283 Y117.481 E20.01810
G1 X62.428 Y117.598 E20.09080
G1 X63.485 Y117.395 E20.15876
G1 X66.173 Y116.421 E20.33928
G1 X67.051 Y116.230 E20.39599
G1 X67.966 Y116.189 E20.45386
G1 X68.710 Y116.295 E20.50133
G1 X69.536 Y116.548 E20.55587
G1 X73.381 Y118.259 E20.82162
G1 X74.434 Y118.562 E20.89077
G1 X75.560 Y118.601 E20.96192
G1 X76.587 Y118.228 E21.03094
G1 X77.335 Y117.655 E21.09044
G1 X78.358 Y116.656 E21.18071
G1 X78.770 Y116.343 E21.21339
G1 X79.158 Y116.166 E21.24033
G1 X79.641 Y116.102 E21.27110
G1 X80.456 Y116.225 E21.32313
G1 X83.363 Y117.029 E21.51360
G1 X83.832 Y117.347 E21.54939
G1 X84.450 Y118.206 E21.61621
G1 X85.096 Y119.302 E21.69654
G1 X85.324 Y120.060 E21.74653
G1 X85.138 Y121.192 E21.81899
G1 X84.259 Y123.100 E21.95163
G1 X82.438 Y124.033 E22.08085
G1 X78.936 Y124.789 E22.30701
G1 X78.957 Y133.551 E22.86032
G1 X69.937 Y133.551 E23.42989
G1 X69.937 Y138.114 E23.71800
G1 X70.238 Y139.615 E23.81469
G1 X66.069 Y139.615 E24.07789
