; generated by Slic3r 1.0.1 on 2014-06-08 at 12:51:53

; layer_height = 0.4
; perimeters = 3
; top_solid_layers = 2
; bottom_solid_layers = 1
; fill_density = 0.2
; perimeter_speed = 60
; infill_speed = 50
; travel_speed = 140
; nozzle_diameter = 0.5
; filament_diameter = 3
; extrusion_multiplier = 1
; perimeters extrusion width = 0.50mm
; infill extrusion width = 0.53mm
; solid infill extrusion width = 0.53mm
; top infill extrusion width = 0.53mm
; first layer extrusion width = 0.70mm

G21 ; set units to millimeters
M107
M190 S61 ; wait for bed temperature to be reached
M104 S190 ; set temperature
G28 ; home all axes
G1 Z5 F5000 ; lift nozzle
M109 S190 ; wait for temperature to be reached
G90 ; use absolute coordinates
G92 E0
M82 ; use absolute distances for extrusion
G1 F1800.000 E-1.00000
G92 E0
G1 Z0.350 F8400.000
G1 X61.408 Y45.994 F8400.000
G1 E1.00000 F1800.000
G1 X62.138 Y45.064 E1.03847 F1080.000
G1 X63.118 Y43.924 E1.08738
G1 X64.138 Y42.844 E1.13571
G1 X65.218 Y41.804 E1.18449
G1 X66.588 Y40.614 E1.24353
G1 X67.518 Y39.884 E1.28200
G1 X68.978 Y38.854 E1.34013
G1 X70.308 Y38.004 E1.39148
G1 X71.338 Y37.424 E1.42994
G1 X72.618 Y36.764 E1.47680
G1 X74.018 Y36.124 E1.52688
G1 X75.438 Y35.554 E1.57666
G1 X76.858 Y35.064 E1.62554
G1 X78.698 Y34.544 E1.68775
G1 X80.218 Y34.204 E1.73842
G1 X81.428 Y33.994 E1.77838
G1 X83.318 Y33.754 E1.84036
G1 X84.888 Y33.644 E1.89157
G1 X86.148 Y33.614 E1.93258
G1 X113.838 Y33.614 E2.83348
G1 X115.108 Y33.644 E2.87481
G1 X116.678 Y33.754 E2.92601
G1 X118.558 Y33.994 E2.98767
G1 X120.098 Y34.274 E3.03860
G1 X121.628 Y34.624 E3.08966
G1 X122.798 Y34.954 E3.12922
G1 X124.578 Y35.564 E3.19044
G1 X125.968 Y36.124 E3.23919
G1 X127.348 Y36.754 E3.28855
G1 X128.678 Y37.434 E3.33715
G1 X129.698 Y38.014 E3.37532
G1 X130.998 Y38.834 E3.42533
G1 X132.508 Y39.914 E3.48573
G1 X133.648 Y40.824 E3.53319
G1 X134.538 Y41.594 E3.57148
G1 X135.618 Y42.614 E3.61981
G1 X136.868 Y43.924 E3.67872
G1 X137.848 Y45.064 E3.72763
G1 X138.578 Y45.994 E3.76610
G1 X139.448 Y47.214 E3.81485
G1 X140.438 Y48.744 E3.87414
G1 X141.028 Y49.774 E3.91276
G1 X141.708 Y51.094 E3.96107
G1 X142.348 Y52.494 E4.01115
G1 X143.038 Y54.234 E4.07205
G1 X143.418 Y55.374 E4.11115
G1 X143.918 Y57.174 E4.17193
G1 X144.248 Y58.644 E4.22095
G1 X144.468 Y59.854 E4.26096
G1 X144.708 Y61.744 E4.32295
G1 X144.828 Y63.364 E4.37580
G1 X144.858 Y64.624 E4.41680
G1 X144.858 Y135.364 E6.71835
G1 X144.828 Y136.624 E6.75935
G1 X144.708 Y138.244 E6.81220
G1 X144.528 Y139.754 E6.86168
G1 X144.188 Y141.624 E6.92352
G1 X143.838 Y143.154 E6.97458
G1 X143.418 Y144.624 E7.02432
G1 X143.038 Y145.764 E7.06342
G1 X142.468 Y147.214 E7.11411
G1 X141.858 Y148.584 E7.16290
G1 X141.028 Y150.214 E7.22241
G1 X140.268 Y151.524 E7.27169
G1 X139.628 Y152.524 E7.31032
G1 X138.548 Y154.034 E7.37072
G1 X137.638 Y155.174 E7.41817
G1 X136.868 Y156.064 E7.45646
G1 X135.848 Y157.144 E7.50480
G1 X134.538 Y158.394 E7.56371
G1 X133.428 Y159.344 E7.61124
G1 X132.218 Y160.294 E7.66129
G1 X130.998 Y161.154 E7.70986
G1 X129.998 Y161.794 E7.74848
G1 X128.408 Y162.704 E7.80809
G1 X127.058 Y163.384 E7.85727
G1 X125.638 Y164.014 E7.90781
G1 X124.528 Y164.444 E7.94654
G1 X123.138 Y164.924 E7.99438
G1 X121.628 Y165.364 E8.04556
G1 X119.818 Y165.774 E8.10594
G1 X118.228 Y166.054 E8.15846
G1 X116.678 Y166.234 E8.20923
G1 X115.428 Y166.324 E8.25001
G1 X113.678 Y166.384 E8.30698
G1 X86.308 Y166.384 E9.19747
G1 X84.568 Y166.324 E9.25411
G1 X83.318 Y166.234 E9.29488
G1 X81.758 Y166.054 E9.34598
G1 X80.168 Y165.774 E9.39850
G1 X78.348 Y165.354 E9.45927
G1 X76.858 Y164.924 E9.50973
G1 X75.718 Y164.534 E9.54893
G1 X74.358 Y164.014 E9.59630
G1 X72.928 Y163.384 E9.64714
G1 X71.298 Y162.554 E9.70665
G1 X70.268 Y161.964 E9.74527
G1 X68.738 Y160.974 E9.80457
G1 X67.518 Y160.104 E9.85332
G1 X66.338 Y159.164 E9.90240
G1 X65.448 Y158.394 E9.94069
G1 X64.368 Y157.374 E9.98902
G1 X63.328 Y156.294 E10.03780
G1 X62.348 Y155.174 E10.08622
G1 X61.218 Y153.744 E10.14552
G1 X60.358 Y152.524 E10.19408
G1 X59.528 Y151.204 E10.24482
G1 X58.948 Y150.174 E10.28327
G1 X58.288 Y148.894 E10.33013
G1 X57.648 Y147.494 E10.38021
G1 X57.088 Y146.104 E10.42897
G1 X56.478 Y144.324 E10.49019
G1 X56.148 Y143.154 E10.52974
G1 X55.798 Y141.624 E10.58080
G1 X55.518 Y140.084 E10.63173
G1 X55.278 Y138.194 E10.69372
G1 X55.168 Y136.624 E10.74492
G1 X55.138 Y135.364 E10.78593
G1 X55.138 Y64.624 E13.08747
G1 X55.168 Y63.364 E13.12847
G1 X55.278 Y61.794 E13.17968
G1 X55.518 Y59.904 E13.24166
G1 X55.728 Y58.694 E13.28162
G1 X56.068 Y57.174 E13.33230
G1 X56.588 Y55.334 E13.39451
G1 X57.078 Y53.914 E13.44338
G1 X57.518 Y52.794 E13.48253
G1 X58.288 Y51.094 E13.54325
G1 X58.948 Y49.814 E13.59010
G1 X59.528 Y48.784 E13.62856
G1 X60.538 Y47.214 E13.68930
G1 X61.350 Y46.074 E13.73485
G1 F1800.000 E12.73485
G92 E0
G1 X97.996 Y146.715 F8400.000
G1 E1.00000 F1800.000
G1 X98.473 Y146.568 E1.01626 F540.000
G1 X98.969 Y146.459 E1.03276
G1 X99.479 Y146.394 E1.04951
G1 X100.000 Y146.372 E1.06645
G1 X100.506 Y146.393 E1.08294
G1 X101.004 Y146.456 E1.09926
G1 X101.492 Y146.559 E1.11550
G1 X101.970 Y146.704 E1.13174
G1 X102.432 Y146.889 E1.14794
G1 X102.875 Y147.114 E1.16410
G1 X103.298 Y147.378 E1.18035
G1 X103.698 Y147.685 E1.19672
G1 X104.064 Y148.027 E1.21301
G1 X104.392 Y148.401 E1.22923
G1 X104.680 Y148.808 E1.24543
G1 X104.921 Y149.241 E1.26157
G1 X105.115 Y149.699 E1.27773
G1 X105.257 Y150.176 E1.29392
G1 X105.344 Y150.669 E1.31023
G1 X105.373 Y151.173 E1.32666
G1 X105.344 Y151.677 E1.34309
G1 X105.257 Y152.170 E1.35937
G1 X105.115 Y152.648 E1.37557
G1 X104.921 Y153.106 E1.39176
G1 X104.680 Y153.538 E1.40786
G1 X104.393 Y153.945 E1.42406
G1 X104.064 Y154.320 E1.44030
G1 X103.698 Y154.662 E1.45659
G1 X103.298 Y154.968 E1.47297
G1 X102.875 Y155.233 E1.48921
G1 X102.432 Y155.457 E1.50537
G1 X101.970 Y155.643 E1.52158
G1 X101.492 Y155.787 E1.53782
G1 X101.004 Y155.891 E1.55406
G1 X100.506 Y155.953 E1.57038
G1 X100.000 Y155.975 E1.58686
G1 X99.494 Y155.953 E1.60333
G1 X98.996 Y155.891 E1.61967
G1 X98.508 Y155.787 E1.63590
G1 X98.030 Y155.643 E1.65213
G1 X97.568 Y155.457 E1.66833
G1 X97.125 Y155.233 E1.68450
G1 X96.702 Y154.968 E1.70074
G1 X96.302 Y154.662 E1.71711
G1 X95.936 Y154.320 E1.73340
G1 X95.607 Y153.945 E1.74965
G1 X95.320 Y153.538 E1.76584
G1 X95.079 Y153.106 E1.78194
G1 X94.885 Y152.648 E1.79814
G1 X94.743 Y152.170 E1.81433
G1 X94.656 Y151.677 E1.83062
G1 X94.627 Y151.172 E1.84708
G1 X94.657 Y150.654 E1.86398
G1 X94.749 Y150.150 E1.88064
G1 X94.895 Y149.666 E1.89708
G1 X95.094 Y149.208 E1.91333
G1 X95.338 Y148.780 E1.92937
G1 X95.624 Y148.381 E1.94534
G1 X95.947 Y148.015 E1.96121
G1 X96.303 Y147.684 E1.97702
G1 X96.689 Y147.388 E1.99285
G1 X97.101 Y147.127 E2.00872
G1 X97.538 Y146.902 E2.02470
G1 X97.905 Y146.753 E2.03760
G1 X98.218 Y147.335 F8400.000
G1 X98.641 Y147.204 E2.05202 F540.000
G1 X99.081 Y147.108 E2.06668
G1 X99.535 Y147.049 E2.08158
G1 X100.000 Y147.029 E2.09670
G1 X100.451 Y147.048 E2.11139
G1 X100.894 Y147.104 E2.12593
G1 X101.328 Y147.196 E2.14037
G1 X101.752 Y147.325 E2.15477
G1 X102.161 Y147.488 E2.16910
G1 X102.552 Y147.686 E2.18336
G1 X102.923 Y147.919 E2.19762
G1 X103.273 Y148.186 E2.21193
G1 X103.591 Y148.484 E2.22612
G1 X103.876 Y148.809 E2.24016
G1 X104.123 Y149.159 E2.25410
G1 X104.330 Y149.530 E2.26795
G1 X104.496 Y149.921 E2.28174
G1 X104.616 Y150.327 E2.29552
G1 X104.690 Y150.746 E2.30937
G1 X104.715 Y151.173 E2.32330
G1 X104.690 Y151.601 E2.33723
G1 X104.616 Y152.019 E2.35106
G1 X104.496 Y152.426 E2.36484
G1 X104.330 Y152.817 E2.37866
G1 X104.123 Y153.187 E2.39247
G1 X103.876 Y153.537 E2.40642
G1 X103.591 Y153.862 E2.42048
G1 X103.273 Y154.160 E2.43466
G1 X102.923 Y154.428 E2.44897
G1 X102.552 Y154.660 E2.46324
G1 X102.161 Y154.858 E2.47750
G1 X101.752 Y155.022 E2.49183
G1 X101.328 Y155.150 E2.50622
G1 X100.894 Y155.242 E2.52067
G1 X100.451 Y155.298 E2.53520
G1 X100.000 Y155.317 E2.54989
G1 X99.549 Y155.298 E2.56456
G1 X99.105 Y155.242 E2.57912
G1 X98.671 Y155.150 E2.59355
G1 X98.248 Y155.022 E2.60794
G1 X97.839 Y154.858 E2.62227
G1 X97.448 Y154.660 E2.63653
G1 X97.077 Y154.428 E2.65080
G1 X96.727 Y154.160 E2.66511
G1 X96.409 Y153.862 E2.67929
G1 X96.124 Y153.537 E2.69335
G1 X95.877 Y153.187 E2.70729
G1 X95.670 Y152.817 E2.72111
G1 X95.504 Y152.426 E2.73492
G1 X95.384 Y152.019 E2.74871
G1 X95.310 Y151.601 E2.76254
G1 X95.285 Y151.173 E2.77649
G1 X95.311 Y150.732 E2.79085
G1 X95.389 Y150.305 E2.80499
G1 X95.513 Y149.893 E2.81897
G1 X95.683 Y149.502 E2.83284
G1 X95.892 Y149.134 E2.84660
G1 X96.138 Y148.791 E2.86035
G1 X96.418 Y148.475 E2.87410
G1 X96.728 Y148.186 E2.88786
G1 X97.065 Y147.927 E2.90171
G1 X97.427 Y147.698 E2.91564
G1 X97.812 Y147.500 E2.92973
G1 X98.126 Y147.372 E2.94077
G1 X98.439 Y147.954 F8400.000
G1 X98.809 Y147.839 E2.95334 F540.000
G1 X99.193 Y147.756 E2.96616
G1 X99.591 Y147.704 E2.97922
G1 X100.000 Y147.687 E2.99251
G1 X100.396 Y147.704 E3.00541
G1 X100.785 Y147.753 E3.01816
G1 X101.165 Y147.833 E3.03081
G1 X101.534 Y147.945 E3.04336
G1 X101.890 Y148.088 E3.05582
G1 X102.228 Y148.259 E3.06818
G1 X102.548 Y148.459 E3.08046
G1 X102.847 Y148.688 E3.09271
G1 X103.118 Y148.942 E3.10479
G1 X103.359 Y149.216 E3.11666
G1 X103.566 Y149.509 E3.12834
G1 X103.739 Y149.819 E3.13988
G1 X103.876 Y150.143 E3.15132
G1 X103.975 Y150.478 E3.16268
G1 X104.036 Y150.822 E3.17407
G1 X104.057 Y151.173 E3.18550
G1 X104.036 Y151.524 E3.19694
G1 X103.975 Y151.868 E3.20831
G1 X103.876 Y152.204 E3.21968
G1 X103.739 Y152.527 E3.23112
G1 X103.566 Y152.837 E3.24265
G1 X103.359 Y153.130 E3.25434
G1 X103.118 Y153.405 E3.26621
G1 X102.847 Y153.658 E3.27829
G1 X102.548 Y153.887 E3.29054
G1 X102.228 Y154.087 E3.30282
G1 X101.890 Y154.259 E3.31518
G1 X101.534 Y154.401 E3.32764
G1 X101.165 Y154.513 E3.34019
G1 X100.785 Y154.594 E3.35284
G1 X100.396 Y154.643 E3.36560
G1 X100.000 Y154.660 E3.37849
G1 X99.604 Y154.643 E3.39136
G1 X99.215 Y154.594 E3.40413
G1 X98.835 Y154.513 E3.41677
G1 X98.466 Y154.401 E3.42932
G1 X98.110 Y154.259 E3.44178
G1 X97.772 Y154.087 E3.45413
G1 X97.452 Y153.887 E3.46642
G1 X97.153 Y153.658 E3.47866
G1 X96.882 Y153.405 E3.49074
G1 X96.641 Y153.130 E3.50262
G1 X96.434 Y152.837 E3.51431
G1 X96.261 Y152.527 E3.52583
G1 X96.124 Y152.204 E3.53728
G1 X96.025 Y151.868 E3.54865
G1 X95.964 Y151.524 E3.56002
G1 X95.943 Y151.173 E3.57146
G1 X95.965 Y150.810 E3.58328
G1 X96.028 Y150.459 E3.59490
G1 X96.131 Y150.120 E3.60643
G1 X96.272 Y149.796 E3.61791
G1 X96.446 Y149.489 E3.62940
G1 X96.653 Y149.201 E3.64093
G1 X96.889 Y148.934 E3.65255
G1 X97.153 Y148.688 E3.66427
G1 X97.442 Y148.466 E3.67613
G1 X97.754 Y148.269 E3.68814
G1 X98.087 Y148.097 E3.70033
G1 X98.348 Y147.991 E3.70949
G1 X98.514 Y147.575 F8400.000
G1 X86.337 Y158.062 F8400.000
G1 X85.134 Y158.031 E3.74865 F1080.000
G1 X83.969 Y157.943 E3.78664
G1 X82.822 Y157.798 E3.82425
G1 X81.695 Y157.598 E3.86152
G1 X80.587 Y157.344 E3.89849
G1 X79.502 Y157.037 E3.93518
G1 X78.439 Y156.679 E3.97166
G1 X77.401 Y156.271 E4.00795
G1 X76.389 Y155.815 E4.04408
G1 X75.404 Y155.312 E4.08007
G1 X74.447 Y154.763 E4.11596
G1 X73.520 Y154.170 E4.15176
G1 X72.624 Y153.534 E4.18750
G1 X71.762 Y152.857 E4.22318
G1 X70.933 Y152.139 E4.25883
G1 X70.140 Y151.384 E4.29447
G1 X69.385 Y150.591 E4.33010
G1 X68.667 Y149.762 E4.36576
G1 X67.990 Y148.900 E4.40143
G1 X67.354 Y148.004 E4.43718
G1 X66.761 Y147.077 E4.47297
G1 X66.212 Y146.120 E4.50886
G1 X65.709 Y145.135 E4.54485
G1 X65.253 Y144.123 E4.58098
G1 X64.845 Y143.085 E4.61727
G1 X64.487 Y142.022 E4.65374
G1 X64.180 Y140.937 E4.69044
G1 X63.926 Y139.829 E4.72742
G1 X63.726 Y138.702 E4.76468
G1 X63.581 Y137.555 E4.80229
G1 X63.493 Y136.390 E4.84029
G1 X63.462 Y135.187 E4.87944
G1 X63.462 Y64.813 E7.16909
G1 X63.493 Y63.610 E7.20824
G1 X63.581 Y62.445 E7.24625
G1 X63.726 Y61.298 E7.28384
G1 X63.926 Y60.170 E7.32112
G1 X64.180 Y59.063 E7.35809
G1 X64.487 Y57.978 E7.39479
G1 X64.845 Y56.915 E7.43125
G1 X65.253 Y55.877 E7.46755
G1 X65.709 Y54.864 E7.50369
G1 X66.212 Y53.879 E7.53968
G1 X66.761 Y52.923 E7.57555
G1 X67.354 Y51.996 E7.61135
G1 X67.990 Y51.100 E7.64709
G1 X68.668 Y50.238 E7.68278
G1 X69.385 Y49.409 E7.71844
G1 X70.140 Y48.617 E7.75405
G1 X70.933 Y47.861 E7.78970
G1 X71.762 Y47.143 E7.82535
G1 X72.624 Y46.466 E7.86103
G1 X73.520 Y45.830 E7.89677
G1 X74.447 Y45.237 E7.93257
G1 X75.404 Y44.688 E7.96845
G1 X76.389 Y44.185 E8.00446
G1 X77.401 Y43.729 E8.04058
G1 X78.439 Y43.321 E8.07686
G1 X79.502 Y42.963 E8.11334
G1 X80.587 Y42.656 E8.15003
G1 X81.695 Y42.402 E8.18700
G1 X82.822 Y42.202 E8.22428
G1 X83.970 Y42.057 E8.26189
G1 X85.134 Y41.968 E8.29988
G1 X86.336 Y41.938 E8.33902
G1 X113.664 Y41.938 E9.22812
G1 X114.866 Y41.968 E9.26726
G1 X116.031 Y42.057 E9.30526
G1 X117.178 Y42.202 E9.34286
G1 X118.306 Y42.402 E9.38015
G1 X119.413 Y42.656 E9.41710
G1 X120.498 Y42.963 E9.45380
G1 X121.561 Y43.321 E9.49028
G1 X122.599 Y43.729 E9.52656
G1 X123.611 Y44.185 E9.56270
G1 X124.597 Y44.688 E9.59870
G1 X125.553 Y45.237 E9.63457
G1 X126.480 Y45.830 E9.67037
G1 X127.376 Y46.466 E9.70611
G1 X128.238 Y47.144 E9.74180
G1 X129.067 Y47.861 E9.77746
G1 X129.860 Y48.616 E9.81308
G1 X130.615 Y49.409 E9.84870
G1 X131.333 Y50.238 E9.88437
G1 X132.010 Y51.100 E9.92006
G1 X132.646 Y51.996 E9.95578
G1 X133.239 Y52.923 E9.99159
G1 X133.788 Y53.879 E10.02747
G1 X134.291 Y54.865 E10.06346
G1 X134.747 Y55.877 E10.09960
G1 X135.155 Y56.915 E10.13588
G1 X135.513 Y57.978 E10.17237
G1 X135.820 Y59.063 E10.20907
G1 X136.074 Y60.170 E10.24602
G1 X136.274 Y61.298 E10.28329
G1 X136.419 Y62.445 E10.32090
G1 X136.508 Y63.610 E10.35891
G1 X136.538 Y64.812 E10.39805
G1 X136.538 Y135.188 E12.68772
G1 X136.508 Y136.390 E12.72686
G1 X136.419 Y137.554 E12.76484
G1 X136.274 Y138.702 E12.80248
G1 X136.074 Y139.829 E12.83973
G1 X135.820 Y140.937 E12.87670
G1 X135.513 Y142.022 E12.91340
G1 X135.155 Y143.085 E12.94988
G1 X134.747 Y144.123 E12.98616
G1 X134.291 Y145.135 E13.02228
G1 X133.788 Y146.120 E13.05829
G1 X133.239 Y147.077 E13.09418
G1 X132.646 Y148.004 E13.12998
G1 X132.010 Y148.900 E13.16570
G1 X131.333 Y149.762 E13.20138
G1 X130.615 Y150.591 E13.23705
G1 X129.859 Y151.384 E13.27269
G1 X129.067 Y152.139 E13.30831
G1 X128.238 Y152.856 E13.34397
G1 X127.376 Y153.534 E13.37965
G1 X126.480 Y154.170 E13.41539
G1 X125.553 Y154.763 E13.45119
G1 X124.597 Y155.312 E13.48707
G1 X123.612 Y155.815 E13.52305
G1 X122.599 Y156.271 E13.55920
G1 X121.561 Y156.679 E13.59549
G1 X120.498 Y157.037 E13.63197
G1 X119.413 Y157.344 E13.66866
G1 X118.306 Y157.598 E13.70561
G1 X117.178 Y157.798 E13.74290
G1 X116.031 Y157.943 E13.78049
G1 X114.866 Y158.031 E13.81850
G1 X113.663 Y158.062 E13.85766
G1 X86.435 Y158.062 E14.74352
G1 X86.328 Y158.719 F8400.000
G1 X85.101 Y158.688 E14.78347 F1080.000
G1 X83.903 Y158.597 E14.82255
G1 X82.724 Y158.448 E14.86123
G1 X81.564 Y158.242 E14.89957
G1 X80.424 Y157.981 E14.93761
G1 X79.307 Y157.665 E14.97536
G1 X78.214 Y157.296 E15.01290
G1 X77.146 Y156.876 E15.05024
G1 X76.104 Y156.407 E15.08741
G1 X75.091 Y155.889 E15.12444
G1 X74.106 Y155.325 E15.16137
G1 X73.153 Y154.715 E15.19820
G1 X72.231 Y154.060 E15.23497
G1 X71.344 Y153.364 E15.27168
G1 X70.492 Y152.626 E15.30835
G1 X69.676 Y151.848 E15.34502
G1 X68.898 Y151.032 E15.38168
G1 X68.160 Y150.180 E15.41836
G1 X67.464 Y149.293 E15.45506
G1 X66.809 Y148.371 E15.49183
G1 X66.199 Y147.418 E15.52866
G1 X65.635 Y146.433 E15.56559
G1 X65.117 Y145.420 E15.60262
G1 X64.648 Y144.378 E15.63980
G1 X64.228 Y143.310 E15.67713
G1 X63.859 Y142.217 E15.71466
G1 X63.544 Y141.100 E15.75242
G1 X63.282 Y139.960 E15.79047
G1 X63.076 Y138.800 E15.82880
G1 X62.927 Y137.621 E15.86748
G1 X62.836 Y136.423 E15.90656
G1 X62.805 Y135.196 E15.94651
G1 X62.805 Y64.804 E18.23670
G1 X62.836 Y63.577 E18.27665
G1 X62.935 Y62.268 E18.31936
G1 X63.076 Y61.200 E18.35442
G1 X63.282 Y60.039 E18.39276
G1 X63.544 Y58.900 E18.43079
G1 X63.859 Y57.783 E18.46855
G1 X64.228 Y56.690 E18.50608
G1 X64.648 Y55.622 E18.54342
G1 X65.117 Y54.580 E18.58061
G1 X65.634 Y53.566 E18.61764
G1 X66.199 Y52.582 E18.65455
G1 X66.809 Y51.629 E18.69139
G1 X67.464 Y50.707 E18.72816
G1 X68.161 Y49.820 E18.76487
G1 X68.898 Y48.967 E18.80155
