; generated by Slic3r 1.0.1 on 2014-06-08 at 12:52:57

; layer_height = 0.4
; perimeters = 3
; top_solid_layers = 2
; bottom_solid_layers = 1
; fill_density = 0.2
; perimeter_speed = 60
; infill_speed = 50
; travel_speed = 140
; nozzle_diameter = 0.5
; filament_diameter = 3
; extrusion_multiplier = 1
; perimeters extrusion width = 0.50mm
; infill extrusion width = 0.53mm
; solid infill extrusion width = 0.53mm
; top infill extrusion width = 0.53mm
; first layer extrusion width = 0.70mm

G21 ; set units to millimeters
M107
M190 S61 ; wait for bed temperature to be reached
M104 S190 ; set temperature
G28 ; home all axes
G1 Z5 F5000 ; lift nozzle
M109 S190 ; wait for temperature to be reached
G90 ; use absolute coordinates
G92 E0
M82 ; use absolute distances for extrusion
G1 F1800.000 E-1.00000
G92 E0
G1 Z0.350 F8400.000
G1 X37.817 Y21.619 F8400.000
G1 E1.00000 F1800.000
G1 X38.757 Y19.979 E1.06150 F1080.000
G1 X39.957 Y18.109 E1.13379
G1 X41.407 Y16.049 E1.21575
G1 X42.567 Y14.569 E1.27693
G1 X44.007 Y12.899 E1.34868
G1 X45.527 Y11.299 E1.42048
G1 X47.337 Y9.569 E1.50194
G1 X49.007 Y8.129 E1.57368
G1 X50.487 Y6.969 E1.63486
G1 X52.287 Y5.689 E1.70672
G1 X54.427 Y4.319 E1.78939
G1 X56.327 Y3.239 E1.86050
G1 X58.017 Y2.369 E1.92234
G1 X60.367 Y1.309 E2.00622
G1 X62.147 Y0.609 E2.06845
G1 X64.257 Y-0.111 E2.14099
G1 X66.777 Y-0.821 E2.22617
G1 X69.027 Y-1.331 E2.30123
G1 X70.957 Y-1.671 E2.36499
G1 X73.237 Y-1.961 E2.43976
G1 X73.577 Y-2.001 E2.45090
G1 X75.917 Y-2.171 E2.52724
G1 X77.937 Y-2.221 E2.59298
G1 X122.047 Y-2.221 E4.02811
G1 X124.077 Y-2.171 E4.09417
G1 X126.417 Y-2.001 E4.17051
G1 X129.027 Y-1.671 E4.25610
G1 X131.317 Y-1.261 E4.33179
G1 X133.217 Y-0.821 E4.39524
G1 X135.717 Y-0.121 E4.47971
G1 X137.547 Y0.499 E4.54257
G1 X139.627 Y1.309 E4.61519
G1 X141.977 Y2.369 E4.69907
G1 X143.927 Y3.379 E4.77052
G1 X145.567 Y4.319 E4.83202
G1 X147.697 Y5.689 E4.91442
G1 X149.497 Y6.969 E4.98628
G1 X150.977 Y8.129 E5.04746
G1 X152.637 Y9.549 E5.11853
G1 X154.487 Y11.319 E5.20183
G1 X155.977 Y12.899 E5.27249
G1 X157.397 Y14.549 E5.34332
G1 X158.777 Y16.309 E5.41608
G1 X159.867 Y17.849 E5.47747
G1 X161.237 Y19.979 E5.55986
G1 X162.337 Y21.919 E5.63242
G1 X163.197 Y23.619 E5.69441
G1 X164.247 Y25.929 E5.77696
G1 X164.947 Y27.709 E5.83919
G1 X165.667 Y29.849 E5.91265
G1 X166.377 Y32.339 E5.99690
G1 X166.887 Y34.589 E6.07196
G1 X167.227 Y36.519 E6.13572
G1 X167.517 Y38.799 E6.21049
G1 X167.557 Y39.139 E6.22163
G1 X167.727 Y41.479 E6.29797
G1 X167.777 Y43.499 E6.36371
G1 X167.777 Y156.489 E10.03986
G1 X167.727 Y158.509 E10.10560
G1 X167.557 Y160.849 E10.18194
G1 X167.227 Y163.469 E10.26785
G1 X166.887 Y165.399 E10.33161
G1 X166.377 Y167.649 E10.40667
G1 X165.667 Y170.139 E10.49091
G1 X164.947 Y172.259 E10.56376
G1 X164.107 Y174.379 E10.63795
G1 X163.317 Y176.119 E10.70012
G1 X162.327 Y178.079 E10.77156
G1 X161.237 Y180.009 E10.84368
G1 X159.867 Y182.139 E10.92608
G1 X158.567 Y183.959 E10.99885
G1 X157.207 Y185.669 E11.06993
G1 X155.977 Y187.089 E11.13105
G1 X154.487 Y188.669 E11.20171
G1 X152.637 Y190.439 E11.28501
G1 X150.977 Y191.859 E11.35609
G1 X149.257 Y193.199 E11.42702
G1 X147.717 Y194.299 E11.48860
G1 X145.827 Y195.509 E11.56161
G1 X143.957 Y196.599 E11.63203
G1 X141.647 Y197.769 E11.71628
G1 X139.627 Y198.679 E11.78836
G1 X137.547 Y199.489 E11.86099
G1 X135.717 Y200.109 E11.92385
G1 X133.187 Y200.819 E12.00934
G1 X130.997 Y201.309 E12.08236
G1 X129.057 Y201.659 E12.14649
G1 X126.417 Y201.999 E12.23310
G1 X124.077 Y202.169 E12.30943
G1 X122.047 Y202.219 E12.37550
G1 X77.937 Y202.219 E13.81062
G1 X75.917 Y202.169 E13.87637
G1 X73.577 Y201.999 E13.95270
G1 X70.917 Y201.659 E14.03995
G1 X68.987 Y201.309 E14.10376
G1 X66.457 Y200.729 E14.18821
G1 X64.257 Y200.099 E14.26267
G1 X62.147 Y199.379 E14.33520
G1 X60.367 Y198.679 E14.39743
G1 X58.047 Y197.629 E14.48029
G1 X56.057 Y196.609 E14.55304
G1 X54.157 Y195.509 E14.62447
G1 X52.267 Y194.299 E14.69748
G1 X50.727 Y193.199 E14.75906
G1 X49.007 Y191.859 E14.83000
G1 X47.337 Y190.419 E14.90174
G1 X45.737 Y188.899 E14.97354
G1 X44.227 Y187.329 E15.04441
G1 X42.567 Y185.419 E15.12675
G1 X41.407 Y183.939 E15.18793
G1 X40.127 Y182.139 E15.25979
G1 X38.757 Y180.009 E15.34218
G1 X37.817 Y178.369 E15.40368
G1 X36.807 Y176.419 E15.47513
G1 X35.747 Y174.049 E15.55960
G1 X34.947 Y171.989 E15.63150
G1 X34.327 Y170.169 E15.69406
G1 X33.697 Y167.949 E15.76914
G1 X33.177 Y165.739 E15.84300
G1 X32.767 Y163.469 E15.91805
G1 X32.437 Y160.849 E16.00397
G1 X32.267 Y158.509 E16.08030
G1 X32.217 Y156.489 E16.14604
G1 X32.217 Y43.499 E19.82220
G1 X32.267 Y41.479 E19.88794
G1 X32.437 Y39.139 E19.96427
G1 X32.767 Y36.519 E20.05019
G1 X33.177 Y34.239 E20.12556
G1 X33.617 Y32.339 E20.18901
G1 X34.327 Y29.819 E20.27419
G1 X35.047 Y27.709 E20.34673
G1 X35.747 Y25.929 E20.40896
G1 X36.797 Y23.599 E20.49211
G1 X37.771 Y21.706 E20.56137
G1 F1800.000 E19.56137
G92 E0
G1 X97.130 Y175.686 F8400.000
G1 E1.00000 F1800.000
G1 X97.812 Y175.474 E1.02322 F1080.000
G1 X98.521 Y175.320 E1.04682
G1 X99.252 Y175.226 E1.07081
G1 X100.000 Y175.194 E1.09515
G1 X100.726 Y175.225 E1.11880
G1 X101.439 Y175.315 E1.14220
G1 X102.139 Y175.463 E1.16546
G1 X102.821 Y175.669 E1.18864
G1 X103.479 Y175.933 E1.21172
G1 X104.109 Y176.252 E1.23469
G1 X104.708 Y176.627 E1.25767
G1 X105.270 Y177.058 E1.28073
G1 X105.784 Y177.538 E1.30360
G1 X106.243 Y178.061 E1.32624
G1 X106.642 Y178.626 E1.34873
G1 X106.976 Y179.225 E1.37106
G1 X107.243 Y179.855 E1.39333
G1 X107.437 Y180.511 E1.41556
G1 X107.557 Y181.187 E1.43792
G1 X107.597 Y181.877 E1.46041
G1 X107.557 Y182.567 E1.48290
G1 X107.437 Y183.243 E1.50522
G1 X107.243 Y183.899 E1.52748
G1 X106.976 Y184.530 E1.54977
G1 X106.642 Y185.128 E1.57206
G1 X106.243 Y185.692 E1.59455
G1 X105.784 Y186.216 E1.61722
G1 X105.270 Y186.696 E1.64009
G1 X104.708 Y187.128 E1.66315
G1 X104.109 Y187.502 E1.68613
G1 X103.479 Y187.821 E1.70910
G1 X102.821 Y188.085 E1.73218
G1 X102.139 Y188.291 E1.75536
G1 X101.439 Y188.440 E1.77862
G1 X100.726 Y188.530 E1.80202
G1 X100.000 Y188.560 E1.82566
G1 X99.274 Y188.530 E1.84928
G1 X98.560 Y188.440 E1.87271
G1 X97.861 Y188.291 E1.89595
G1 X97.179 Y188.085 E1.91912
G1 X96.521 Y187.821 E1.94220
G1 X95.891 Y187.502 E1.96517
G1 X95.292 Y187.128 E1.98815
G1 X94.730 Y186.696 E2.01121
G1 X94.216 Y186.216 E2.03408
G1 X93.757 Y185.692 E2.05675
G1 X93.358 Y185.128 E2.07924
G1 X93.024 Y184.530 E2.10153
G1 X92.757 Y183.899 E2.12382
G1 X92.563 Y183.243 E2.14607
G1 X92.443 Y182.567 E2.16840
G1 X92.403 Y181.876 E2.19092
G1 X92.445 Y181.165 E2.21410
G1 X92.570 Y180.475 E2.23692
G1 X92.772 Y179.811 E2.25950
G1 X93.045 Y179.180 E2.28188
G1 X93.383 Y178.586 E2.30408
G1 X93.780 Y178.033 E2.32626
G1 X94.231 Y177.522 E2.34842
G1 X94.730 Y177.058 E2.37061
G1 X95.274 Y176.640 E2.39293
G1 X95.857 Y176.270 E2.41538
G1 X96.478 Y175.952 E2.43807
G1 X97.039 Y175.723 E2.45780
G1 X97.352 Y176.305 F8400.000
G1 X97.980 Y176.110 E2.47918 F540.000
G1 X98.633 Y175.968 E2.50094
G1 X99.308 Y175.881 E2.52308
G1 X100.000 Y175.852 E2.54560
G1 X100.671 Y175.880 E2.56745
G1 X101.330 Y175.963 E2.58907
G1 X101.975 Y176.100 E2.61053
G1 X102.603 Y176.290 E2.63187
G1 X103.208 Y176.532 E2.65307
G1 X103.786 Y176.825 E2.67414
G1 X104.333 Y177.167 E2.69514
G1 X104.845 Y177.560 E2.71614
G1 X105.311 Y177.996 E2.73690
G1 X105.726 Y178.469 E2.75737
G1 X106.085 Y178.976 E2.77760
G1 X106.385 Y179.514 E2.79763
G1 X106.623 Y180.077 E2.81753
G1 X106.797 Y180.662 E2.83736
G1 X106.903 Y181.264 E2.85725
G1 X106.939 Y181.877 E2.87724
G1 X106.903 Y182.491 E2.89724
G1 X106.797 Y183.092 E2.91710
G1 X106.624 Y183.677 E2.93695
G1 X106.385 Y184.241 E2.95687
G1 X106.085 Y184.777 E2.97687
G1 X105.726 Y185.285 E2.99710
G1 X105.311 Y185.759 E3.01759
G1 X104.845 Y186.194 E3.03835
G1 X104.333 Y186.587 E3.05935
G1 X103.786 Y186.930 E3.08035
G1 X103.208 Y187.222 E3.10141
G1 X102.603 Y187.464 E3.12262
G1 X101.975 Y187.654 E3.14396
G1 X101.330 Y187.791 E3.16542
G1 X100.671 Y187.874 E3.18704
G1 X100.000 Y187.903 E3.20889
G1 X99.329 Y187.874 E3.23071
G1 X98.669 Y187.791 E3.25236
G1 X98.025 Y187.654 E3.27380
G1 X97.397 Y187.464 E3.29513
G1 X96.792 Y187.222 E3.31634
G1 X96.214 Y186.930 E3.33741
G1 X95.667 Y186.587 E3.35840
G1 X95.155 Y186.194 E3.37940
G1 X94.689 Y185.759 E3.40016
G1 X94.274 Y185.285 E3.42065
G1 X93.915 Y184.777 E3.44089
G1 X93.615 Y184.241 E3.46088
G1 X93.376 Y183.677 E3.48081
G1 X93.203 Y183.092 E3.50065
G1 X93.097 Y182.491 E3.52051
G1 X93.061 Y181.877 E3.54053
G1 X93.099 Y181.243 E3.56117
G1 X93.210 Y180.629 E3.58147
G1 X93.389 Y180.038 E3.60159
G1 X93.634 Y179.474 E3.62158
G1 X93.937 Y178.941 E3.64151
G1 X94.294 Y178.443 E3.66147
G1 X94.702 Y177.981 E3.68151
G1 X95.155 Y177.560 E3.70165
G1 X95.651 Y177.179 E3.72198
G1 X96.184 Y176.841 E3.74250
G1 X96.752 Y176.549 E3.76330
G1 X97.261 Y176.342 E3.78116
G1 X97.574 Y176.924 F8400.000
G1 X98.147 Y176.746 E3.80069 F540.000
G1 X98.745 Y176.616 E3.82062
G1 X99.364 Y176.536 E3.84091
G1 X100.000 Y176.509 E3.86161
G1 X100.615 Y176.535 E3.88166
G1 X101.220 Y176.612 E3.90150
G1 X101.812 Y176.737 E3.92116
G1 X102.385 Y176.911 E3.94066
G1 X102.937 Y177.132 E3.95999
G1 X103.462 Y177.398 E3.97916
G1 X103.958 Y177.708 E3.99817
G1 X104.420 Y178.062 E4.01711
G1 X104.839 Y178.453 E4.03576
G1 X105.209 Y178.876 E4.05406
G1 X105.528 Y179.327 E4.07203
G1 X105.794 Y179.803 E4.08976
G1 X106.004 Y180.300 E4.10730
G1 X106.156 Y180.813 E4.12471
G1 X106.249 Y181.340 E4.14215
G1 X106.281 Y181.877 E4.15964
G1 X106.249 Y182.414 E4.17714
G1 X106.156 Y182.941 E4.19455
G1 X106.004 Y183.455 E4.21198
G1 X105.794 Y183.951 E4.22953
G1 X105.528 Y184.426 E4.24724
G1 X105.209 Y184.878 E4.26522
G1 X104.839 Y185.301 E4.28352
G1 X104.420 Y185.693 E4.30218
G1 X103.958 Y186.047 E4.32112
G1 X103.462 Y186.357 E4.34013
G1 X102.937 Y186.623 E4.35929
G1 X102.385 Y186.844 E4.37863
G1 X101.812 Y187.017 E4.39813
G1 X101.220 Y187.143 E4.41779
G1 X100.615 Y187.219 E4.43763
G1 X100.000 Y187.245 E4.45768
G1 X99.385 Y187.219 E4.47771
G1 X98.779 Y187.143 E4.49757
G1 X98.188 Y187.017 E4.51721
G1 X97.615 Y186.844 E4.53671
G1 X97.063 Y186.623 E4.55604
G1 X96.538 Y186.357 E4.57520
G1 X96.042 Y186.047 E4.59422
G1 X95.580 Y185.693 E4.61316
G1 X95.161 Y185.301 E4.63181
G1 X94.791 Y184.878 E4.65011
G1 X94.472 Y184.426 E4.66810
G1 X94.206 Y183.951 E4.68581
G1 X93.996 Y183.455 E4.70335
G1 X93.844 Y182.941 E4.72079
G1 X93.751 Y182.414 E4.73819
G1 X93.719 Y181.877 E4.75570
G1 X93.752 Y181.322 E4.77379
G1 X93.850 Y180.784 E4.79158
G1 X94.007 Y180.264 E4.80924
G1 X94.223 Y179.768 E4.82685
G1 X94.491 Y179.296 E4.84450
G1 X94.809 Y178.853 E4.86224
G1 X95.173 Y178.441 E4.88016
G1 X95.580 Y178.062 E4.89825
G1 X96.028 Y177.718 E4.91660
G1 X96.510 Y177.412 E4.93519
G1 X97.027 Y177.147 E4.95408
G1 X97.482 Y176.961 E4.97008
G1 X97.690 Y176.335 F8400.000
G1 X78.126 Y193.897 F8400.000
G1 X76.164 Y193.847 E5.03394 F1080.000
G1 X74.251 Y193.703 E5.09637
G1 X72.366 Y193.465 E5.15819
G1 X70.512 Y193.136 E5.21944
G1 X68.691 Y192.718 E5.28021
G1 X66.907 Y192.213 E5.34053
G1 X65.161 Y191.625 E5.40051
G1 X63.454 Y190.954 E5.46016
G1 X62.119 Y190.352 E5.50781
G1 X62.119 Y190.372 E5.50846
G1 X60.170 Y189.377 E5.57965
G1 X58.597 Y188.475 E5.63865
G1 X57.074 Y187.500 E5.69749
G1 X55.601 Y186.454 E5.75625
G1 X54.184 Y185.341 E5.81489
G1 X52.822 Y184.162 E5.87349
G1 X51.518 Y182.920 E5.93207
G1 X50.277 Y181.616 E5.99065
G1 X49.097 Y180.255 E6.04925
G1 X47.984 Y178.837 E6.10789
G1 X46.939 Y177.365 E6.16665
G1 X45.964 Y175.841 E6.22549
G1 X45.062 Y174.268 E6.28449
G1 X44.235 Y172.649 E6.34366
G1 X43.485 Y170.984 E6.40305
G1 X42.814 Y169.278 E6.46271
G1 X42.225 Y167.531 E6.52267
G1 X41.721 Y165.747 E6.58300
G1 X41.303 Y163.926 E6.64379
G1 X40.973 Y162.073 E6.70503
G1 X40.735 Y160.188 E6.76684
G1 X40.591 Y158.274 E6.82927
G1 X40.541 Y156.312 E6.89313
G1 X40.541 Y43.688 E10.55739
G1 X40.591 Y41.726 E10.62125
G1 X40.735 Y39.811 E10.68371
G1 X40.973 Y37.927 E10.74549
G1 X41.303 Y36.073 E10.80676
G1 X41.721 Y34.253 E10.86752
G1 X42.225 Y32.469 E10.92785
G1 X42.814 Y30.722 E10.98782
G1 X43.485 Y29.016 E11.04748
G1 X44.235 Y27.350 E11.10689
G1 X45.062 Y25.731 E11.16606
G1 X45.964 Y24.159 E11.22503
G1 X46.939 Y22.635 E11.28388
G1 X47.984 Y21.163 E11.34263
G1 X49.098 Y19.745 E11.40129
G1 X50.277 Y18.383 E11.45990
G1 X51.518 Y17.080 E11.51845
G1 X52.822 Y15.838 E11.57703
G1 X54.184 Y14.659 E11.63564
G1 X55.601 Y13.546 E11.69428
G1 X57.074 Y12.500 E11.75303
G1 X58.597 Y11.525 E11.81188
G1 X60.170 Y10.623 E11.87087
G1 X61.790 Y9.796 E11.93006
G1 X63.454 Y9.046 E11.98945
G1 X65.160 Y8.376 E12.04909
G1 X66.907 Y7.787 E12.10907
G1 X68.691 Y7.282 E12.16939
G1 X70.512 Y6.864 E12.23017
G1 X72.366 Y6.535 E12.29142
G1 X74.251 Y6.297 E12.35324
G1 X76.164 Y6.152 E12.41566
G1 X78.126 Y6.103 E12.47951
G1 X121.874 Y6.103 E13.90287
G1 X123.836 Y6.152 E13.96672
G1 X125.750 Y6.297 E14.02917
G1 X127.634 Y6.535 E14.09097
G1 X129.489 Y6.864 E14.15224
G1 X131.308 Y7.282 E14.21299
G1 X133.093 Y7.787 E14.27331
G1 X134.968 Y8.419 E14.33771
G1 X136.546 Y9.046 E14.39294
G1 X138.211 Y9.796 E14.45236
G1 X139.831 Y10.623 E14.51154
G1 X141.403 Y11.525 E14.57051
G1 X142.926 Y12.500 E14.62936
G1 X144.399 Y13.546 E14.68811
G1 X145.817 Y14.659 E14.74677
G1 X147.179 Y15.838 E14.80538
G1 X148.482 Y17.080 E14.86394
G1 X149.723 Y18.383 E14.92250
G1 X150.903 Y19.745 E14.98112
G1 X152.016 Y21.163 E15.03977
G1 X153.061 Y22.635 E15.09850
G1 X154.036 Y24.159 E15.15736
G1 X154.938 Y25.731 E15.21634
G1 X155.765 Y27.351 E15.27551
G1 X156.516 Y29.016 E15.33493
G1 X157.186 Y30.722 E15.39457
G1 X157.775 Y32.469 E15.45455
G1 X158.280 Y34.253 E15.51489
G1 X158.698 Y36.073 E15.57563
G1 X159.027 Y37.927 E15.63689
G1 X159.265 Y39.812 E15.69870
G1 X159.410 Y41.726 E15.76115
G1 X159.459 Y43.688 E15.82500
G1 X159.459 Y156.312 E19.48928
G1 X159.410 Y158.274 E19.55313
G1 X159.265 Y160.187 E19.61555
G1 X159.027 Y162.073 E19.67738
G1 X158.698 Y163.926 E19.73862
G1 X158.280 Y165.747 E19.79939
G1 X157.775 Y167.531 E19.85972
G1 X157.186 Y169.278 E19.91970
G1 X156.516 Y170.984 E19.97934
G1 X155.766 Y172.648 E20.03873
G1 X154.938 Y174.268 E20.09792
G1 X154.036 Y175.841 E20.15692
G1 X153.061 Y177.365 E20.21577
G1 X152.016 Y178.837 E20.27450
G1 X150.903 Y180.255 E20.33315
G1 X149.723 Y181.616 E20.39176
G1 X148.482 Y182.920 E20.45034
G1 X147.179 Y184.162 E20.50889
G1 X145.817 Y185.341 E20.56751
G1 X144.399 Y186.454 E20.62616
G1 X142.926 Y187.500 E20.68491
G1 X141.403 Y188.475 E20.74376
G1 X139.831 Y189.377 E20.80274
G1 X138.211 Y190.204 E20.86190
G1 X136.546 Y190.954 E20.92132
G1 X134.839 Y191.625 E20.98098
G1 X133.093 Y192.213 E21.04095
G1 X131.308 Y192.718 E21.10128
G1 X129.489 Y193.136 E21.16202
G1 X127.634 Y193.465 E21.22330
G1 X125.750 Y193.703 E21.28509
G1 X123.836 Y193.847 E21.34754
G1 X121.874 Y193.897 E21.41140
G1 X78.225 Y193.897 E22.83153
G1 X78.118 Y194.554 F8400.000
G1 X76.131 Y194.504 E22.89620 F1080.000
G1 X74.185 Y194.357 E22.95970
G1 X72.267 Y194.115 E23.02259
G1 X70.381 Y193.780 E23.08491
G1 X68.529 Y193.355 E23.14675
G1 X66.713 Y192.841 E23.20814
G1 X64.935 Y192.242 E23.26917
G1 X63.199 Y191.559 E23.32987
G1 X61.505 Y190.796 E23.39031
G1 X59.857 Y189.955 E23.45053
G1 X58.256 Y189.037 E23.51056
G1 X56.706 Y188.044 E23.57044
G1 X55.208 Y186.981 E23.63022
G1 X53.765 Y185.848 E23.68990
G1 X52.380 Y184.648 E23.74952
G1 X51.054 Y183.385 E23.80912
G1 X49.790 Y182.058 E23.86873
G1 X48.590 Y180.673 E23.92835
G1 X47.458 Y179.230 E23.98802
G1 X46.394 Y177.732 E24.04780
G1 X45.402 Y176.182 E24.10768
G1 X44.484 Y174.581 E24.16772
G1 X43.642 Y172.933 E24.22793
G1 X42.879 Y171.239 E24.28837
G1 X42.196 Y169.503 E24.34907
G1 X41.597 Y167.726 E24.41010
G1 X41.084 Y165.910 E24.47149
G1 X40.659 Y164.057 E24.53334
G1 X40.324 Y162.171 E24.59565
G1 X40.081 Y160.254 E24.65854
G1 X39.935 Y158.307 E24.72204
G1 X39.884 Y156.320 E24.78671
G1 X39.884 Y43.680 E28.45151
G1 X39.935 Y41.693 E28.51617
G1 X40.081 Y39.745 E28.57970
G1 X40.324 Y37.829 E28.64257
G1 X40.659 Y35.942 E28.70490
G1 X41.084 Y34.090 E28.76673
G1 X41.597 Y32.274 E28.82812
G1 X42.196 Y30.497 E28.88914
G1 X42.879 Y28.760 E28.94985
G1 X43.642 Y27.066 E29.01031
G1 X44.484 Y25.418 E29.07052
