; generated by Slic3r 1.0.1 on 2014-06-16 at 01:40:55

; layer_height = 0.4
; perimeters = 3
; top_solid_layers = 2
; bottom_solid_layers = 1
; fill_density = 0.2
; perimeter_speed = 60
; infill_speed = 50
; travel_speed = 140
; nozzle_diameter = 0.5
; filament_diameter = 3
; extrusion_multiplier = 1
; perimeters extrusion width = 0.50mm
; infill extrusion width = 0.53mm
; solid infill extrusion width = 0.53mm
; top infill extrusion width = 0.53mm
; first layer extrusion width = 0.70mm

G21 ; set units to millimeters
M107
M190 S61 ; wait for bed temperature to be reached
M104 S190 ; set temperature
G28 ; home all axes
G1 Z5 F5000 ; lift nozzle
M109 S190 ; wait for temperature to be reached
G90 ; use absolute coordinates
G92 E0
M82 ; use absolute distances for extrusion
G1 F1800.000 E-1.00000
G92 E0
G1 Z0.350 F8400.000
G1 X29.647 Y14.404 F8400.000
G1 E1.00000 F1800.000
G1 X30.767 Y12.244 E1.07916 F1080.000
G1 X31.827 Y10.394 E1.14853
G1 X33.127 Y8.334 E1.22778
G1 X34.737 Y6.074 E1.31806
G1 X36.047 Y4.404 E1.38712
G1 X37.627 Y2.564 E1.46603
G1 X39.307 Y0.784 E1.54566
G1 X41.057 Y-0.896 E1.62459
G1 X41.307 Y-1.116 E1.63542
G1 X43.147 Y-2.696 E1.71433
G1 X44.817 Y-4.006 E1.78339
G1 X47.077 Y-5.616 E1.87366
G1 X49.137 Y-6.916 E1.95292
G1 X50.987 Y-7.976 E2.02229
G1 X53.147 Y-9.096 E2.10145
G1 X55.707 Y-10.246 E2.19276
G1 X57.707 Y-11.036 E2.26272
G1 X60.087 Y-11.846 E2.34452
G1 X62.817 Y-12.616 E2.43680
G1 X64.957 Y-13.106 E2.50823
G1 X67.457 Y-13.556 E2.59087
G1 X70.337 Y-13.926 E2.68535
G1 X72.937 Y-14.116 E2.77016
G1 X75.217 Y-14.166 E2.84436
G1 X124.777 Y-14.166 E4.45681
G1 X127.057 Y-14.116 E4.53100
G1 X129.647 Y-13.926 E4.61550
G1 X132.537 Y-13.556 E4.71029
G1 X135.037 Y-13.106 E4.79294
G1 X137.167 Y-12.616 E4.86405
G1 X139.577 Y-11.946 E4.94543
G1 X142.267 Y-11.046 E5.03772
G1 X144.277 Y-10.256 E5.10798
G1 X146.847 Y-9.096 E5.19972
G1 X149.007 Y-7.976 E5.27888
G1 X151.127 Y-6.756 E5.35846
G1 X152.917 Y-5.616 E5.42751
G1 X154.927 Y-4.196 E5.50758
G1 X156.847 Y-2.686 E5.58705
G1 X158.927 Y-0.896 E5.67633
G1 X160.457 Y0.564 E5.74514
G1 X162.137 Y2.314 E5.82407
G1 X163.737 Y4.144 E5.90315
G1 X165.257 Y6.074 E5.98308
G1 X166.677 Y8.074 E6.06289
G1 X167.987 Y10.104 E6.14149
G1 X169.227 Y12.244 E6.22196
G1 X170.487 Y14.724 E6.31246
G1 X171.487 Y16.964 E6.39228
G1 X172.277 Y18.964 E6.46224
G1 X173.177 Y21.634 E6.55391
G1 X173.867 Y24.074 E6.63641
G1 X174.427 Y26.564 E6.71945
G1 X174.807 Y28.744 E6.79144
G1 X175.127 Y31.254 E6.87377
G1 X175.337 Y33.844 E6.95831
G1 X175.417 Y36.624 E7.04879
G1 X175.417 Y163.374 E11.17263
G1 X175.337 Y166.144 E11.26279
G1 X175.167 Y168.394 E11.33621
G1 X174.807 Y171.244 E11.42967
G1 X174.357 Y173.774 E11.51327
G1 X173.867 Y175.914 E11.58470
G1 X173.087 Y178.644 E11.67708
G1 X172.287 Y181.014 E11.75846
G1 X171.497 Y183.024 E11.82872
G1 X170.487 Y185.274 E11.90897
G1 X169.387 Y187.454 E11.98841
G1 X167.987 Y189.884 E12.07965
G1 X166.677 Y191.914 E12.15826
G1 X165.257 Y193.914 E12.23806
G1 X163.737 Y195.844 E12.31799
G1 X162.347 Y197.444 E12.38695
G1 X160.677 Y199.204 E12.46588
G1 X158.927 Y200.884 E12.54481
G1 X156.847 Y202.674 E12.63409
G1 X154.927 Y204.184 E12.71357
G1 X153.197 Y205.414 E12.78263
G1 X151.147 Y206.734 E12.86196
G1 X149.007 Y207.974 E12.94242
G1 X146.527 Y209.234 E13.03293
G1 X144.277 Y210.244 E13.11317
G1 X142.267 Y211.034 E13.18344
G1 X139.897 Y211.834 E13.26482
G1 X137.477 Y212.524 E13.34669
G1 X135.037 Y213.094 E13.42821
G1 X132.537 Y213.544 E13.51086
G1 X129.647 Y213.914 E13.60565
G1 X127.407 Y214.084 E13.67874
G1 X124.627 Y214.164 E13.76923
G1 X75.367 Y214.164 E15.37191
G1 X72.587 Y214.084 E15.46240
G1 X70.337 Y213.914 E15.53581
G1 X67.787 Y213.594 E15.61943
G1 X64.957 Y213.094 E15.71293
G1 X62.817 Y212.604 E15.78435
G1 X60.407 Y211.934 E15.86574
G1 X57.707 Y211.024 E15.95844
G1 X55.707 Y210.234 E16.02840
G1 X53.467 Y209.234 E16.10821
G1 X51.267 Y208.124 E16.18838
G1 X49.137 Y206.914 E16.26809
G1 X46.797 Y205.414 E16.35852
G1 X45.067 Y204.184 E16.42758
G1 X43.147 Y202.684 E16.50685
G1 X41.307 Y201.104 E16.58576
G1 X39.527 Y199.424 E16.66539
G1 X37.847 Y197.674 E16.74432
G1 X36.047 Y195.584 E16.83406
G1 X34.547 Y193.664 E16.91333
G1 X33.127 Y191.654 E16.99340
G1 X31.987 Y189.864 E17.06245
G1 X30.627 Y187.484 E17.15163
G1 X29.497 Y185.274 E17.23239
G1 X28.617 Y183.324 E17.30199
G1 X27.697 Y181.014 E17.38289
G1 X26.797 Y178.324 E17.47518
G1 X26.127 Y175.914 E17.55656
G1 X25.637 Y173.774 E17.62799
G1 X25.137 Y170.944 E17.72149
G1 X24.817 Y168.394 E17.80510
G1 X24.647 Y166.144 E17.87852
G1 X24.577 Y163.524 E17.96379
G1 X24.577 Y36.474 E22.09739
G1 X24.627 Y34.194 E22.17159
G1 X24.817 Y31.594 E22.25640
G1 X25.137 Y29.044 E22.34002
G1 X25.637 Y26.214 E22.43352
G1 X26.127 Y24.074 E22.50495
G1 X26.797 Y21.664 E22.58633
G1 X27.587 Y19.294 E22.66761
G1 X28.497 Y16.964 E22.74899
G1 X29.605 Y14.493 E22.83710
G1 F1800.000 E21.83710
G92 E0
G1 X96.842 Y185.342 F8400.000
G1 E1.00000 F1800.000
G1 X97.592 Y185.110 E1.02554 F1080.000
G1 X98.372 Y184.940 E1.05151
G1 X99.176 Y184.836 E1.07791
G1 X100.000 Y184.801 E1.10472
G1 X100.799 Y184.835 E1.13075
G1 X101.585 Y184.935 E1.15652
G1 X102.354 Y185.098 E1.18211
G1 X103.104 Y185.325 E1.20761
G1 X103.828 Y185.615 E1.23298
G1 X104.520 Y185.965 E1.25822
G1 X105.177 Y186.376 E1.28344
G1 X105.794 Y186.849 E1.30873
G1 X106.357 Y187.375 E1.33379
G1 X106.859 Y187.948 E1.35858
G1 X107.296 Y188.565 E1.38316
G1 X107.661 Y189.220 E1.40756
G1 X107.952 Y189.908 E1.43186
G1 X108.164 Y190.622 E1.45611
G1 X108.295 Y191.360 E1.48048
G1 X108.338 Y192.112 E1.50499
G1 X108.295 Y192.864 E1.52951
G1 X108.164 Y193.600 E1.55384
G1 X107.952 Y194.316 E1.57811
G1 X107.661 Y195.004 E1.60244
G1 X107.296 Y195.658 E1.62679
G1 X106.860 Y196.275 E1.65138
G1 X106.357 Y196.849 E1.67619
G1 X105.794 Y197.375 E1.70125
G1 X105.177 Y197.848 E1.72654
G1 X104.520 Y198.259 E1.75177
G1 X103.828 Y198.609 E1.77700
G1 X103.104 Y198.899 E1.80238
G1 X102.354 Y199.126 E1.82787
G1 X101.585 Y199.289 E1.85347
G1 X100.799 Y199.388 E1.87923
G1 X100.000 Y199.422 E1.90526
G1 X99.201 Y199.388 E1.93126
G1 X98.414 Y199.289 E1.95706
G1 X97.646 Y199.126 E1.98263
G1 X96.896 Y198.899 E2.00812
G1 X96.172 Y198.609 E2.03349
G1 X95.480 Y198.259 E2.05873
G1 X94.823 Y197.848 E2.08395
G1 X94.206 Y197.375 E2.10925
G1 X93.643 Y196.849 E2.13431
G1 X93.140 Y196.275 E2.15912
G1 X92.704 Y195.658 E2.18370
G1 X92.339 Y195.004 E2.20805
G1 X92.048 Y194.316 E2.23238
G1 X91.836 Y193.600 E2.25666
G1 X91.705 Y192.864 E2.28099
G1 X91.662 Y192.111 E2.30553
G1 X91.708 Y191.335 E2.33081
G1 X91.844 Y190.583 E2.35569
G1 X92.064 Y189.859 E2.38030
G1 X92.362 Y189.170 E2.40472
G1 X92.731 Y188.522 E2.42899
G1 X93.165 Y187.917 E2.45323
G1 X93.659 Y187.358 E2.47749
G1 X94.206 Y186.849 E2.50181
G1 X94.803 Y186.390 E2.52628
G1 X95.443 Y185.985 E2.55093
G1 X96.124 Y185.635 E2.57586
G1 X96.751 Y185.380 E2.59786
G1 X96.966 Y186.001 F8400.000
G1 X97.759 Y185.746 E2.62496 F1080.000
G1 X98.484 Y185.588 E2.64909
G1 X99.232 Y185.492 E2.67364
G1 X100.000 Y185.459 E2.69863
G1 X100.744 Y185.491 E2.72286
G1 X101.475 Y185.583 E2.74684
G1 X102.191 Y185.735 E2.77064
G1 X102.887 Y185.945 E2.79430
G1 X103.557 Y186.214 E2.81780
G1 X104.197 Y186.538 E2.84113
G1 X104.802 Y186.917 E2.86437
G1 X105.369 Y187.351 E2.88760
G1 X105.884 Y187.833 E2.91056
G1 X106.343 Y188.355 E2.93317
G1 X106.739 Y188.916 E2.95549
G1 X107.070 Y189.509 E2.97759
G1 X107.333 Y190.130 E2.99953
G1 X107.523 Y190.773 E3.02137
G1 X107.641 Y191.436 E3.04328
G1 X107.680 Y192.112 E3.06529
G1 X107.641 Y192.787 E3.08731
G1 X107.523 Y193.449 E3.10918
G1 X107.333 Y194.094 E3.13104
G1 X107.070 Y194.715 E3.15300
G1 X106.739 Y195.307 E3.17506
G1 X106.343 Y195.868 E3.19739
G1 X105.884 Y196.391 E3.22002
G1 X105.369 Y196.873 E3.24297
G1 X104.802 Y197.307 E3.26621
G1 X104.197 Y197.686 E3.28945
G1 X103.557 Y198.010 E3.31278
G1 X102.887 Y198.279 E3.33628
G1 X102.191 Y198.489 E3.35994
G1 X101.475 Y198.641 E3.38373
G1 X100.744 Y198.733 E3.40771
G1 X100.000 Y198.765 E3.43195
G1 X99.256 Y198.733 E3.45616
G1 X98.524 Y198.641 E3.48017
G1 X97.809 Y198.489 E3.50394
G1 X97.113 Y198.279 E3.52759
G1 X96.443 Y198.010 E3.55109
G1 X95.803 Y197.686 E3.57443
G1 X95.198 Y197.307 E3.59767
G1 X94.631 Y196.873 E3.62090
G1 X94.116 Y196.391 E3.64385
G1 X93.657 Y195.868 E3.66648
G1 X93.261 Y195.307 E3.68881
G1 X92.930 Y194.715 E3.71087
G1 X92.667 Y194.094 E3.73283
G1 X92.477 Y193.449 E3.75469
G1 X92.359 Y192.787 E3.77657
G1 X92.320 Y192.111 E3.79860
G1 X92.361 Y191.414 E3.82133
G1 X92.484 Y190.738 E3.84370
G1 X92.681 Y190.086 E3.86585
G1 X92.951 Y189.464 E3.88789
G1 X93.285 Y188.877 E3.90988
G1 X93.680 Y188.327 E3.93190
G1 X94.130 Y187.817 E3.95404
G1 X94.631 Y187.351 E3.97631
G1 X95.180 Y186.930 E3.99880
G1 X95.769 Y186.556 E4.02152
G1 X96.399 Y186.232 E4.04455
G1 X96.875 Y186.038 E4.06128
G1 X97.214 Y186.610 F8400.000
G1 X97.927 Y186.382 E4.08561 F756.000
G1 X98.596 Y186.236 E4.10790
G1 X99.288 Y186.147 E4.13061
G1 X100.000 Y186.117 E4.15377
G1 X100.689 Y186.146 E4.17621
G1 X101.366 Y186.231 E4.19841
G1 X102.027 Y186.372 E4.22041
G1 X102.669 Y186.566 E4.24222
G1 X103.286 Y186.813 E4.26385
G1 X103.873 Y187.111 E4.28528
G1 X104.427 Y187.457 E4.30654
G1 X104.944 Y187.853 E4.32771
G1 X105.412 Y188.291 E4.34855
G1 X105.826 Y188.763 E4.36899
G1 X106.182 Y189.266 E4.38906
G1 X106.479 Y189.798 E4.40886
G1 X106.713 Y190.352 E4.42843
G1 X106.883 Y190.924 E4.44786
G1 X106.987 Y191.513 E4.46731
G1 X107.022 Y192.112 E4.48682
G1 X106.987 Y192.711 E4.50634
G1 X106.883 Y193.298 E4.52576
G1 X106.713 Y193.872 E4.54521
G1 X106.478 Y194.426 E4.56479
G1 X106.182 Y194.956 E4.58456
G1 X105.826 Y195.461 E4.60465
G1 X105.412 Y195.933 E4.62509
G1 X104.944 Y196.371 E4.64594
G1 X104.427 Y196.767 E4.66710
G1 X103.873 Y197.113 E4.68837
G1 X103.286 Y197.411 E4.70980
G1 X102.669 Y197.658 E4.73142
G1 X102.027 Y197.852 E4.75324
G1 X101.366 Y197.992 E4.77524
G1 X100.689 Y198.078 E4.79744
G1 X100.000 Y198.107 E4.81988
G1 X99.311 Y198.078 E4.84228
G1 X98.633 Y197.992 E4.86451
G1 X97.973 Y197.852 E4.88649
G1 X97.331 Y197.658 E4.90830
G1 X96.714 Y197.411 E4.92993
G1 X96.127 Y197.113 E4.95136
G1 X95.573 Y196.767 E4.97262
G1 X95.056 Y196.371 E4.99379
G1 X94.588 Y195.933 E5.01463
G1 X94.174 Y195.461 E5.03507
G1 X93.818 Y194.956 E5.05516
G1 X93.522 Y194.426 E5.07493
G1 X93.287 Y193.872 E5.09451
G1 X93.117 Y193.298 E5.11396
G1 X93.013 Y192.711 E5.13338
G1 X92.978 Y192.112 E5.15291
G1 X93.015 Y191.492 E5.17309
G1 X93.124 Y190.892 E5.19294
G1 X93.299 Y190.313 E5.21264
G1 X93.540 Y189.758 E5.23230
G1 X93.839 Y189.232 E5.25200
G1 X94.194 Y188.737 E5.27181
G1 X94.602 Y188.276 E5.29182
G1 X95.056 Y187.853 E5.31204
G1 X95.556 Y187.469 E5.33255
G1 X96.096 Y187.127 E5.35334
G1 X96.674 Y186.830 E5.37447
G1 X97.123 Y186.647 E5.39026
G1 X97.337 Y185.964 F8400.000
G1 X75.389 Y205.842 F8400.000
G1 X73.174 Y205.786 E5.46236 F1080.000
G1 X71.011 Y205.623 E5.53293
G1 X68.880 Y205.354 E5.60281
G1 X66.785 Y204.981 E5.67205
G1 X64.726 Y204.509 E5.74076
G1 X62.709 Y203.939 E5.80896
G1 X60.734 Y203.273 E5.87677
G1 X58.805 Y202.515 E5.94421
G1 X56.923 Y201.667 E6.01136
G1 X55.092 Y200.732 E6.07826
G1 X53.314 Y199.712 E6.14496
G1 X51.592 Y198.610 E6.21149
G1 X49.927 Y197.427 E6.27791
G1 X48.324 Y196.169 E6.34422
G1 X46.785 Y194.836 E6.41046
G1 X45.311 Y193.432 E6.47669
G1 X43.907 Y191.958 E6.54291
G1 X42.574 Y190.419 E6.60916
G1 X41.316 Y188.816 E6.67546
G1 X40.134 Y187.152 E6.74188
G1 X39.031 Y185.429 E6.80841
G1 X38.011 Y183.651 E6.87511
G1 X37.076 Y181.820 E6.94201
G1 X36.229 Y179.938 E7.00916
G1 X35.470 Y178.009 E7.07661
G1 X34.804 Y176.034 E7.14440
G1 X34.235 Y174.017 E7.21260
G1 X33.762 Y171.958 E7.28133
G1 X33.389 Y169.863 E7.35056
G1 X33.120 Y167.732 E7.42044
G1 X32.957 Y165.569 E7.49102
G1 X32.901 Y163.354 E7.56312
G1 X32.901 Y36.646 E11.68558
G1 X32.957 Y34.431 E11.75768
G1 X33.120 Y32.267 E11.82828
G1 X33.389 Y30.137 E11.89813
G1 X33.762 Y28.041 E11.96739
G1 X34.235 Y25.983 E12.03609
G1 X34.804 Y23.966 E12.10429
G1 X35.470 Y21.991 E12.17209
G1 X36.229 Y20.062 E12.23954
G1 X37.076 Y18.179 E12.30671
G1 X38.011 Y16.348 E12.37360
G1 X39.031 Y14.571 E12.44028
G1 X40.134 Y12.848 E12.50681
G1 X41.316 Y11.184 E12.57323
G1 X42.574 Y9.581 E12.63954
G1 X43.907 Y8.041 E12.70580
G1 X45.311 Y6.568 E12.77200
G1 X46.785 Y5.164 E12.83823
G1 X48.324 Y3.831 E12.90448
G1 X49.927 Y2.573 E12.97078
G1 X51.592 Y1.390 E13.03720
G1 X53.314 Y0.288 E13.10373
G1 X55.092 Y-0.732 E13.17043
G1 X56.924 Y-1.667 E13.23734
G1 X58.805 Y-2.516 E13.30449
G1 X60.734 Y-3.273 E13.37192
G1 X62.709 Y-3.939 E13.43973
G1 X64.726 Y-4.509 E13.50793
G1 X66.785 Y-4.981 E13.57664
G1 X68.880 Y-5.354 E13.64589
G1 X71.011 Y-5.623 E13.71578
G1 X73.174 Y-5.787 E13.78634
G1 X75.389 Y-5.842 E13.85843
G1 X124.611 Y-5.842 E15.45987
G1 X126.826 Y-5.787 E15.53196
G1 X128.990 Y-5.623 E15.60256
G1 X131.120 Y-5.354 E15.67242
G1 X133.216 Y-4.981 E15.74169
G1 X135.274 Y-4.509 E15.81037
G1 X137.291 Y-3.939 E15.87857
G1 X139.266 Y-3.273 E15.94639
G1 X141.195 Y-2.515 E16.01381
G1 X143.077 Y-1.667 E16.08099
G1 X144.909 Y-0.732 E16.14789
G1 X146.686 Y0.288 E16.21457
G1 X148.408 Y1.390 E16.28110
G1 X150.073 Y2.573 E16.34752
G1 X151.676 Y3.831 E16.41383
G1 X153.216 Y5.164 E16.48009
G1 X154.689 Y6.568 E16.54630
G1 X156.093 Y8.041 E16.61250
G1 X157.426 Y9.581 E16.67877
G1 X158.685 Y11.184 E16.74509
G1 X159.866 Y12.848 E16.81149
G1 X160.969 Y14.571 E16.87803
G1 X161.989 Y16.348 E16.94471
G1 X162.924 Y18.180 E17.01161
G1 X163.772 Y20.062 E17.07878
G1 X164.530 Y21.991 E17.14621
G1 X165.196 Y23.966 E17.21403
G1 X165.766 Y25.984 E17.28224
G1 X166.239 Y28.041 E17.35091
G1 X166.611 Y30.137 E17.42017
G1 X166.880 Y32.267 E17.49004
G1 X167.044 Y34.431 E17.56064
G1 X167.099 Y36.646 E17.63273
G1 X167.099 Y163.354 E21.75521
G1 X167.044 Y165.569 E21.82729
G1 X166.880 Y167.732 E21.89786
G1 X166.611 Y169.863 E21.96776
G1 X166.239 Y171.958 E22.03699
G1 X165.766 Y174.017 E22.10569
G1 X165.196 Y176.034 E22.17390
G1 X164.530 Y178.009 E22.24172
G1 X163.772 Y179.938 E22.30914
G1 X162.924 Y181.819 E22.37629
G1 X161.989 Y183.651 E22.44320
G1 X160.969 Y185.429 E22.50991
G1 X159.866 Y187.152 E22.57644
G1 X158.685 Y188.816 E22.64284
G1 X157.426 Y190.419 E22.70915
G1 X156.093 Y191.958 E22.77541
G1 X154.689 Y193.432 E22.84164
G1 X153.216 Y194.836 E22.90783
G1 X151.676 Y196.169 E22.97410
G1 X150.073 Y197.427 E23.04040
G1 X148.408 Y198.610 E23.10683
G1 X146.686 Y199.712 E23.17336
G1 X144.909 Y200.732 E23.24004
G1 X143.078 Y201.667 E23.30693
G1 X141.195 Y202.515 E23.37410
G1 X139.266 Y203.273 E23.44155
G1 X137.291 Y203.939 E23.50936
G1 X135.274 Y204.509 E23.57756
G1 X133.216 Y204.981 E23.64624
G1 X131.120 Y205.354 E23.71551
G1 X128.990 Y205.623 E23.78536
G1 X126.826 Y205.786 E23.85596
G1 X124.611 Y205.842 E23.92806
G1 X75.488 Y205.842 E25.52628
G1 X75.381 Y206.499 F8400.000
G1 X73.141 Y206.443 E25.59918 F1080.000
G1 X70.945 Y206.277 E25.67083
G1 X68.781 Y206.004 E25.74179
G1 X66.654 Y205.625 E25.81210
G1 X64.563 Y205.146 E25.88187
G1 X62.515 Y204.567 E25.95114
G1 X60.509 Y203.891 E26.02000
G1 X58.550 Y203.120 E26.08850
G1 X56.639 Y202.259 E26.15669
G1 X54.779 Y201.310 E26.22463
G1 X52.973 Y200.274 E26.29237
G1 X51.224 Y199.154 E26.35993
G1 X49.534 Y197.954 E26.42738
G1 X47.906 Y196.676 E26.49471
G1 X46.343 Y195.323 E26.56198
G1 X44.846 Y193.897 E26.62923
G1 X43.421 Y192.400 E26.69648
G1 X42.067 Y190.837 E26.76375
G1 X40.789 Y189.210 E26.83108
G1 X39.589 Y187.519 E26.89853
G1 X38.469 Y185.770 E26.96610
G1 X37.434 Y183.964 E27.03384
G1 X36.484 Y182.104 E27.10178
G1 X35.623 Y180.193 E27.16997
G1 X34.853 Y178.234 E27.23846
G1 X34.176 Y176.229 E27.30732
G1 X33.598 Y174.180 E27.37659
G1 X33.118 Y172.089 E27.44637
G1 X32.740 Y169.962 E27.51668
G1 X32.466 Y167.798 E27.58763
G1 X32.301 Y165.602 E27.65928
G1 X32.244 Y163.362 E27.73218
G1 X32.244 Y36.638 E31.85518
G1 X32.301 Y34.398 E31.92809
G1 X32.474 Y32.090 E32.00338
G1 X32.740 Y30.038 E32.07070
G1 X33.118 Y27.910 E32.14103
G1 X33.598 Y25.820 E32.21079
G1 X34.176 Y23.771 E32.28005
G1 X34.853 Y21.766 E32.34891
G1 X35.623 Y19.807 E32.41741
G1 X36.484 Y17.895 E32.48562
G1 X37.433 Y16.035 E32.55356
G1 X38.469 Y14.230 E32.62128
